(G-CODE GENERATED BY FLATCAM v8.912 - www.flatcam.org - Version Date: 2019/03/17)

(Name: Alignment Drills_cnc)
(Type: G-code from Excellon)
(Units: MM)

(Created on Monday, 25 March 2019 at 16:05)

(Feedrate: 200.0 mm/min)
(Feedrate rapids 76.2 mm/min)

(Z_Cut: -7.0 mm)
(Z_Move: 10.0 mm)
(Z Toolchange: 25.4 mm)
(X,Y Toolchange: 0.0000, 0.0000 mm)
(Z Start: None mm)
(Z End: 50.8 mm)
(Steps per circle: 64)
(Postprocessor Excellon: default)

(X range:   -6.5826 ...  103.1735  mm)
(Y range:   56.6544 ...   59.6544  mm)

(Spindle Speed: 19000.0 RPM)
G94 ( Millimeters per minute feed rate. )
G21 ( Units == Millimeters. )
G90 ( Absolute coordinates. )
G64 P0.01000 ( set maximum deviation from commanded toolpath )



G21
G90
G94

G01 F200.00
G00 Z10.0000

M03 S19000.0
G4 P0.5
G00 X-5.0826 Y58.1544
G01 Z-7.0000
G00 Z10.0000
G00 X101.6735 Y58.1544
G01 Z-7.0000
G00 Z10.0000
M05
G00 Z50.80
G00 X0.0 Y0.0

G04 P0 ( dwell for no time -- G64 should not smooth over this point )
G00 Z10.000 ( retract )

M5 ( Spindle off. )
M9 ( Coolant off. )
M2 ( Program end. )