(G-CODE GENERATED BY FLATCAM v8.912 - www.flatcam.org - Version Date: 2019/03/17)

(Name: Board.drl_mill_cnc)
(Type: G-code from Geometry)
(Units: MM)

(Created on Monday, 25 March 2019 at 16:05)

(TOOL DIAMETER: 0.8 mm)
(Feedrate: 200.0 mm/min)
(Feedrate_Z: 200.0 mm/min)
(Feedrate rapids 1000.0 mm/min)

(Z_Cut: -2.2 mm)
(Z_Move: 10.0 mm)
(Z Toolchange: 25.4 mm)
(X,Y Toolchange: 0.0000, 0.0000 mm)
(Z Start: None mm)
(Z End: 100.0 mm)
(Steps per circle: 64)
(Postprocessor Geometry: default)

(X range:    1.7100 ...   92.5310  mm)
(Y range:    4.0870 ...  110.2180  mm)

(Spindle Speed: 18000 RPM)
G94 ( Millimeters per minute feed rate. )
G21 ( Units == Millimeters. )
G90 ( Absolute coordinates. )
G64 P0.01000 ( set maximum deviation from commanded toolpath )



G21
G90
G94

G01 F200.00
G00 Z10.0000

M03 S18000
G00 X6.5310 Y7.0940
G01 F200.00
G01 Z-2.2000
G01 F200.00
G01 X6.5252 Y6.9764
G01 X6.5079 Y6.8599
G01 X6.4793 Y6.7457
G01 X6.4397 Y6.6348
G01 X6.3893 Y6.5283
G01 X6.3288 Y6.4273
G01 X6.2586 Y6.3327
G01 X6.1795 Y6.2455
G01 X6.0923 Y6.1664
G01 X5.9977 Y6.0962
G01 X5.8967 Y6.0357
G01 X5.7902 Y5.9853
G01 X5.6793 Y5.9457
G01 X5.5651 Y5.9171
G01 X5.4486 Y5.8998
G01 X5.3310 Y5.8940
G01 X5.2134 Y5.8998
G01 X5.0969 Y5.9171
G01 X4.9827 Y5.9457
G01 X4.8718 Y5.9853
G01 X4.7653 Y6.0357
G01 X4.6643 Y6.0962
G01 X4.5697 Y6.1664
G01 X4.4825 Y6.2455
G01 X4.4034 Y6.3327
G01 X4.3332 Y6.4273
G01 X4.2727 Y6.5283
G01 X4.2223 Y6.6348
G01 X4.1827 Y6.7457
G01 X4.1541 Y6.8599
G01 X4.1368 Y6.9764
G01 X4.1310 Y7.0940
G01 X4.1368 Y7.2116
G01 X4.1541 Y7.3281
G01 X4.1827 Y7.4423
G01 X4.2223 Y7.5532
G01 X4.2727 Y7.6597
G01 X4.3332 Y7.7607
G01 X4.4034 Y7.8553
G01 X4.4825 Y7.9425
G01 X4.5697 Y8.0216
G01 X4.6643 Y8.0918
G01 X4.7653 Y8.1523
G01 X4.8718 Y8.2027
G01 X4.9827 Y8.2423
G01 X5.0969 Y8.2709
G01 X5.2134 Y8.2882
G01 X5.3310 Y8.2940
G01 X5.4486 Y8.2882
G01 X5.5651 Y8.2709
G01 X5.6793 Y8.2423
G01 X5.7902 Y8.2027
G01 X5.8967 Y8.1523
G01 X5.9977 Y8.0918
G01 X6.0923 Y8.0216
G01 X6.1795 Y7.9425
G01 X6.2586 Y7.8553
G01 X6.3288 Y7.7607
G01 X6.3893 Y7.6597
G01 X6.4397 Y7.5532
G01 X6.4793 Y7.4423
G01 X6.5079 Y7.3281
G01 X6.5252 Y7.2116
G01 X6.5310 Y7.0940
G01 X6.5252 Y6.9764
G00 Z10.0000
G00 X11.6870 Y4.2370
G01 F200.00
G01 Z-2.2000
G01 F200.00
G01 X11.6863 Y4.2223
G01 X11.6841 Y4.2077
G01 X11.6805 Y4.1935
G01 X11.6756 Y4.1796
G01 X11.6693 Y4.1663
G01 X11.6617 Y4.1537
G01 X11.6530 Y4.1418
G01 X11.6431 Y4.1309
G01 X11.6322 Y4.1210
G01 X11.6203 Y4.1123
G01 X11.6077 Y4.1047
G01 X11.5944 Y4.0984
G01 X11.5805 Y4.0935
G01 X11.5663 Y4.0899
G01 X11.5517 Y4.0877
G01 X11.5370 Y4.0870
G01 X11.5223 Y4.0877
G01 X11.5077 Y4.0899
G01 X11.4935 Y4.0935
G01 X11.4796 Y4.0984
G01 X11.4663 Y4.1047
G01 X11.4537 Y4.1123
G01 X11.4418 Y4.1210
G01 X11.4309 Y4.1309
G01 X11.4210 Y4.1418
G01 X11.4123 Y4.1537
G01 X11.4047 Y4.1663
G01 X11.3984 Y4.1796
G01 X11.3935 Y4.1935
G01 X11.3899 Y4.2077
G01 X11.3877 Y4.2223
G01 X11.3870 Y4.2370
G01 X11.3877 Y4.2517
G01 X11.3899 Y4.2663
G01 X11.3935 Y4.2805
G01 X11.3984 Y4.2944
G01 X11.4047 Y4.3077
G01 X11.4123 Y4.3203
G01 X11.4210 Y4.3322
G01 X11.4309 Y4.3431
G01 X11.4418 Y4.3530
G01 X11.4537 Y4.3617
G01 X11.4663 Y4.3693
G01 X11.4796 Y4.3756
G01 X11.4935 Y4.3805
G01 X11.5077 Y4.3841
G01 X11.5223 Y4.3863
G01 X11.5370 Y4.3870
G01 X11.5517 Y4.3863
G01 X11.5663 Y4.3841
G01 X11.5805 Y4.3805
G01 X11.5944 Y4.3756
G01 X11.6077 Y4.3693
G01 X11.6203 Y4.3617
G01 X11.6322 Y4.3530
G01 X11.6431 Y4.3431
G01 X11.6530 Y4.3322
G01 X11.6617 Y4.3203
G01 X11.6693 Y4.3077
G01 X11.6756 Y4.2944
G01 X11.6805 Y4.2805
G01 X11.6841 Y4.2663
G01 X11.6863 Y4.2517
G01 X11.6870 Y4.2370
G01 X11.6863 Y4.2223
G00 Z10.0000
G00 X15.4970 Y4.2370
G01 F200.00
G01 Z-2.2000
G01 F200.00
G01 X15.4963 Y4.2223
G01 X15.4941 Y4.2077
G01 X15.4905 Y4.1935
G01 X15.4856 Y4.1796
G01 X15.4793 Y4.1663
G01 X15.4717 Y4.1537
G01 X15.4630 Y4.1418
G01 X15.4531 Y4.1309
G01 X15.4422 Y4.1210
G01 X15.4303 Y4.1123
G01 X15.4177 Y4.1047
G01 X15.4044 Y4.0984
G01 X15.3905 Y4.0935
G01 X15.3763 Y4.0899
G01 X15.3617 Y4.0877
G01 X15.3470 Y4.0870
G01 X15.3323 Y4.0877
G01 X15.3177 Y4.0899
G01 X15.3035 Y4.0935
G01 X15.2896 Y4.0984
G01 X15.2763 Y4.1047
G01 X15.2637 Y4.1123
G01 X15.2518 Y4.1210
G01 X15.2409 Y4.1309
G01 X15.2310 Y4.1418
G01 X15.2223 Y4.1537
G01 X15.2147 Y4.1663
G01 X15.2084 Y4.1796
G01 X15.2035 Y4.1935
G01 X15.1999 Y4.2077
G01 X15.1977 Y4.2223
G01 X15.1970 Y4.2370
G01 X15.1977 Y4.2517
G01 X15.1999 Y4.2663
G01 X15.2035 Y4.2805
G01 X15.2084 Y4.2944
G01 X15.2147 Y4.3077
G01 X15.2223 Y4.3203
G01 X15.2310 Y4.3322
G01 X15.2409 Y4.3431
G01 X15.2518 Y4.3530
G01 X15.2637 Y4.3617
G01 X15.2763 Y4.3693
G01 X15.2896 Y4.3756
G01 X15.3035 Y4.3805
G01 X15.3177 Y4.3841
G01 X15.3323 Y4.3863
G01 X15.3470 Y4.3870
G01 X15.3617 Y4.3863
G01 X15.3763 Y4.3841
G01 X15.3905 Y4.3805
G01 X15.4044 Y4.3756
G01 X15.4177 Y4.3693
G01 X15.4303 Y4.3617
G01 X15.4422 Y4.3530
G01 X15.4531 Y4.3431
G01 X15.4630 Y4.3322
G01 X15.4717 Y4.3203
G01 X15.4793 Y4.3077
G01 X15.4856 Y4.2944
G01 X15.4905 Y4.2805
G01 X15.4941 Y4.2663
G01 X15.4963 Y4.2517
G01 X15.4970 Y4.2370
G01 X15.4963 Y4.2223
G00 Z10.0000
G00 X19.3070 Y4.2370
G01 F200.00
G01 Z-2.2000
G01 F200.00
G01 X19.3063 Y4.2223
G01 X19.3041 Y4.2077
G01 X19.3005 Y4.1935
G01 X19.2956 Y4.1796
G01 X19.2893 Y4.1663
G01 X19.2817 Y4.1537
G01 X19.2730 Y4.1418
G01 X19.2631 Y4.1309
G01 X19.2522 Y4.1210
G01 X19.2403 Y4.1123
G01 X19.2277 Y4.1047
G01 X19.2144 Y4.0984
G01 X19.2005 Y4.0935
G01 X19.1863 Y4.0899
G01 X19.1717 Y4.0877
G01 X19.1570 Y4.0870
G01 X19.1423 Y4.0877
G01 X19.1277 Y4.0899
G01 X19.1135 Y4.0935
G01 X19.0996 Y4.0984
G01 X19.0863 Y4.1047
G01 X19.0737 Y4.1123
G01 X19.0618 Y4.1210
G01 X19.0509 Y4.1309
G01 X19.0410 Y4.1418
G01 X19.0323 Y4.1537
G01 X19.0247 Y4.1663
G01 X19.0184 Y4.1796
G01 X19.0135 Y4.1935
G01 X19.0099 Y4.2077
G01 X19.0077 Y4.2223
G01 X19.0070 Y4.2370
G01 X19.0077 Y4.2517
G01 X19.0099 Y4.2663
G01 X19.0135 Y4.2805
G01 X19.0184 Y4.2944
G01 X19.0247 Y4.3077
G01 X19.0323 Y4.3203
G01 X19.0410 Y4.3322
G01 X19.0509 Y4.3431
G01 X19.0618 Y4.3530
G01 X19.0737 Y4.3617
G01 X19.0863 Y4.3693
G01 X19.0996 Y4.3756
G01 X19.1135 Y4.3805
G01 X19.1277 Y4.3841
G01 X19.1423 Y4.3863
G01 X19.1570 Y4.3870
G01 X19.1717 Y4.3863
G01 X19.1863 Y4.3841
G01 X19.2005 Y4.3805
G01 X19.2144 Y4.3756
G01 X19.2277 Y4.3693
G01 X19.2403 Y4.3617
G01 X19.2522 Y4.3530
G01 X19.2631 Y4.3431
G01 X19.2730 Y4.3322
G01 X19.2817 Y4.3203
G01 X19.2893 Y4.3077
G01 X19.2956 Y4.2944
G01 X19.3005 Y4.2805
G01 X19.3041 Y4.2663
G01 X19.3063 Y4.2517
G01 X19.3070 Y4.2370
G01 X19.3063 Y4.2223
G00 Z10.0000
G00 X24.4120 Y4.3130
G01 F200.00
G01 Z-2.2000
G01 F200.00
G01 X24.4113 Y4.2983
G01 X24.4091 Y4.2837
G01 X24.4055 Y4.2695
G01 X24.4006 Y4.2556
G01 X24.3943 Y4.2423
G01 X24.3867 Y4.2297
G01 X24.3780 Y4.2178
G01 X24.3681 Y4.2069
G01 X24.3572 Y4.1970
G01 X24.3453 Y4.1883
G01 X24.3327 Y4.1807
G01 X24.3194 Y4.1744
G01 X24.3055 Y4.1695
G01 X24.2913 Y4.1659
G01 X24.2767 Y4.1637
G01 X24.2620 Y4.1630
G01 X24.2473 Y4.1637
G01 X24.2327 Y4.1659
G01 X24.2185 Y4.1695
G01 X24.2046 Y4.1744
G01 X24.1913 Y4.1807
G01 X24.1787 Y4.1883
G01 X24.1668 Y4.1970
G01 X24.1559 Y4.2069
G01 X24.1460 Y4.2178
G01 X24.1373 Y4.2297
G01 X24.1297 Y4.2423
G01 X24.1234 Y4.2556
G01 X24.1185 Y4.2695
G01 X24.1149 Y4.2837
G01 X24.1127 Y4.2983
G01 X24.1120 Y4.3130
G01 X24.1127 Y4.3277
G01 X24.1149 Y4.3423
G01 X24.1185 Y4.3565
G01 X24.1234 Y4.3704
G01 X24.1297 Y4.3837
G01 X24.1373 Y4.3963
G01 X24.1460 Y4.4082
G01 X24.1559 Y4.4191
G01 X24.1668 Y4.4290
G01 X24.1787 Y4.4377
G01 X24.1913 Y4.4453
G01 X24.2046 Y4.4516
G01 X24.2185 Y4.4565
G01 X24.2327 Y4.4601
G01 X24.2473 Y4.4623
G01 X24.2620 Y4.4630
G01 X24.2767 Y4.4623
G01 X24.2913 Y4.4601
G01 X24.3055 Y4.4565
G01 X24.3194 Y4.4516
G01 X24.3327 Y4.4453
G01 X24.3453 Y4.4377
G01 X24.3572 Y4.4290
G01 X24.3681 Y4.4191
G01 X24.3780 Y4.4082
G01 X24.3867 Y4.3963
G01 X24.3943 Y4.3837
G01 X24.4006 Y4.3704
G01 X24.4055 Y4.3565
G01 X24.4091 Y4.3423
G01 X24.4113 Y4.3277
G01 X24.4120 Y4.3130
G01 X24.4113 Y4.2983
G00 Z10.0000
G00 X28.2220 Y4.3130
G01 F200.00
G01 Z-2.2000
G01 F200.00
G01 X28.2213 Y4.2983
G01 X28.2191 Y4.2837
G01 X28.2155 Y4.2695
G01 X28.2106 Y4.2556
G01 X28.2043 Y4.2423
G01 X28.1967 Y4.2297
G01 X28.1880 Y4.2178
G01 X28.1781 Y4.2069
G01 X28.1672 Y4.1970
G01 X28.1553 Y4.1883
G01 X28.1427 Y4.1807
G01 X28.1294 Y4.1744
G01 X28.1155 Y4.1695
G01 X28.1013 Y4.1659
G01 X28.0867 Y4.1637
G01 X28.0720 Y4.1630
G01 X28.0573 Y4.1637
G01 X28.0427 Y4.1659
G01 X28.0285 Y4.1695
G01 X28.0146 Y4.1744
G01 X28.0013 Y4.1807
G01 X27.9887 Y4.1883
G01 X27.9768 Y4.1970
G01 X27.9659 Y4.2069
G01 X27.9560 Y4.2178
G01 X27.9473 Y4.2297
G01 X27.9397 Y4.2423
G01 X27.9334 Y4.2556
G01 X27.9285 Y4.2695
G01 X27.9249 Y4.2837
G01 X27.9227 Y4.2983
G01 X27.9220 Y4.3130
G01 X27.9227 Y4.3277
G01 X27.9249 Y4.3423
G01 X27.9285 Y4.3565
G01 X27.9334 Y4.3704
G01 X27.9397 Y4.3837
G01 X27.9473 Y4.3963
G01 X27.9560 Y4.4082
G01 X27.9659 Y4.4191
G01 X27.9768 Y4.4290
G01 X27.9887 Y4.4377
G01 X28.0013 Y4.4453
G01 X28.0146 Y4.4516
G01 X28.0285 Y4.4565
G01 X28.0427 Y4.4601
G01 X28.0573 Y4.4623
G01 X28.0720 Y4.4630
G01 X28.0867 Y4.4623
G01 X28.1013 Y4.4601
G01 X28.1155 Y4.4565
G01 X28.1294 Y4.4516
G01 X28.1427 Y4.4453
G01 X28.1553 Y4.4377
G01 X28.1672 Y4.4290
G01 X28.1781 Y4.4191
G01 X28.1880 Y4.4082
G01 X28.1967 Y4.3963
G01 X28.2043 Y4.3837
G01 X28.2106 Y4.3704
G01 X28.2155 Y4.3565
G01 X28.2191 Y4.3423
G01 X28.2213 Y4.3277
G01 X28.2220 Y4.3130
G01 X28.2213 Y4.2983
G00 Z10.0000
G00 X32.0320 Y4.3130
G01 F200.00
G01 Z-2.2000
G01 F200.00
G01 X32.0313 Y4.2983
G01 X32.0291 Y4.2837
G01 X32.0255 Y4.2695
G01 X32.0206 Y4.2556
G01 X32.0143 Y4.2423
G01 X32.0067 Y4.2297
G01 X31.9980 Y4.2178
G01 X31.9881 Y4.2069
G01 X31.9772 Y4.1970
G01 X31.9653 Y4.1883
G01 X31.9527 Y4.1807
G01 X31.9394 Y4.1744
G01 X31.9255 Y4.1695
G01 X31.9113 Y4.1659
G01 X31.8967 Y4.1637
G01 X31.8820 Y4.1630
G01 X31.8673 Y4.1637
G01 X31.8527 Y4.1659
G01 X31.8385 Y4.1695
G01 X31.8246 Y4.1744
G01 X31.8113 Y4.1807
G01 X31.7987 Y4.1883
G01 X31.7868 Y4.1970
G01 X31.7759 Y4.2069
G01 X31.7660 Y4.2178
G01 X31.7573 Y4.2297
G01 X31.7497 Y4.2423
G01 X31.7434 Y4.2556
G01 X31.7385 Y4.2695
G01 X31.7349 Y4.2837
G01 X31.7327 Y4.2983
G01 X31.7320 Y4.3130
G01 X31.7327 Y4.3277
G01 X31.7349 Y4.3423
G01 X31.7385 Y4.3565
G01 X31.7434 Y4.3704
G01 X31.7497 Y4.3837
G01 X31.7573 Y4.3963
G01 X31.7660 Y4.4082
G01 X31.7759 Y4.4191
G01 X31.7868 Y4.4290
G01 X31.7987 Y4.4377
G01 X31.8113 Y4.4453
G01 X31.8246 Y4.4516
G01 X31.8385 Y4.4565
G01 X31.8527 Y4.4601
G01 X31.8673 Y4.4623
G01 X31.8820 Y4.4630
G01 X31.8967 Y4.4623
G01 X31.9113 Y4.4601
G01 X31.9255 Y4.4565
G01 X31.9394 Y4.4516
G01 X31.9527 Y4.4453
G01 X31.9653 Y4.4377
G01 X31.9772 Y4.4290
G01 X31.9881 Y4.4191
G01 X31.9980 Y4.4082
G01 X32.0067 Y4.3963
G01 X32.0143 Y4.3837
G01 X32.0206 Y4.3704
G01 X32.0255 Y4.3565
G01 X32.0291 Y4.3423
G01 X32.0313 Y4.3277
G01 X32.0320 Y4.3130
G01 X32.0313 Y4.2983
G00 Z10.0000
G00 X36.9470 Y4.3000
G01 F200.00
G01 Z-2.2000
G01 F200.00
G01 X36.9463 Y4.2853
G01 X36.9441 Y4.2707
G01 X36.9405 Y4.2565
G01 X36.9356 Y4.2426
G01 X36.9293 Y4.2293
G01 X36.9217 Y4.2167
G01 X36.9130 Y4.2048
G01 X36.9031 Y4.1939
G01 X36.8922 Y4.1840
G01 X36.8803 Y4.1753
G01 X36.8677 Y4.1677
G01 X36.8544 Y4.1614
G01 X36.8405 Y4.1565
G01 X36.8263 Y4.1529
G01 X36.8117 Y4.1507
G01 X36.7970 Y4.1500
G01 X36.7823 Y4.1507
G01 X36.7677 Y4.1529
G01 X36.7535 Y4.1565
G01 X36.7396 Y4.1614
G01 X36.7263 Y4.1677
G01 X36.7137 Y4.1753
G01 X36.7018 Y4.1840
G01 X36.6909 Y4.1939
G01 X36.6810 Y4.2048
G01 X36.6723 Y4.2167
G01 X36.6647 Y4.2293
G01 X36.6584 Y4.2426
G01 X36.6535 Y4.2565
G01 X36.6499 Y4.2707
G01 X36.6477 Y4.2853
G01 X36.6470 Y4.3000
G01 X36.6477 Y4.3147
G01 X36.6499 Y4.3293
G01 X36.6535 Y4.3435
G01 X36.6584 Y4.3574
G01 X36.6647 Y4.3707
G01 X36.6723 Y4.3833
G01 X36.6810 Y4.3952
G01 X36.6909 Y4.4061
G01 X36.7018 Y4.4160
G01 X36.7137 Y4.4247
G01 X36.7263 Y4.4323
G01 X36.7396 Y4.4386
G01 X36.7535 Y4.4435
G01 X36.7677 Y4.4471
G01 X36.7823 Y4.4493
G01 X36.7970 Y4.4500
G01 X36.8117 Y4.4493
G01 X36.8263 Y4.4471
G01 X36.8405 Y4.4435
G01 X36.8544 Y4.4386
G01 X36.8677 Y4.4323
G01 X36.8803 Y4.4247
G01 X36.8922 Y4.4160
G01 X36.9031 Y4.4061
G01 X36.9130 Y4.3952
G01 X36.9217 Y4.3833
G01 X36.9293 Y4.3707
G01 X36.9356 Y4.3574
G01 X36.9405 Y4.3435
G01 X36.9441 Y4.3293
G01 X36.9463 Y4.3147
G01 X36.9470 Y4.3000
G01 X36.9463 Y4.2853
G00 Z10.0000
G00 X40.7570 Y4.3000
G01 F200.00
G01 Z-2.2000
G01 F200.00
G01 X40.7563 Y4.2853
G01 X40.7541 Y4.2707
G01 X40.7505 Y4.2565
G01 X40.7456 Y4.2426
G01 X40.7393 Y4.2293
G01 X40.7317 Y4.2167
G01 X40.7230 Y4.2048
G01 X40.7131 Y4.1939
G01 X40.7022 Y4.1840
G01 X40.6903 Y4.1753
G01 X40.6777 Y4.1677
G01 X40.6644 Y4.1614
G01 X40.6505 Y4.1565
G01 X40.6363 Y4.1529
G01 X40.6217 Y4.1507
G01 X40.6070 Y4.1500
G01 X40.5923 Y4.1507
G01 X40.5777 Y4.1529
G01 X40.5635 Y4.1565
G01 X40.5496 Y4.1614
G01 X40.5363 Y4.1677
G01 X40.5237 Y4.1753
G01 X40.5118 Y4.1840
G01 X40.5009 Y4.1939
G01 X40.4910 Y4.2048
G01 X40.4823 Y4.2167
G01 X40.4747 Y4.2293
G01 X40.4684 Y4.2426
G01 X40.4635 Y4.2565
G01 X40.4599 Y4.2707
G01 X40.4577 Y4.2853
G01 X40.4570 Y4.3000
G01 X40.4577 Y4.3147
G01 X40.4599 Y4.3293
G01 X40.4635 Y4.3435
G01 X40.4684 Y4.3574
G01 X40.4747 Y4.3707
G01 X40.4823 Y4.3833
G01 X40.4910 Y4.3952
G01 X40.5009 Y4.4061
G01 X40.5118 Y4.4160
G01 X40.5237 Y4.4247
G01 X40.5363 Y4.4323
G01 X40.5496 Y4.4386
G01 X40.5635 Y4.4435
G01 X40.5777 Y4.4471
G01 X40.5923 Y4.4493
G01 X40.6070 Y4.4500
G01 X40.6217 Y4.4493
G01 X40.6363 Y4.4471
G01 X40.6505 Y4.4435
G01 X40.6644 Y4.4386
G01 X40.6777 Y4.4323
G01 X40.6903 Y4.4247
G01 X40.7022 Y4.4160
G01 X40.7131 Y4.4061
G01 X40.7230 Y4.3952
G01 X40.7317 Y4.3833
G01 X40.7393 Y4.3707
G01 X40.7456 Y4.3574
G01 X40.7505 Y4.3435
G01 X40.7541 Y4.3293
G01 X40.7563 Y4.3147
G01 X40.7570 Y4.3000
G01 X40.7563 Y4.2853
G00 Z10.0000
G00 X44.5670 Y4.3000
G01 F200.00
G01 Z-2.2000
G01 F200.00
G01 X44.5663 Y4.2853
G01 X44.5641 Y4.2707
G01 X44.5605 Y4.2565
G01 X44.5556 Y4.2426
G01 X44.5493 Y4.2293
G01 X44.5417 Y4.2167
G01 X44.5330 Y4.2048
G01 X44.5231 Y4.1939
G01 X44.5122 Y4.1840
G01 X44.5003 Y4.1753
G01 X44.4877 Y4.1677
G01 X44.4744 Y4.1614
G01 X44.4605 Y4.1565
G01 X44.4463 Y4.1529
G01 X44.4317 Y4.1507
G01 X44.4170 Y4.1500
G01 X44.4023 Y4.1507
G01 X44.3877 Y4.1529
G01 X44.3735 Y4.1565
G01 X44.3596 Y4.1614
G01 X44.3463 Y4.1677
G01 X44.3337 Y4.1753
G01 X44.3218 Y4.1840
G01 X44.3109 Y4.1939
G01 X44.3010 Y4.2048
G01 X44.2923 Y4.2167
G01 X44.2847 Y4.2293
G01 X44.2784 Y4.2426
G01 X44.2735 Y4.2565
G01 X44.2699 Y4.2707
G01 X44.2677 Y4.2853
G01 X44.2670 Y4.3000
G01 X44.2677 Y4.3147
G01 X44.2699 Y4.3293
G01 X44.2735 Y4.3435
G01 X44.2784 Y4.3574
G01 X44.2847 Y4.3707
G01 X44.2923 Y4.3833
G01 X44.3010 Y4.3952
G01 X44.3109 Y4.4061
G01 X44.3218 Y4.4160
G01 X44.3337 Y4.4247
G01 X44.3463 Y4.4323
G01 X44.3596 Y4.4386
G01 X44.3735 Y4.4435
G01 X44.3877 Y4.4471
G01 X44.4023 Y4.4493
G01 X44.4170 Y4.4500
G01 X44.4317 Y4.4493
G01 X44.4463 Y4.4471
G01 X44.4605 Y4.4435
G01 X44.4744 Y4.4386
G01 X44.4877 Y4.4323
G01 X44.5003 Y4.4247
G01 X44.5122 Y4.4160
G01 X44.5231 Y4.4061
G01 X44.5330 Y4.3952
G01 X44.5417 Y4.3833
G01 X44.5493 Y4.3707
G01 X44.5556 Y4.3574
G01 X44.5605 Y4.3435
G01 X44.5641 Y4.3293
G01 X44.5663 Y4.3147
G01 X44.5670 Y4.3000
G01 X44.5663 Y4.2853
G00 Z10.0000
G00 X42.7630 Y14.7370
G01 F200.00
G01 Z-2.2000
G01 F200.00
G01 X42.7630 Y14.7370
G01 X42.7630 Y14.7370
G01 X42.7630 Y14.7370
G01 X42.7630 Y14.7370
G01 X42.7630 Y14.7370
G00 Z10.0000
G00 X40.2230 Y14.7370
G01 F200.00
G01 Z-2.2000
G01 F200.00
G01 X40.2230 Y14.7370
G01 X40.2230 Y14.7370
G01 X40.2230 Y14.7370
G01 X40.2230 Y14.7370
G01 X40.2230 Y14.7370
G00 Z10.0000
G00 X40.2230 Y22.3570
G01 F200.00
G01 Z-2.2000
G01 F200.00
G01 X40.2230 Y22.3570
G01 X40.2230 Y22.3570
G01 X40.2230 Y22.3570
G01 X40.2230 Y22.3570
G01 X40.2230 Y22.3570
G00 Z10.0000
G00 X42.7630 Y22.3570
G01 F200.00
G01 Z-2.2000
G01 F200.00
G01 X42.7630 Y22.3570
G01 X42.7630 Y22.3570
G01 X42.7630 Y22.3570
G01 X42.7630 Y22.3570
G01 X42.7630 Y22.3570
G00 Z10.0000
G00 X41.5970 Y33.5360
G01 F200.00
G01 Z-2.2000
G01 F200.00
G01 X41.5960 Y33.5262
G01 X41.5932 Y33.5169
G01 X41.5886 Y33.5082
G01 X41.5824 Y33.5006
G01 X41.5748 Y33.4944
G01 X41.5661 Y33.4898
G01 X41.5568 Y33.4870
G01 X41.5470 Y33.4860
G01 X41.5372 Y33.4870
G01 X41.5279 Y33.4898
G01 X41.5192 Y33.4944
G01 X41.5116 Y33.5006
G01 X41.5054 Y33.5082
G01 X41.5008 Y33.5169
G01 X41.4980 Y33.5262
G01 X41.4970 Y33.5360
G01 X41.4980 Y33.5458
G01 X41.5008 Y33.5551
G01 X41.5054 Y33.5638
G01 X41.5116 Y33.5714
G01 X41.5192 Y33.5776
G01 X41.5279 Y33.5822
G01 X41.5372 Y33.5850
G01 X41.5470 Y33.5860
G01 X41.5568 Y33.5850
G01 X41.5661 Y33.5822
G01 X41.5748 Y33.5776
G01 X41.5824 Y33.5714
G01 X41.5886 Y33.5638
G01 X41.5932 Y33.5551
G01 X41.5960 Y33.5458
G01 X41.5970 Y33.5360
G01 X41.5960 Y33.5262
G00 Z10.0000
G00 X41.5970 Y36.0760
G01 F200.00
G01 Z-2.2000
G01 F200.00
G01 X41.5960 Y36.0662
G01 X41.5932 Y36.0569
G01 X41.5886 Y36.0482
G01 X41.5824 Y36.0406
G01 X41.5748 Y36.0344
G01 X41.5661 Y36.0298
G01 X41.5568 Y36.0270
G01 X41.5470 Y36.0260
G01 X41.5372 Y36.0270
G01 X41.5279 Y36.0298
G01 X41.5192 Y36.0344
G01 X41.5116 Y36.0406
G01 X41.5054 Y36.0482
G01 X41.5008 Y36.0569
G01 X41.4980 Y36.0662
G01 X41.4970 Y36.0760
G01 X41.4980 Y36.0858
G01 X41.5008 Y36.0951
G01 X41.5054 Y36.1038
G01 X41.5116 Y36.1114
G01 X41.5192 Y36.1176
G01 X41.5279 Y36.1222
G01 X41.5372 Y36.1250
G01 X41.5470 Y36.1260
G01 X41.5568 Y36.1250
G01 X41.5661 Y36.1222
G01 X41.5748 Y36.1176
G01 X41.5824 Y36.1114
G01 X41.5886 Y36.1038
G01 X41.5932 Y36.0951
G01 X41.5960 Y36.0858
G01 X41.5970 Y36.0760
G01 X41.5960 Y36.0662
G00 Z10.0000
G00 X41.5970 Y38.6160
G01 F200.00
G01 Z-2.2000
G01 F200.00
G01 X41.5960 Y38.6062
G01 X41.5932 Y38.5969
G01 X41.5886 Y38.5882
G01 X41.5824 Y38.5806
G01 X41.5748 Y38.5744
G01 X41.5661 Y38.5698
G01 X41.5568 Y38.5670
G01 X41.5470 Y38.5660
G01 X41.5372 Y38.5670
G01 X41.5279 Y38.5698
G01 X41.5192 Y38.5744
G01 X41.5116 Y38.5806
G01 X41.5054 Y38.5882
G01 X41.5008 Y38.5969
G01 X41.4980 Y38.6062
G01 X41.4970 Y38.6160
G01 X41.4980 Y38.6258
G01 X41.5008 Y38.6351
G01 X41.5054 Y38.6438
G01 X41.5116 Y38.6514
G01 X41.5192 Y38.6576
G01 X41.5279 Y38.6622
G01 X41.5372 Y38.6650
G01 X41.5470 Y38.6660
G01 X41.5568 Y38.6650
G01 X41.5661 Y38.6622
G01 X41.5748 Y38.6576
G01 X41.5824 Y38.6514
G01 X41.5886 Y38.6438
G01 X41.5932 Y38.6351
G01 X41.5960 Y38.6258
G01 X41.5970 Y38.6160
G01 X41.5960 Y38.6062
G00 Z10.0000
G00 X41.5970 Y41.1560
G01 F200.00
G01 Z-2.2000
G01 F200.00
G01 X41.5960 Y41.1462
G01 X41.5932 Y41.1369
G01 X41.5886 Y41.1282
G01 X41.5824 Y41.1206
G01 X41.5748 Y41.1144
G01 X41.5661 Y41.1098
G01 X41.5568 Y41.1070
G01 X41.5470 Y41.1060
G01 X41.5372 Y41.1070
G01 X41.5279 Y41.1098
G01 X41.5192 Y41.1144
G01 X41.5116 Y41.1206
G01 X41.5054 Y41.1282
G01 X41.5008 Y41.1369
G01 X41.4980 Y41.1462
G01 X41.4970 Y41.1560
G01 X41.4980 Y41.1658
G01 X41.5008 Y41.1751
G01 X41.5054 Y41.1838
G01 X41.5116 Y41.1914
G01 X41.5192 Y41.1976
G01 X41.5279 Y41.2022
G01 X41.5372 Y41.2050
G01 X41.5470 Y41.2060
G01 X41.5568 Y41.2050
G01 X41.5661 Y41.2022
G01 X41.5748 Y41.1976
G01 X41.5824 Y41.1914
G01 X41.5886 Y41.1838
G01 X41.5932 Y41.1751
G01 X41.5960 Y41.1658
G01 X41.5970 Y41.1560
G01 X41.5960 Y41.1462
G00 Z10.0000
G00 X41.5970 Y43.6960
G01 F200.00
G01 Z-2.2000
G01 F200.00
G01 X41.5960 Y43.6862
G01 X41.5932 Y43.6769
G01 X41.5886 Y43.6682
G01 X41.5824 Y43.6606
G01 X41.5748 Y43.6544
G01 X41.5661 Y43.6498
G01 X41.5568 Y43.6470
G01 X41.5470 Y43.6460
G01 X41.5372 Y43.6470
G01 X41.5279 Y43.6498
G01 X41.5192 Y43.6544
G01 X41.5116 Y43.6606
G01 X41.5054 Y43.6682
G01 X41.5008 Y43.6769
G01 X41.4980 Y43.6862
G01 X41.4970 Y43.6960
G01 X41.4980 Y43.7058
G01 X41.5008 Y43.7151
G01 X41.5054 Y43.7238
G01 X41.5116 Y43.7314
G01 X41.5192 Y43.7376
G01 X41.5279 Y43.7422
G01 X41.5372 Y43.7450
G01 X41.5470 Y43.7460
G01 X41.5568 Y43.7450
G01 X41.5661 Y43.7422
G01 X41.5748 Y43.7376
G01 X41.5824 Y43.7314
G01 X41.5886 Y43.7238
G01 X41.5932 Y43.7151
G01 X41.5960 Y43.7058
G01 X41.5970 Y43.6960
G01 X41.5960 Y43.6862
G00 Z10.0000
G00 X41.5970 Y46.2360
G01 F200.00
G01 Z-2.2000
G01 F200.00
G01 X41.5960 Y46.2262
G01 X41.5932 Y46.2169
G01 X41.5886 Y46.2082
G01 X41.5824 Y46.2006
G01 X41.5748 Y46.1944
G01 X41.5661 Y46.1898
G01 X41.5568 Y46.1870
G01 X41.5470 Y46.1860
G01 X41.5372 Y46.1870
G01 X41.5279 Y46.1898
G01 X41.5192 Y46.1944
G01 X41.5116 Y46.2006
G01 X41.5054 Y46.2082
G01 X41.5008 Y46.2169
G01 X41.4980 Y46.2262
G01 X41.4970 Y46.2360
G01 X41.4980 Y46.2458
G01 X41.5008 Y46.2551
G01 X41.5054 Y46.2638
G01 X41.5116 Y46.2714
G01 X41.5192 Y46.2776
G01 X41.5279 Y46.2822
G01 X41.5372 Y46.2850
G01 X41.5470 Y46.2860
G01 X41.5568 Y46.2850
G01 X41.5661 Y46.2822
G01 X41.5748 Y46.2776
G01 X41.5824 Y46.2714
G01 X41.5886 Y46.2638
G01 X41.5932 Y46.2551
G01 X41.5960 Y46.2458
G01 X41.5970 Y46.2360
G01 X41.5960 Y46.2262
G00 Z10.0000
G00 X41.5970 Y48.7760
G01 F200.00
G01 Z-2.2000
G01 F200.00
G01 X41.5960 Y48.7662
G01 X41.5932 Y48.7569
G01 X41.5886 Y48.7482
G01 X41.5824 Y48.7406
G01 X41.5748 Y48.7344
G01 X41.5661 Y48.7298
G01 X41.5568 Y48.7270
G01 X41.5470 Y48.7260
G01 X41.5372 Y48.7270
G01 X41.5279 Y48.7298
G01 X41.5192 Y48.7344
G01 X41.5116 Y48.7406
G01 X41.5054 Y48.7482
G01 X41.5008 Y48.7569
G01 X41.4980 Y48.7662
G01 X41.4970 Y48.7760
G01 X41.4980 Y48.7858
G01 X41.5008 Y48.7951
G01 X41.5054 Y48.8038
G01 X41.5116 Y48.8114
G01 X41.5192 Y48.8176
G01 X41.5279 Y48.8222
G01 X41.5372 Y48.8250
G01 X41.5470 Y48.8260
G01 X41.5568 Y48.8250
G01 X41.5661 Y48.8222
G01 X41.5748 Y48.8176
G01 X41.5824 Y48.8114
G01 X41.5886 Y48.8038
G01 X41.5932 Y48.7951
G01 X41.5960 Y48.7858
G01 X41.5970 Y48.7760
G01 X41.5960 Y48.7662
G00 Z10.0000
G00 X41.5970 Y51.3160
G01 F200.00
G01 Z-2.2000
G01 F200.00
G01 X41.5960 Y51.3062
G01 X41.5932 Y51.2969
G01 X41.5886 Y51.2882
G01 X41.5824 Y51.2806
G01 X41.5748 Y51.2744
G01 X41.5661 Y51.2698
G01 X41.5568 Y51.2670
G01 X41.5470 Y51.2660
G01 X41.5372 Y51.2670
G01 X41.5279 Y51.2698
G01 X41.5192 Y51.2744
G01 X41.5116 Y51.2806
G01 X41.5054 Y51.2882
G01 X41.5008 Y51.2969
G01 X41.4980 Y51.3062
G01 X41.4970 Y51.3160
G01 X41.4980 Y51.3258
G01 X41.5008 Y51.3351
G01 X41.5054 Y51.3438
G01 X41.5116 Y51.3514
G01 X41.5192 Y51.3576
G01 X41.5279 Y51.3622
G01 X41.5372 Y51.3650
G01 X41.5470 Y51.3660
G01 X41.5568 Y51.3650
G01 X41.5661 Y51.3622
G01 X41.5748 Y51.3576
G01 X41.5824 Y51.3514
G01 X41.5886 Y51.3438
G01 X41.5932 Y51.3351
G01 X41.5960 Y51.3258
G01 X41.5970 Y51.3160
G01 X41.5960 Y51.3062
G00 Z10.0000
G00 X41.5970 Y53.8560
G01 F200.00
G01 Z-2.2000
G01 F200.00
G01 X41.5960 Y53.8462
G01 X41.5932 Y53.8369
G01 X41.5886 Y53.8282
G01 X41.5824 Y53.8206
G01 X41.5748 Y53.8144
G01 X41.5661 Y53.8098
G01 X41.5568 Y53.8070
G01 X41.5470 Y53.8060
G01 X41.5372 Y53.8070
G01 X41.5279 Y53.8098
G01 X41.5192 Y53.8144
G01 X41.5116 Y53.8206
G01 X41.5054 Y53.8282
G01 X41.5008 Y53.8369
G01 X41.4980 Y53.8462
G01 X41.4970 Y53.8560
G01 X41.4980 Y53.8658
G01 X41.5008 Y53.8751
G01 X41.5054 Y53.8838
G01 X41.5116 Y53.8914
G01 X41.5192 Y53.8976
G01 X41.5279 Y53.9022
G01 X41.5372 Y53.9050
G01 X41.5470 Y53.9060
G01 X41.5568 Y53.9050
G01 X41.5661 Y53.9022
G01 X41.5748 Y53.8976
G01 X41.5824 Y53.8914
G01 X41.5886 Y53.8838
G01 X41.5932 Y53.8751
G01 X41.5960 Y53.8658
G01 X41.5970 Y53.8560
G01 X41.5960 Y53.8462
G00 Z10.0000
G00 X41.5970 Y56.3960
G01 F200.00
G01 Z-2.2000
G01 F200.00
G01 X41.5960 Y56.3862
G01 X41.5932 Y56.3769
G01 X41.5886 Y56.3682
G01 X41.5824 Y56.3606
G01 X41.5748 Y56.3544
G01 X41.5661 Y56.3498
G01 X41.5568 Y56.3470
G01 X41.5470 Y56.3460
G01 X41.5372 Y56.3470
G01 X41.5279 Y56.3498
G01 X41.5192 Y56.3544
G01 X41.5116 Y56.3606
G01 X41.5054 Y56.3682
G01 X41.5008 Y56.3769
G01 X41.4980 Y56.3862
G01 X41.4970 Y56.3960
G01 X41.4980 Y56.4058
G01 X41.5008 Y56.4151
G01 X41.5054 Y56.4238
G01 X41.5116 Y56.4314
G01 X41.5192 Y56.4376
G01 X41.5279 Y56.4422
G01 X41.5372 Y56.4450
G01 X41.5470 Y56.4460
G01 X41.5568 Y56.4450
G01 X41.5661 Y56.4422
G01 X41.5748 Y56.4376
G01 X41.5824 Y56.4314
G01 X41.5886 Y56.4238
G01 X41.5932 Y56.4151
G01 X41.5960 Y56.4058
G01 X41.5970 Y56.3960
G01 X41.5960 Y56.3862
G00 Z10.0000
G00 X41.5970 Y58.9360
G01 F200.00
G01 Z-2.2000
G01 F200.00
G01 X41.5960 Y58.9262
G01 X41.5932 Y58.9169
G01 X41.5886 Y58.9082
G01 X41.5824 Y58.9006
G01 X41.5748 Y58.8944
G01 X41.5661 Y58.8898
G01 X41.5568 Y58.8870
G01 X41.5470 Y58.8860
G01 X41.5372 Y58.8870
G01 X41.5279 Y58.8898
G01 X41.5192 Y58.8944
G01 X41.5116 Y58.9006
G01 X41.5054 Y58.9082
G01 X41.5008 Y58.9169
G01 X41.4980 Y58.9262
G01 X41.4970 Y58.9360
G01 X41.4980 Y58.9458
G01 X41.5008 Y58.9551
G01 X41.5054 Y58.9638
G01 X41.5116 Y58.9714
G01 X41.5192 Y58.9776
G01 X41.5279 Y58.9822
G01 X41.5372 Y58.9850
G01 X41.5470 Y58.9860
G01 X41.5568 Y58.9850
G01 X41.5661 Y58.9822
G01 X41.5748 Y58.9776
G01 X41.5824 Y58.9714
G01 X41.5886 Y58.9638
G01 X41.5932 Y58.9551
G01 X41.5960 Y58.9458
G01 X41.5970 Y58.9360
G01 X41.5960 Y58.9262
G00 Z10.0000
G00 X41.5970 Y61.4760
G01 F200.00
G01 Z-2.2000
G01 F200.00
G01 X41.5960 Y61.4662
G01 X41.5932 Y61.4569
G01 X41.5886 Y61.4482
G01 X41.5824 Y61.4406
G01 X41.5748 Y61.4344
G01 X41.5661 Y61.4298
G01 X41.5568 Y61.4270
G01 X41.5470 Y61.4260
G01 X41.5372 Y61.4270
G01 X41.5279 Y61.4298
G01 X41.5192 Y61.4344
G01 X41.5116 Y61.4406
G01 X41.5054 Y61.4482
G01 X41.5008 Y61.4569
G01 X41.4980 Y61.4662
G01 X41.4970 Y61.4760
G01 X41.4980 Y61.4858
G01 X41.5008 Y61.4951
G01 X41.5054 Y61.5038
G01 X41.5116 Y61.5114
G01 X41.5192 Y61.5176
G01 X41.5279 Y61.5222
G01 X41.5372 Y61.5250
G01 X41.5470 Y61.5260
G01 X41.5568 Y61.5250
G01 X41.5661 Y61.5222
G01 X41.5748 Y61.5176
G01 X41.5824 Y61.5114
G01 X41.5886 Y61.5038
G01 X41.5932 Y61.4951
G01 X41.5960 Y61.4858
G01 X41.5970 Y61.4760
G01 X41.5960 Y61.4662
G00 Z10.0000
G00 X41.5970 Y64.0160
G01 F200.00
G01 Z-2.2000
G01 F200.00
G01 X41.5960 Y64.0062
G01 X41.5932 Y63.9969
G01 X41.5886 Y63.9882
G01 X41.5824 Y63.9806
G01 X41.5748 Y63.9744
G01 X41.5661 Y63.9698
G01 X41.5568 Y63.9670
G01 X41.5470 Y63.9660
G01 X41.5372 Y63.9670
G01 X41.5279 Y63.9698
G01 X41.5192 Y63.9744
G01 X41.5116 Y63.9806
G01 X41.5054 Y63.9882
G01 X41.5008 Y63.9969
G01 X41.4980 Y64.0062
G01 X41.4970 Y64.0160
G01 X41.4980 Y64.0258
G01 X41.5008 Y64.0351
G01 X41.5054 Y64.0438
G01 X41.5116 Y64.0514
G01 X41.5192 Y64.0576
G01 X41.5279 Y64.0622
G01 X41.5372 Y64.0650
G01 X41.5470 Y64.0660
G01 X41.5568 Y64.0650
G01 X41.5661 Y64.0622
G01 X41.5748 Y64.0576
G01 X41.5824 Y64.0514
G01 X41.5886 Y64.0438
G01 X41.5932 Y64.0351
G01 X41.5960 Y64.0258
G01 X41.5970 Y64.0160
G01 X41.5960 Y64.0062
G00 Z10.0000
G00 X41.5970 Y66.5560
G01 F200.00
G01 Z-2.2000
G01 F200.00
G01 X41.5960 Y66.5462
G01 X41.5932 Y66.5369
G01 X41.5886 Y66.5282
G01 X41.5824 Y66.5206
G01 X41.5748 Y66.5144
G01 X41.5661 Y66.5098
G01 X41.5568 Y66.5070
G01 X41.5470 Y66.5060
G01 X41.5372 Y66.5070
G01 X41.5279 Y66.5098
G01 X41.5192 Y66.5144
G01 X41.5116 Y66.5206
G01 X41.5054 Y66.5282
G01 X41.5008 Y66.5369
G01 X41.4980 Y66.5462
G01 X41.4970 Y66.5560
G01 X41.4980 Y66.5658
G01 X41.5008 Y66.5751
G01 X41.5054 Y66.5838
G01 X41.5116 Y66.5914
G01 X41.5192 Y66.5976
G01 X41.5279 Y66.6022
G01 X41.5372 Y66.6050
G01 X41.5470 Y66.6060
G01 X41.5568 Y66.6050
G01 X41.5661 Y66.6022
G01 X41.5748 Y66.5976
G01 X41.5824 Y66.5914
G01 X41.5886 Y66.5838
G01 X41.5932 Y66.5751
G01 X41.5960 Y66.5658
G01 X41.5970 Y66.5560
G01 X41.5960 Y66.5462
G00 Z10.0000
G00 X41.5970 Y69.0960
G01 F200.00
G01 Z-2.2000
G01 F200.00
G01 X41.5960 Y69.0862
G01 X41.5932 Y69.0769
G01 X41.5886 Y69.0682
G01 X41.5824 Y69.0606
G01 X41.5748 Y69.0544
G01 X41.5661 Y69.0498
G01 X41.5568 Y69.0470
G01 X41.5470 Y69.0460
G01 X41.5372 Y69.0470
G01 X41.5279 Y69.0498
G01 X41.5192 Y69.0544
G01 X41.5116 Y69.0606
G01 X41.5054 Y69.0682
G01 X41.5008 Y69.0769
G01 X41.4980 Y69.0862
G01 X41.4970 Y69.0960
G01 X41.4980 Y69.1058
G01 X41.5008 Y69.1151
G01 X41.5054 Y69.1238
G01 X41.5116 Y69.1314
G01 X41.5192 Y69.1376
G01 X41.5279 Y69.1422
G01 X41.5372 Y69.1450
G01 X41.5470 Y69.1460
G01 X41.5568 Y69.1450
G01 X41.5661 Y69.1422
G01 X41.5748 Y69.1376
G01 X41.5824 Y69.1314
G01 X41.5886 Y69.1238
G01 X41.5932 Y69.1151
G01 X41.5960 Y69.1058
G01 X41.5970 Y69.0960
G01 X41.5960 Y69.0862
G00 Z10.0000
G00 X41.5970 Y71.6360
G01 F200.00
G01 Z-2.2000
G01 F200.00
G01 X41.5960 Y71.6262
G01 X41.5932 Y71.6169
G01 X41.5886 Y71.6082
G01 X41.5824 Y71.6006
G01 X41.5748 Y71.5944
G01 X41.5661 Y71.5898
G01 X41.5568 Y71.5870
G01 X41.5470 Y71.5860
G01 X41.5372 Y71.5870
G01 X41.5279 Y71.5898
G01 X41.5192 Y71.5944
G01 X41.5116 Y71.6006
G01 X41.5054 Y71.6082
G01 X41.5008 Y71.6169
G01 X41.4980 Y71.6262
G01 X41.4970 Y71.6360
G01 X41.4980 Y71.6458
G01 X41.5008 Y71.6551
G01 X41.5054 Y71.6638
G01 X41.5116 Y71.6714
G01 X41.5192 Y71.6776
G01 X41.5279 Y71.6822
G01 X41.5372 Y71.6850
G01 X41.5470 Y71.6860
G01 X41.5568 Y71.6850
G01 X41.5661 Y71.6822
G01 X41.5748 Y71.6776
G01 X41.5824 Y71.6714
G01 X41.5886 Y71.6638
G01 X41.5932 Y71.6551
G01 X41.5960 Y71.6458
G01 X41.5970 Y71.6360
G01 X41.5960 Y71.6262
G00 Z10.0000
G00 X41.5970 Y74.1760
G01 F200.00
G01 Z-2.2000
G01 F200.00
G01 X41.5960 Y74.1662
G01 X41.5932 Y74.1569
G01 X41.5886 Y74.1482
G01 X41.5824 Y74.1406
G01 X41.5748 Y74.1344
G01 X41.5661 Y74.1298
G01 X41.5568 Y74.1270
G01 X41.5470 Y74.1260
G01 X41.5372 Y74.1270
G01 X41.5279 Y74.1298
G01 X41.5192 Y74.1344
G01 X41.5116 Y74.1406
G01 X41.5054 Y74.1482
G01 X41.5008 Y74.1569
G01 X41.4980 Y74.1662
G01 X41.4970 Y74.1760
G01 X41.4980 Y74.1858
G01 X41.5008 Y74.1951
G01 X41.5054 Y74.2038
G01 X41.5116 Y74.2114
G01 X41.5192 Y74.2176
G01 X41.5279 Y74.2222
G01 X41.5372 Y74.2250
G01 X41.5470 Y74.2260
G01 X41.5568 Y74.2250
G01 X41.5661 Y74.2222
G01 X41.5748 Y74.2176
G01 X41.5824 Y74.2114
G01 X41.5886 Y74.2038
G01 X41.5932 Y74.1951
G01 X41.5960 Y74.1858
G01 X41.5970 Y74.1760
G01 X41.5960 Y74.1662
G00 Z10.0000
G00 X41.5970 Y76.7160
G01 F200.00
G01 Z-2.2000
G01 F200.00
G01 X41.5960 Y76.7062
G01 X41.5932 Y76.6969
G01 X41.5886 Y76.6882
G01 X41.5824 Y76.6806
G01 X41.5748 Y76.6744
G01 X41.5661 Y76.6698
G01 X41.5568 Y76.6670
G01 X41.5470 Y76.6660
G01 X41.5372 Y76.6670
G01 X41.5279 Y76.6698
G01 X41.5192 Y76.6744
G01 X41.5116 Y76.6806
G01 X41.5054 Y76.6882
G01 X41.5008 Y76.6969
G01 X41.4980 Y76.7062
G01 X41.4970 Y76.7160
G01 X41.4980 Y76.7258
G01 X41.5008 Y76.7351
G01 X41.5054 Y76.7438
G01 X41.5116 Y76.7514
G01 X41.5192 Y76.7576
G01 X41.5279 Y76.7622
G01 X41.5372 Y76.7650
G01 X41.5470 Y76.7660
G01 X41.5568 Y76.7650
G01 X41.5661 Y76.7622
G01 X41.5748 Y76.7576
G01 X41.5824 Y76.7514
G01 X41.5886 Y76.7438
G01 X41.5932 Y76.7351
G01 X41.5960 Y76.7258
G01 X41.5970 Y76.7160
G01 X41.5960 Y76.7062
G00 Z10.0000
G00 X41.5970 Y79.2560
G01 F200.00
G01 Z-2.2000
G01 F200.00
G01 X41.5960 Y79.2462
G01 X41.5932 Y79.2369
G01 X41.5886 Y79.2282
G01 X41.5824 Y79.2206
G01 X41.5748 Y79.2144
G01 X41.5661 Y79.2098
G01 X41.5568 Y79.2070
G01 X41.5470 Y79.2060
G01 X41.5372 Y79.2070
G01 X41.5279 Y79.2098
G01 X41.5192 Y79.2144
G01 X41.5116 Y79.2206
G01 X41.5054 Y79.2282
G01 X41.5008 Y79.2369
G01 X41.4980 Y79.2462
G01 X41.4970 Y79.2560
G01 X41.4980 Y79.2658
G01 X41.5008 Y79.2751
G01 X41.5054 Y79.2838
G01 X41.5116 Y79.2914
G01 X41.5192 Y79.2976
G01 X41.5279 Y79.3022
G01 X41.5372 Y79.3050
G01 X41.5470 Y79.3060
G01 X41.5568 Y79.3050
G01 X41.5661 Y79.3022
G01 X41.5748 Y79.2976
G01 X41.5824 Y79.2914
G01 X41.5886 Y79.2838
G01 X41.5932 Y79.2751
G01 X41.5960 Y79.2658
G01 X41.5970 Y79.2560
G01 X41.5960 Y79.2462
G00 Z10.0000
G00 X41.5970 Y81.7960
G01 F200.00
G01 Z-2.2000
G01 F200.00
G01 X41.5960 Y81.7862
G01 X41.5932 Y81.7769
G01 X41.5886 Y81.7682
G01 X41.5824 Y81.7606
G01 X41.5748 Y81.7544
G01 X41.5661 Y81.7498
G01 X41.5568 Y81.7470
G01 X41.5470 Y81.7460
G01 X41.5372 Y81.7470
G01 X41.5279 Y81.7498
G01 X41.5192 Y81.7544
G01 X41.5116 Y81.7606
G01 X41.5054 Y81.7682
G01 X41.5008 Y81.7769
G01 X41.4980 Y81.7862
G01 X41.4970 Y81.7960
G01 X41.4980 Y81.8058
G01 X41.5008 Y81.8151
G01 X41.5054 Y81.8238
G01 X41.5116 Y81.8314
G01 X41.5192 Y81.8376
G01 X41.5279 Y81.8422
G01 X41.5372 Y81.8450
G01 X41.5470 Y81.8460
G01 X41.5568 Y81.8450
G01 X41.5661 Y81.8422
G01 X41.5748 Y81.8376
G01 X41.5824 Y81.8314
G01 X41.5886 Y81.8238
G01 X41.5932 Y81.8151
G01 X41.5960 Y81.8058
G01 X41.5970 Y81.7960
G01 X41.5960 Y81.7862
G00 Z10.0000
G00 X45.7980 Y81.5850
G01 F200.00
G01 Z-2.2000
G01 F200.00
G01 X45.7970 Y81.5654
G01 X45.7942 Y81.5460
G01 X45.7894 Y81.5269
G01 X45.7828 Y81.5085
G01 X45.7744 Y81.4907
G01 X45.7643 Y81.4739
G01 X45.7526 Y81.4581
G01 X45.7394 Y81.4436
G01 X45.7249 Y81.4304
G01 X45.7091 Y81.4187
G01 X45.6923 Y81.4086
G01 X45.6745 Y81.4002
G01 X45.6561 Y81.3936
G01 X45.6370 Y81.3888
G01 X45.6176 Y81.3860
G01 X45.5980 Y81.3850
G01 X45.5784 Y81.3860
G01 X45.5590 Y81.3888
G01 X45.5399 Y81.3936
G01 X45.5215 Y81.4002
G01 X45.5037 Y81.4086
G01 X45.4869 Y81.4187
G01 X45.4711 Y81.4304
G01 X45.4566 Y81.4436
G01 X45.4434 Y81.4581
G01 X45.4317 Y81.4739
G01 X45.4216 Y81.4907
G01 X45.4132 Y81.5085
G01 X45.4066 Y81.5269
G01 X45.4018 Y81.5460
G01 X45.3990 Y81.5654
G01 X45.3980 Y81.5850
G01 X45.3990 Y81.6046
G01 X45.4018 Y81.6240
G01 X45.4066 Y81.6431
G01 X45.4132 Y81.6615
G01 X45.4216 Y81.6793
G01 X45.4317 Y81.6961
G01 X45.4434 Y81.7119
G01 X45.4566 Y81.7264
G01 X45.4711 Y81.7396
G01 X45.4869 Y81.7513
G01 X45.5037 Y81.7614
G01 X45.5215 Y81.7698
G01 X45.5399 Y81.7764
G01 X45.5590 Y81.7812
G01 X45.5784 Y81.7840
G01 X45.5980 Y81.7850
G01 X45.6176 Y81.7840
G01 X45.6370 Y81.7812
G01 X45.6561 Y81.7764
G01 X45.6745 Y81.7698
G01 X45.6923 Y81.7614
G01 X45.7091 Y81.7513
G01 X45.7249 Y81.7396
G01 X45.7394 Y81.7264
G01 X45.7526 Y81.7119
G01 X45.7643 Y81.6961
G01 X45.7744 Y81.6793
G01 X45.7828 Y81.6615
G01 X45.7894 Y81.6431
G01 X45.7942 Y81.6240
G01 X45.7970 Y81.6046
G01 X45.7980 Y81.5850
G01 X45.7970 Y81.5654
G00 Z10.0000
G00 X49.8620 Y82.0370
G01 F200.00
G01 Z-2.2000
G01 F200.00
G01 X49.8610 Y82.0174
G01 X49.8582 Y81.9980
G01 X49.8534 Y81.9789
G01 X49.8468 Y81.9605
G01 X49.8384 Y81.9427
G01 X49.8283 Y81.9259
G01 X49.8166 Y81.9101
G01 X49.8034 Y81.8956
G01 X49.7889 Y81.8824
G01 X49.7731 Y81.8707
G01 X49.7563 Y81.8606
G01 X49.7385 Y81.8522
G01 X49.7201 Y81.8456
G01 X49.7010 Y81.8408
G01 X49.6816 Y81.8380
G01 X49.6620 Y81.8370
G01 X49.6424 Y81.8380
G01 X49.6230 Y81.8408
G01 X49.6039 Y81.8456
G01 X49.5855 Y81.8522
G01 X49.5677 Y81.8606
G01 X49.5509 Y81.8707
G01 X49.5351 Y81.8824
G01 X49.5206 Y81.8956
G01 X49.5074 Y81.9101
G01 X49.4957 Y81.9259
G01 X49.4856 Y81.9427
G01 X49.4772 Y81.9605
G01 X49.4706 Y81.9789
G01 X49.4658 Y81.9980
G01 X49.4630 Y82.0174
G01 X49.4620 Y82.0370
G01 X49.4630 Y82.0566
G01 X49.4658 Y82.0760
G01 X49.4706 Y82.0951
G01 X49.4772 Y82.1135
G01 X49.4856 Y82.1313
G01 X49.4957 Y82.1481
G01 X49.5074 Y82.1639
G01 X49.5206 Y82.1784
G01 X49.5351 Y82.1916
G01 X49.5509 Y82.2033
G01 X49.5677 Y82.2134
G01 X49.5855 Y82.2218
G01 X49.6039 Y82.2284
G01 X49.6230 Y82.2332
G01 X49.6424 Y82.2360
G01 X49.6620 Y82.2370
G01 X49.6816 Y82.2360
G01 X49.7010 Y82.2332
G01 X49.7201 Y82.2284
G01 X49.7385 Y82.2218
G01 X49.7563 Y82.2134
G01 X49.7731 Y82.2033
G01 X49.7889 Y82.1916
G01 X49.8034 Y82.1784
G01 X49.8166 Y82.1639
G01 X49.8283 Y82.1481
G01 X49.8384 Y82.1313
G01 X49.8468 Y82.1135
G01 X49.8534 Y82.0951
G01 X49.8582 Y82.0760
G01 X49.8610 Y82.0566
G01 X49.8620 Y82.0370
G01 X49.8610 Y82.0174
G00 Z10.0000
G00 X55.1960 Y80.5130
G01 F200.00
G01 Z-2.2000
G01 F200.00
G01 X55.1950 Y80.4934
G01 X55.1922 Y80.4740
G01 X55.1874 Y80.4549
G01 X55.1808 Y80.4365
G01 X55.1724 Y80.4187
G01 X55.1623 Y80.4019
G01 X55.1506 Y80.3861
G01 X55.1374 Y80.3716
G01 X55.1229 Y80.3584
G01 X55.1071 Y80.3467
G01 X55.0903 Y80.3366
G01 X55.0725 Y80.3282
G01 X55.0541 Y80.3216
G01 X55.0350 Y80.3168
G01 X55.0156 Y80.3140
G01 X54.9960 Y80.3130
G01 X54.9764 Y80.3140
G01 X54.9570 Y80.3168
G01 X54.9379 Y80.3216
G01 X54.9195 Y80.3282
G01 X54.9017 Y80.3366
G01 X54.8849 Y80.3467
G01 X54.8691 Y80.3584
G01 X54.8546 Y80.3716
G01 X54.8414 Y80.3861
G01 X54.8297 Y80.4019
G01 X54.8196 Y80.4187
G01 X54.8112 Y80.4365
G01 X54.8046 Y80.4549
G01 X54.7998 Y80.4740
G01 X54.7970 Y80.4934
G01 X54.7960 Y80.5130
G01 X54.7970 Y80.5326
G01 X54.7998 Y80.5520
G01 X54.8046 Y80.5711
G01 X54.8112 Y80.5895
G01 X54.8196 Y80.6073
G01 X54.8297 Y80.6241
G01 X54.8414 Y80.6399
G01 X54.8546 Y80.6544
G01 X54.8691 Y80.6676
G01 X54.8849 Y80.6793
G01 X54.9017 Y80.6894
G01 X54.9195 Y80.6978
G01 X54.9379 Y80.7044
G01 X54.9570 Y80.7092
G01 X54.9764 Y80.7120
G01 X54.9960 Y80.7130
G01 X55.0156 Y80.7120
G01 X55.0350 Y80.7092
G01 X55.0541 Y80.7044
G01 X55.0725 Y80.6978
G01 X55.0903 Y80.6894
G01 X55.1071 Y80.6793
G01 X55.1229 Y80.6676
G01 X55.1374 Y80.6544
G01 X55.1506 Y80.6399
G01 X55.1623 Y80.6241
G01 X55.1724 Y80.6073
G01 X55.1808 Y80.5895
G01 X55.1874 Y80.5711
G01 X55.1922 Y80.5520
G01 X55.1950 Y80.5326
G01 X55.1960 Y80.5130
G01 X55.1950 Y80.4934
G00 Z10.0000
G00 X50.1950 Y88.5650
G01 F200.00
G01 Z-2.2000
G01 F200.00
G01 X50.1950 Y88.5650
G01 X50.1950 Y88.5650
G01 X50.1950 Y88.5650
G01 X50.1950 Y88.5650
G01 X50.1950 Y88.5650
G00 Z10.0000
G00 X47.6550 Y88.5650
G01 F200.00
G01 Z-2.2000
G01 F200.00
G01 X47.6550 Y88.5650
G01 X47.6550 Y88.5650
G01 X47.6550 Y88.5650
G01 X47.6550 Y88.5650
G01 X47.6550 Y88.5650
G00 Z10.0000
G00 X41.7880 Y88.5650
G01 F200.00
G01 Z-2.2000
G01 F200.00
G01 X41.7880 Y88.5650
G01 X41.7880 Y88.5650
G01 X41.7880 Y88.5650
G01 X41.7880 Y88.5650
G01 X41.7880 Y88.5650
G00 Z10.0000
G00 X39.2480 Y88.5650
G01 F200.00
G01 Z-2.2000
G01 F200.00
G01 X39.2480 Y88.5650
G01 X39.2480 Y88.5650
G01 X39.2480 Y88.5650
G01 X39.2480 Y88.5650
G01 X39.2480 Y88.5650
G00 Z10.0000
G00 X33.1390 Y88.5650
G01 F200.00
G01 Z-2.2000
G01 F200.00
G01 X33.1390 Y88.5650
G01 X33.1390 Y88.5650
G01 X33.1390 Y88.5650
G01 X33.1390 Y88.5650
G01 X33.1390 Y88.5650
G00 Z10.0000
G00 X30.5990 Y88.5650
G01 F200.00
G01 Z-2.2000
G01 F200.00
G01 X30.5990 Y88.5650
G01 X30.5990 Y88.5650
G01 X30.5990 Y88.5650
G01 X30.5990 Y88.5650
G01 X30.5990 Y88.5650
G00 Z10.0000
G00 X25.1380 Y88.5650
G01 F200.00
G01 Z-2.2000
G01 F200.00
G01 X25.1380 Y88.5650
G01 X25.1380 Y88.5650
G01 X25.1380 Y88.5650
G01 X25.1380 Y88.5650
G01 X25.1380 Y88.5650
G00 Z10.0000
G00 X22.5980 Y88.5650
G01 F200.00
G01 Z-2.2000
G01 F200.00
G01 X22.5980 Y88.5650
G01 X22.5980 Y88.5650
G01 X22.5980 Y88.5650
G01 X22.5980 Y88.5650
G01 X22.5980 Y88.5650
G00 Z10.0000
G00 X17.2770 Y88.5650
G01 F200.00
G01 Z-2.2000
G01 F200.00
G01 X17.2770 Y88.5650
G01 X17.2770 Y88.5650
G01 X17.2770 Y88.5650
G01 X17.2770 Y88.5650
G01 X17.2770 Y88.5650
G00 Z10.0000
G00 X14.7370 Y88.5650
G01 F200.00
G01 Z-2.2000
G01 F200.00
G01 X14.7370 Y88.5650
G01 X14.7370 Y88.5650
G01 X14.7370 Y88.5650
G01 X14.7370 Y88.5650
G01 X14.7370 Y88.5650
G00 Z10.0000
G00 X17.5690 Y84.2770
G01 F200.00
G01 Z-2.2000
G01 F200.00
G01 X17.5680 Y84.2574
G01 X17.5652 Y84.2380
G01 X17.5604 Y84.2189
G01 X17.5538 Y84.2005
G01 X17.5454 Y84.1827
G01 X17.5353 Y84.1659
G01 X17.5236 Y84.1501
G01 X17.5104 Y84.1356
G01 X17.4959 Y84.1224
G01 X17.4801 Y84.1107
G01 X17.4633 Y84.1006
G01 X17.4455 Y84.0922
G01 X17.4271 Y84.0856
G01 X17.4080 Y84.0808
G01 X17.3886 Y84.0780
G01 X17.3690 Y84.0770
G01 X17.3494 Y84.0780
G01 X17.3300 Y84.0808
G01 X17.3109 Y84.0856
G01 X17.2925 Y84.0922
G01 X17.2747 Y84.1006
G01 X17.2579 Y84.1107
G01 X17.2421 Y84.1224
G01 X17.2276 Y84.1356
G01 X17.2144 Y84.1501
G01 X17.2027 Y84.1659
G01 X17.1926 Y84.1827
G01 X17.1842 Y84.2005
G01 X17.1776 Y84.2189
G01 X17.1728 Y84.2380
G01 X17.1700 Y84.2574
G01 X17.1690 Y84.2770
G01 X17.1700 Y84.2966
G01 X17.1728 Y84.3160
G01 X17.1776 Y84.3351
G01 X17.1842 Y84.3535
G01 X17.1926 Y84.3713
G01 X17.2027 Y84.3881
G01 X17.2144 Y84.4039
G01 X17.2276 Y84.4184
G01 X17.2421 Y84.4316
G01 X17.2579 Y84.4433
G01 X17.2747 Y84.4534
G01 X17.2925 Y84.4618
G01 X17.3109 Y84.4684
G01 X17.3300 Y84.4732
G01 X17.3494 Y84.4760
G01 X17.3690 Y84.4770
G01 X17.3886 Y84.4760
G01 X17.4080 Y84.4732
G01 X17.4271 Y84.4684
G01 X17.4455 Y84.4618
G01 X17.4633 Y84.4534
G01 X17.4801 Y84.4433
G01 X17.4959 Y84.4316
G01 X17.5104 Y84.4184
G01 X17.5236 Y84.4039
G01 X17.5353 Y84.3881
G01 X17.5454 Y84.3713
G01 X17.5538 Y84.3535
G01 X17.5604 Y84.3351
G01 X17.5652 Y84.3160
G01 X17.5680 Y84.2966
G01 X17.5690 Y84.2770
G01 X17.5680 Y84.2574
G00 Z10.0000
G00 X20.9060 Y82.0370
G01 F200.00
G01 Z-2.2000
G01 F200.00
G01 X20.9050 Y82.0174
G01 X20.9022 Y81.9980
G01 X20.8974 Y81.9789
G01 X20.8908 Y81.9605
G01 X20.8824 Y81.9427
G01 X20.8723 Y81.9259
G01 X20.8606 Y81.9101
G01 X20.8474 Y81.8956
G01 X20.8329 Y81.8824
G01 X20.8171 Y81.8707
G01 X20.8003 Y81.8606
G01 X20.7825 Y81.8522
G01 X20.7641 Y81.8456
G01 X20.7450 Y81.8408
G01 X20.7256 Y81.8380
G01 X20.7060 Y81.8370
G01 X20.6864 Y81.8380
G01 X20.6670 Y81.8408
G01 X20.6479 Y81.8456
G01 X20.6295 Y81.8522
G01 X20.6117 Y81.8606
G01 X20.5949 Y81.8707
G01 X20.5791 Y81.8824
G01 X20.5646 Y81.8956
G01 X20.5514 Y81.9101
G01 X20.5397 Y81.9259
G01 X20.5296 Y81.9427
G01 X20.5212 Y81.9605
G01 X20.5146 Y81.9789
G01 X20.5098 Y81.9980
G01 X20.5070 Y82.0174
G01 X20.5060 Y82.0370
G01 X20.5070 Y82.0566
G01 X20.5098 Y82.0760
G01 X20.5146 Y82.0951
G01 X20.5212 Y82.1135
G01 X20.5296 Y82.1313
G01 X20.5397 Y82.1481
G01 X20.5514 Y82.1639
G01 X20.5646 Y82.1784
G01 X20.5791 Y82.1916
G01 X20.5949 Y82.2033
G01 X20.6117 Y82.2134
G01 X20.6295 Y82.2218
G01 X20.6479 Y82.2284
G01 X20.6670 Y82.2332
G01 X20.6864 Y82.2360
G01 X20.7060 Y82.2370
G01 X20.7256 Y82.2360
G01 X20.7450 Y82.2332
G01 X20.7641 Y82.2284
G01 X20.7825 Y82.2218
G01 X20.8003 Y82.2134
G01 X20.8171 Y82.2033
G01 X20.8329 Y82.1916
G01 X20.8474 Y82.1784
G01 X20.8606 Y82.1639
G01 X20.8723 Y82.1481
G01 X20.8824 Y82.1313
G01 X20.8908 Y82.1135
G01 X20.8974 Y82.0951
G01 X20.9022 Y82.0760
G01 X20.9050 Y82.0566
G01 X20.9060 Y82.0370
G01 X20.9050 Y82.0174
G00 Z10.0000
G00 X18.8740 Y79.4970
G01 F200.00
G01 Z-2.2000
G01 F200.00
G01 X18.8730 Y79.4774
G01 X18.8702 Y79.4580
G01 X18.8654 Y79.4389
G01 X18.8588 Y79.4205
G01 X18.8504 Y79.4027
G01 X18.8403 Y79.3859
G01 X18.8286 Y79.3701
G01 X18.8154 Y79.3556
G01 X18.8009 Y79.3424
G01 X18.7851 Y79.3307
G01 X18.7683 Y79.3206
G01 X18.7505 Y79.3122
G01 X18.7321 Y79.3056
G01 X18.7130 Y79.3008
G01 X18.6936 Y79.2980
G01 X18.6740 Y79.2970
G01 X18.6544 Y79.2980
G01 X18.6350 Y79.3008
G01 X18.6159 Y79.3056
G01 X18.5975 Y79.3122
G01 X18.5797 Y79.3206
G01 X18.5629 Y79.3307
G01 X18.5471 Y79.3424
G01 X18.5326 Y79.3556
G01 X18.5194 Y79.3701
G01 X18.5077 Y79.3859
G01 X18.4976 Y79.4027
G01 X18.4892 Y79.4205
G01 X18.4826 Y79.4389
G01 X18.4778 Y79.4580
G01 X18.4750 Y79.4774
G01 X18.4740 Y79.4970
G01 X18.4750 Y79.5166
G01 X18.4778 Y79.5360
G01 X18.4826 Y79.5551
G01 X18.4892 Y79.5735
G01 X18.4976 Y79.5913
G01 X18.5077 Y79.6081
G01 X18.5194 Y79.6239
G01 X18.5326 Y79.6384
G01 X18.5471 Y79.6516
G01 X18.5629 Y79.6633
G01 X18.5797 Y79.6734
G01 X18.5975 Y79.6818
G01 X18.6159 Y79.6884
G01 X18.6350 Y79.6932
G01 X18.6544 Y79.6960
G01 X18.6740 Y79.6970
G01 X18.6936 Y79.6960
G01 X18.7130 Y79.6932
G01 X18.7321 Y79.6884
G01 X18.7505 Y79.6818
G01 X18.7683 Y79.6734
G01 X18.7851 Y79.6633
G01 X18.8009 Y79.6516
G01 X18.8154 Y79.6384
G01 X18.8286 Y79.6239
G01 X18.8403 Y79.6081
G01 X18.8504 Y79.5913
G01 X18.8588 Y79.5735
G01 X18.8654 Y79.5551
G01 X18.8702 Y79.5360
G01 X18.8730 Y79.5166
G01 X18.8740 Y79.4970
G01 X18.8730 Y79.4774
G00 Z10.0000
G00 X19.2760 Y71.9320
G01 F200.00
G01 Z-2.2000
G01 F200.00
G01 X19.2750 Y71.9124
G01 X19.2722 Y71.8930
G01 X19.2674 Y71.8739
G01 X19.2608 Y71.8555
G01 X19.2524 Y71.8377
G01 X19.2423 Y71.8209
G01 X19.2306 Y71.8051
G01 X19.2174 Y71.7906
G01 X19.2029 Y71.7774
G01 X19.1871 Y71.7657
G01 X19.1703 Y71.7556
G01 X19.1525 Y71.7472
G01 X19.1341 Y71.7406
G01 X19.1150 Y71.7358
G01 X19.0956 Y71.7330
G01 X19.0760 Y71.7320
G01 X19.0564 Y71.7330
G01 X19.0370 Y71.7358
G01 X19.0179 Y71.7406
G01 X18.9995 Y71.7472
G01 X18.9817 Y71.7556
G01 X18.9649 Y71.7657
G01 X18.9491 Y71.7774
G01 X18.9346 Y71.7906
G01 X18.9214 Y71.8051
G01 X18.9097 Y71.8209
G01 X18.8996 Y71.8377
G01 X18.8912 Y71.8555
G01 X18.8846 Y71.8739
G01 X18.8798 Y71.8930
G01 X18.8770 Y71.9124
G01 X18.8760 Y71.9320
G01 X18.8770 Y71.9516
G01 X18.8798 Y71.9710
G01 X18.8846 Y71.9901
G01 X18.8912 Y72.0085
G01 X18.8996 Y72.0263
G01 X18.9097 Y72.0431
G01 X18.9214 Y72.0589
G01 X18.9346 Y72.0734
G01 X18.9491 Y72.0866
G01 X18.9649 Y72.0983
G01 X18.9817 Y72.1084
G01 X18.9995 Y72.1168
G01 X19.0179 Y72.1234
G01 X19.0370 Y72.1282
G01 X19.0564 Y72.1310
G01 X19.0760 Y72.1320
G01 X19.0956 Y72.1310
G01 X19.1150 Y72.1282
G01 X19.1341 Y72.1234
G01 X19.1525 Y72.1168
G01 X19.1703 Y72.1084
G01 X19.1871 Y72.0983
G01 X19.2029 Y72.0866
G01 X19.2174 Y72.0734
G01 X19.2306 Y72.0589
G01 X19.2423 Y72.0431
G01 X19.2524 Y72.0263
G01 X19.2608 Y72.0085
G01 X19.2674 Y71.9901
G01 X19.2722 Y71.9710
G01 X19.2750 Y71.9516
G01 X19.2760 Y71.9320
G01 X19.2750 Y71.9124
G00 Z10.0000
G00 X18.8740 Y64.7650
G01 F200.00
G01 Z-2.2000
G01 F200.00
G01 X18.8730 Y64.7454
G01 X18.8702 Y64.7260
G01 X18.8654 Y64.7069
G01 X18.8588 Y64.6885
G01 X18.8504 Y64.6707
G01 X18.8403 Y64.6539
G01 X18.8286 Y64.6381
G01 X18.8154 Y64.6236
G01 X18.8009 Y64.6104
G01 X18.7851 Y64.5987
G01 X18.7683 Y64.5886
G01 X18.7505 Y64.5802
G01 X18.7321 Y64.5736
G01 X18.7130 Y64.5688
G01 X18.6936 Y64.5660
G01 X18.6740 Y64.5650
G01 X18.6544 Y64.5660
G01 X18.6350 Y64.5688
G01 X18.6159 Y64.5736
G01 X18.5975 Y64.5802
G01 X18.5797 Y64.5886
G01 X18.5629 Y64.5987
G01 X18.5471 Y64.6104
G01 X18.5326 Y64.6236
G01 X18.5194 Y64.6381
G01 X18.5077 Y64.6539
G01 X18.4976 Y64.6707
G01 X18.4892 Y64.6885
G01 X18.4826 Y64.7069
G01 X18.4778 Y64.7260
G01 X18.4750 Y64.7454
G01 X18.4740 Y64.7650
G01 X18.4750 Y64.7846
G01 X18.4778 Y64.8040
G01 X18.4826 Y64.8231
G01 X18.4892 Y64.8415
G01 X18.4976 Y64.8593
G01 X18.5077 Y64.8761
G01 X18.5194 Y64.8919
G01 X18.5326 Y64.9064
G01 X18.5471 Y64.9196
G01 X18.5629 Y64.9313
G01 X18.5797 Y64.9414
G01 X18.5975 Y64.9498
G01 X18.6159 Y64.9564
G01 X18.6350 Y64.9612
G01 X18.6544 Y64.9640
G01 X18.6740 Y64.9650
G01 X18.6936 Y64.9640
G01 X18.7130 Y64.9612
G01 X18.7321 Y64.9564
G01 X18.7505 Y64.9498
G01 X18.7683 Y64.9414
G01 X18.7851 Y64.9313
G01 X18.8009 Y64.9196
G01 X18.8154 Y64.9064
G01 X18.8286 Y64.8919
G01 X18.8403 Y64.8761
G01 X18.8504 Y64.8593
G01 X18.8588 Y64.8415
G01 X18.8654 Y64.8231
G01 X18.8702 Y64.8040
G01 X18.8730 Y64.7846
G01 X18.8740 Y64.7650
G01 X18.8730 Y64.7454
G00 Z10.0000
G00 X26.8650 Y64.0160
G01 F200.00
G01 Z-2.2000
G01 F200.00
G01 X26.8640 Y64.0062
G01 X26.8612 Y63.9969
G01 X26.8566 Y63.9882
G01 X26.8504 Y63.9806
G01 X26.8428 Y63.9744
G01 X26.8341 Y63.9698
G01 X26.8248 Y63.9670
G01 X26.8150 Y63.9660
G01 X26.8052 Y63.9670
G01 X26.7959 Y63.9698
G01 X26.7872 Y63.9744
G01 X26.7796 Y63.9806
G01 X26.7734 Y63.9882
G01 X26.7688 Y63.9969
G01 X26.7660 Y64.0062
G01 X26.7650 Y64.0160
G01 X26.7660 Y64.0258
G01 X26.7688 Y64.0351
G01 X26.7734 Y64.0438
G01 X26.7796 Y64.0514
G01 X26.7872 Y64.0576
G01 X26.7959 Y64.0622
G01 X26.8052 Y64.0650
G01 X26.8150 Y64.0660
G01 X26.8248 Y64.0650
G01 X26.8341 Y64.0622
G01 X26.8428 Y64.0576
G01 X26.8504 Y64.0514
G01 X26.8566 Y64.0438
G01 X26.8612 Y64.0351
G01 X26.8640 Y64.0258
G01 X26.8650 Y64.0160
G01 X26.8640 Y64.0062
G00 Z10.0000
G00 X26.8650 Y66.5560
G01 F200.00
G01 Z-2.2000
G01 F200.00
G01 X26.8640 Y66.5462
G01 X26.8612 Y66.5369
G01 X26.8566 Y66.5282
G01 X26.8504 Y66.5206
G01 X26.8428 Y66.5144
G01 X26.8341 Y66.5098
G01 X26.8248 Y66.5070
G01 X26.8150 Y66.5060
G01 X26.8052 Y66.5070
G01 X26.7959 Y66.5098
G01 X26.7872 Y66.5144
G01 X26.7796 Y66.5206
G01 X26.7734 Y66.5282
G01 X26.7688 Y66.5369
G01 X26.7660 Y66.5462
G01 X26.7650 Y66.5560
G01 X26.7660 Y66.5658
G01 X26.7688 Y66.5751
G01 X26.7734 Y66.5838
G01 X26.7796 Y66.5914
G01 X26.7872 Y66.5976
G01 X26.7959 Y66.6022
G01 X26.8052 Y66.6050
G01 X26.8150 Y66.6060
G01 X26.8248 Y66.6050
G01 X26.8341 Y66.6022
G01 X26.8428 Y66.5976
G01 X26.8504 Y66.5914
G01 X26.8566 Y66.5838
G01 X26.8612 Y66.5751
G01 X26.8640 Y66.5658
G01 X26.8650 Y66.5560
G01 X26.8640 Y66.5462
G00 Z10.0000
G00 X26.8650 Y69.0960
G01 F200.00
G01 Z-2.2000
G01 F200.00
G01 X26.8640 Y69.0862
G01 X26.8612 Y69.0769
G01 X26.8566 Y69.0682
G01 X26.8504 Y69.0606
G01 X26.8428 Y69.0544
G01 X26.8341 Y69.0498
G01 X26.8248 Y69.0470
G01 X26.8150 Y69.0460
G01 X26.8052 Y69.0470
G01 X26.7959 Y69.0498
G01 X26.7872 Y69.0544
G01 X26.7796 Y69.0606
G01 X26.7734 Y69.0682
G01 X26.7688 Y69.0769
G01 X26.7660 Y69.0862
G01 X26.7650 Y69.0960
G01 X26.7660 Y69.1058
G01 X26.7688 Y69.1151
G01 X26.7734 Y69.1238
G01 X26.7796 Y69.1314
G01 X26.7872 Y69.1376
G01 X26.7959 Y69.1422
G01 X26.8052 Y69.1450
G01 X26.8150 Y69.1460
G01 X26.8248 Y69.1450
G01 X26.8341 Y69.1422
G01 X26.8428 Y69.1376
G01 X26.8504 Y69.1314
G01 X26.8566 Y69.1238
G01 X26.8612 Y69.1151
G01 X26.8640 Y69.1058
G01 X26.8650 Y69.0960
G01 X26.8640 Y69.0862
G00 Z10.0000
G00 X26.8650 Y71.6360
G01 F200.00
G01 Z-2.2000
G01 F200.00
G01 X26.8640 Y71.6262
G01 X26.8612 Y71.6169
G01 X26.8566 Y71.6082
G01 X26.8504 Y71.6006
G01 X26.8428 Y71.5944
G01 X26.8341 Y71.5898
G01 X26.8248 Y71.5870
G01 X26.8150 Y71.5860
G01 X26.8052 Y71.5870
G01 X26.7959 Y71.5898
G01 X26.7872 Y71.5944
G01 X26.7796 Y71.6006
G01 X26.7734 Y71.6082
G01 X26.7688 Y71.6169
G01 X26.7660 Y71.6262
G01 X26.7650 Y71.6360
G01 X26.7660 Y71.6458
G01 X26.7688 Y71.6551
G01 X26.7734 Y71.6638
G01 X26.7796 Y71.6714
G01 X26.7872 Y71.6776
G01 X26.7959 Y71.6822
G01 X26.8052 Y71.6850
G01 X26.8150 Y71.6860
G01 X26.8248 Y71.6850
G01 X26.8341 Y71.6822
G01 X26.8428 Y71.6776
G01 X26.8504 Y71.6714
G01 X26.8566 Y71.6638
G01 X26.8612 Y71.6551
G01 X26.8640 Y71.6458
G01 X26.8650 Y71.6360
G01 X26.8640 Y71.6262
G00 Z10.0000
G00 X26.8650 Y74.1760
G01 F200.00
G01 Z-2.2000
G01 F200.00
G01 X26.8640 Y74.1662
G01 X26.8612 Y74.1569
G01 X26.8566 Y74.1482
G01 X26.8504 Y74.1406
G01 X26.8428 Y74.1344
G01 X26.8341 Y74.1298
G01 X26.8248 Y74.1270
G01 X26.8150 Y74.1260
G01 X26.8052 Y74.1270
G01 X26.7959 Y74.1298
G01 X26.7872 Y74.1344
G01 X26.7796 Y74.1406
G01 X26.7734 Y74.1482
G01 X26.7688 Y74.1569
G01 X26.7660 Y74.1662
G01 X26.7650 Y74.1760
G01 X26.7660 Y74.1858
G01 X26.7688 Y74.1951
G01 X26.7734 Y74.2038
G01 X26.7796 Y74.2114
G01 X26.7872 Y74.2176
G01 X26.7959 Y74.2222
G01 X26.8052 Y74.2250
G01 X26.8150 Y74.2260
G01 X26.8248 Y74.2250
G01 X26.8341 Y74.2222
G01 X26.8428 Y74.2176
G01 X26.8504 Y74.2114
G01 X26.8566 Y74.2038
G01 X26.8612 Y74.1951
G01 X26.8640 Y74.1858
G01 X26.8650 Y74.1760
G01 X26.8640 Y74.1662
G00 Z10.0000
G00 X26.8650 Y76.7160
G01 F200.00
G01 Z-2.2000
G01 F200.00
G01 X26.8640 Y76.7062
G01 X26.8612 Y76.6969
G01 X26.8566 Y76.6882
G01 X26.8504 Y76.6806
G01 X26.8428 Y76.6744
G01 X26.8341 Y76.6698
G01 X26.8248 Y76.6670
G01 X26.8150 Y76.6660
G01 X26.8052 Y76.6670
G01 X26.7959 Y76.6698
G01 X26.7872 Y76.6744
G01 X26.7796 Y76.6806
G01 X26.7734 Y76.6882
G01 X26.7688 Y76.6969
G01 X26.7660 Y76.7062
G01 X26.7650 Y76.7160
G01 X26.7660 Y76.7258
G01 X26.7688 Y76.7351
G01 X26.7734 Y76.7438
G01 X26.7796 Y76.7514
G01 X26.7872 Y76.7576
G01 X26.7959 Y76.7622
G01 X26.8052 Y76.7650
G01 X26.8150 Y76.7660
G01 X26.8248 Y76.7650
G01 X26.8341 Y76.7622
G01 X26.8428 Y76.7576
G01 X26.8504 Y76.7514
G01 X26.8566 Y76.7438
G01 X26.8612 Y76.7351
G01 X26.8640 Y76.7258
G01 X26.8650 Y76.7160
G01 X26.8640 Y76.7062
G00 Z10.0000
G00 X26.8650 Y79.2560
G01 F200.00
G01 Z-2.2000
G01 F200.00
G01 X26.8640 Y79.2462
G01 X26.8612 Y79.2369
G01 X26.8566 Y79.2282
G01 X26.8504 Y79.2206
G01 X26.8428 Y79.2144
G01 X26.8341 Y79.2098
G01 X26.8248 Y79.2070
G01 X26.8150 Y79.2060
G01 X26.8052 Y79.2070
G01 X26.7959 Y79.2098
G01 X26.7872 Y79.2144
G01 X26.7796 Y79.2206
G01 X26.7734 Y79.2282
G01 X26.7688 Y79.2369
G01 X26.7660 Y79.2462
G01 X26.7650 Y79.2560
G01 X26.7660 Y79.2658
G01 X26.7688 Y79.2751
G01 X26.7734 Y79.2838
G01 X26.7796 Y79.2914
G01 X26.7872 Y79.2976
G01 X26.7959 Y79.3022
G01 X26.8052 Y79.3050
G01 X26.8150 Y79.3060
G01 X26.8248 Y79.3050
G01 X26.8341 Y79.3022
G01 X26.8428 Y79.2976
G01 X26.8504 Y79.2914
G01 X26.8566 Y79.2838
G01 X26.8612 Y79.2751
G01 X26.8640 Y79.2658
G01 X26.8650 Y79.2560
G01 X26.8640 Y79.2462
G00 Z10.0000
G00 X26.8650 Y81.7960
G01 F200.00
G01 Z-2.2000
G01 F200.00
G01 X26.8640 Y81.7862
G01 X26.8612 Y81.7769
G01 X26.8566 Y81.7682
G01 X26.8504 Y81.7606
G01 X26.8428 Y81.7544
G01 X26.8341 Y81.7498
G01 X26.8248 Y81.7470
G01 X26.8150 Y81.7460
G01 X26.8052 Y81.7470
G01 X26.7959 Y81.7498
G01 X26.7872 Y81.7544
G01 X26.7796 Y81.7606
G01 X26.7734 Y81.7682
G01 X26.7688 Y81.7769
G01 X26.7660 Y81.7862
G01 X26.7650 Y81.7960
G01 X26.7660 Y81.8058
G01 X26.7688 Y81.8151
G01 X26.7734 Y81.8238
G01 X26.7796 Y81.8314
G01 X26.7872 Y81.8376
G01 X26.7959 Y81.8422
G01 X26.8052 Y81.8450
G01 X26.8150 Y81.8460
G01 X26.8248 Y81.8450
G01 X26.8341 Y81.8422
G01 X26.8428 Y81.8376
G01 X26.8504 Y81.8314
G01 X26.8566 Y81.8238
G01 X26.8612 Y81.8151
G01 X26.8640 Y81.8058
G01 X26.8650 Y81.7960
G01 X26.8640 Y81.7862
G00 Z10.0000
G00 X25.1380 Y96.1850
G01 F200.00
G01 Z-2.2000
G01 F200.00
G01 X25.1380 Y96.1850
G01 X25.1380 Y96.1850
G01 X25.1380 Y96.1850
G01 X25.1380 Y96.1850
G01 X25.1380 Y96.1850
G00 Z10.0000
G00 X22.5980 Y96.1850
G01 F200.00
G01 Z-2.2000
G01 F200.00
G01 X22.5980 Y96.1850
G01 X22.5980 Y96.1850
G01 X22.5980 Y96.1850
G01 X22.5980 Y96.1850
G01 X22.5980 Y96.1850
G00 Z10.0000
G00 X17.2770 Y96.1850
G01 F200.00
G01 Z-2.2000
G01 F200.00
G01 X17.2770 Y96.1850
G01 X17.2770 Y96.1850
G01 X17.2770 Y96.1850
G01 X17.2770 Y96.1850
G01 X17.2770 Y96.1850
G00 Z10.0000
G00 X14.7370 Y96.1850
G01 F200.00
G01 Z-2.2000
G01 F200.00
G01 X14.7370 Y96.1850
G01 X14.7370 Y96.1850
G01 X14.7370 Y96.1850
G01 X14.7370 Y96.1850
G01 X14.7370 Y96.1850
G00 Z10.0000
G00 X6.5310 Y99.0940
G01 F200.00
G01 Z-2.2000
G01 F200.00
G01 X6.5252 Y98.9764
G01 X6.5079 Y98.8599
G01 X6.4793 Y98.7457
G01 X6.4397 Y98.6348
G01 X6.3893 Y98.5283
G01 X6.3288 Y98.4273
G01 X6.2586 Y98.3327
G01 X6.1795 Y98.2455
G01 X6.0923 Y98.1664
G01 X5.9977 Y98.0962
G01 X5.8967 Y98.0357
G01 X5.7902 Y97.9853
G01 X5.6793 Y97.9457
G01 X5.5651 Y97.9171
G01 X5.4486 Y97.8998
G01 X5.3310 Y97.8940
G01 X5.2134 Y97.8998
G01 X5.0969 Y97.9171
G01 X4.9827 Y97.9457
G01 X4.8718 Y97.9853
G01 X4.7653 Y98.0357
G01 X4.6643 Y98.0962
G01 X4.5697 Y98.1664
G01 X4.4825 Y98.2455
G01 X4.4034 Y98.3327
G01 X4.3332 Y98.4273
G01 X4.2727 Y98.5283
G01 X4.2223 Y98.6348
G01 X4.1827 Y98.7457
G01 X4.1541 Y98.8599
G01 X4.1368 Y98.9764
G01 X4.1310 Y99.0940
G01 X4.1368 Y99.2116
G01 X4.1541 Y99.3281
G01 X4.1827 Y99.4423
G01 X4.2223 Y99.5532
G01 X4.2727 Y99.6597
G01 X4.3332 Y99.7607
G01 X4.4034 Y99.8553
G01 X4.4825 Y99.9425
G01 X4.5697 Y100.0216
G01 X4.6643 Y100.0918
G01 X4.7653 Y100.1523
G01 X4.8718 Y100.2027
G01 X4.9827 Y100.2423
G01 X5.0969 Y100.2709
G01 X5.2134 Y100.2882
G01 X5.3310 Y100.2940
G01 X5.4486 Y100.2882
G01 X5.5651 Y100.2709
G01 X5.6793 Y100.2423
G01 X5.7902 Y100.2027
G01 X5.8967 Y100.1523
G01 X5.9977 Y100.0918
G01 X6.0923 Y100.0216
G01 X6.1795 Y99.9425
G01 X6.2586 Y99.8553
G01 X6.3288 Y99.7607
G01 X6.3893 Y99.6597
G01 X6.4397 Y99.5532
G01 X6.4793 Y99.4423
G01 X6.5079 Y99.3281
G01 X6.5252 Y99.2116
G01 X6.5310 Y99.0940
G01 X6.5252 Y98.9764
G00 Z10.0000
G00 X4.9040 Y90.4190
G01 F200.00
G01 Z-2.2000
G01 F200.00
G01 X4.9030 Y90.3994
G01 X4.9002 Y90.3800
G01 X4.8954 Y90.3609
G01 X4.8888 Y90.3425
G01 X4.8804 Y90.3247
G01 X4.8703 Y90.3079
G01 X4.8586 Y90.2921
G01 X4.8454 Y90.2776
G01 X4.8309 Y90.2644
G01 X4.8151 Y90.2527
G01 X4.7983 Y90.2426
G01 X4.7805 Y90.2342
G01 X4.7621 Y90.2276
G01 X4.7430 Y90.2228
G01 X4.7236 Y90.2200
G01 X4.7040 Y90.2190
G01 X4.6844 Y90.2200
G01 X4.6650 Y90.2228
G01 X4.6459 Y90.2276
G01 X4.6275 Y90.2342
G01 X4.6097 Y90.2426
G01 X4.5929 Y90.2527
G01 X4.5771 Y90.2644
G01 X4.5626 Y90.2776
G01 X4.5494 Y90.2921
G01 X4.5377 Y90.3079
G01 X4.5276 Y90.3247
G01 X4.5192 Y90.3425
G01 X4.5126 Y90.3609
G01 X4.5078 Y90.3800
G01 X4.5050 Y90.3994
G01 X4.5040 Y90.4190
G01 X4.5050 Y90.4386
G01 X4.5078 Y90.4580
G01 X4.5126 Y90.4771
G01 X4.5192 Y90.4955
G01 X4.5276 Y90.5133
G01 X4.5377 Y90.5301
G01 X4.5494 Y90.5459
G01 X4.5626 Y90.5604
G01 X4.5771 Y90.5736
G01 X4.5929 Y90.5853
G01 X4.6097 Y90.5954
G01 X4.6275 Y90.6038
G01 X4.6459 Y90.6104
G01 X4.6650 Y90.6152
G01 X4.6844 Y90.6180
G01 X4.7040 Y90.6190
G01 X4.7236 Y90.6180
G01 X4.7430 Y90.6152
G01 X4.7621 Y90.6104
G01 X4.7805 Y90.6038
G01 X4.7983 Y90.5954
G01 X4.8151 Y90.5853
G01 X4.8309 Y90.5736
G01 X4.8454 Y90.5604
G01 X4.8586 Y90.5459
G01 X4.8703 Y90.5301
G01 X4.8804 Y90.5133
G01 X4.8888 Y90.4955
G01 X4.8954 Y90.4771
G01 X4.9002 Y90.4580
G01 X4.9030 Y90.4386
G01 X4.9040 Y90.4190
G01 X4.9030 Y90.3994
G00 Z10.0000
G00 X4.9180 Y86.6360
G01 F200.00
G01 Z-2.2000
G01 F200.00
G01 X4.9170 Y86.6164
G01 X4.9142 Y86.5970
G01 X4.9094 Y86.5779
G01 X4.9028 Y86.5595
G01 X4.8944 Y86.5417
G01 X4.8843 Y86.5249
G01 X4.8726 Y86.5091
G01 X4.8594 Y86.4946
G01 X4.8449 Y86.4814
G01 X4.8291 Y86.4697
G01 X4.8123 Y86.4596
G01 X4.7945 Y86.4512
G01 X4.7761 Y86.4446
G01 X4.7570 Y86.4398
G01 X4.7376 Y86.4370
G01 X4.7180 Y86.4360
G01 X4.6984 Y86.4370
G01 X4.6790 Y86.4398
G01 X4.6599 Y86.4446
G01 X4.6415 Y86.4512
G01 X4.6237 Y86.4596
G01 X4.6069 Y86.4697
G01 X4.5911 Y86.4814
G01 X4.5766 Y86.4946
G01 X4.5634 Y86.5091
G01 X4.5517 Y86.5249
G01 X4.5416 Y86.5417
G01 X4.5332 Y86.5595
G01 X4.5266 Y86.5779
G01 X4.5218 Y86.5970
G01 X4.5190 Y86.6164
G01 X4.5180 Y86.6360
G01 X4.5190 Y86.6556
G01 X4.5218 Y86.6750
G01 X4.5266 Y86.6941
G01 X4.5332 Y86.7125
G01 X4.5416 Y86.7303
G01 X4.5517 Y86.7471
G01 X4.5634 Y86.7629
G01 X4.5766 Y86.7774
G01 X4.5911 Y86.7906
G01 X4.6069 Y86.8023
G01 X4.6237 Y86.8124
G01 X4.6415 Y86.8208
G01 X4.6599 Y86.8274
G01 X4.6790 Y86.8322
G01 X4.6984 Y86.8350
G01 X4.7180 Y86.8360
G01 X4.7376 Y86.8350
G01 X4.7570 Y86.8322
G01 X4.7761 Y86.8274
G01 X4.7945 Y86.8208
G01 X4.8123 Y86.8124
G01 X4.8291 Y86.8023
G01 X4.8449 Y86.7906
G01 X4.8594 Y86.7774
G01 X4.8726 Y86.7629
G01 X4.8843 Y86.7471
G01 X4.8944 Y86.7303
G01 X4.9028 Y86.7125
G01 X4.9094 Y86.6941
G01 X4.9142 Y86.6750
G01 X4.9170 Y86.6556
G01 X4.9180 Y86.6360
G01 X4.9170 Y86.6164
G00 Z10.0000
G00 X4.9040 Y82.7990
G01 F200.00
G01 Z-2.2000
G01 F200.00
G01 X4.9030 Y82.7794
G01 X4.9002 Y82.7600
G01 X4.8954 Y82.7409
G01 X4.8888 Y82.7225
G01 X4.8804 Y82.7047
G01 X4.8703 Y82.6879
G01 X4.8586 Y82.6721
G01 X4.8454 Y82.6576
G01 X4.8309 Y82.6444
G01 X4.8151 Y82.6327
G01 X4.7983 Y82.6226
G01 X4.7805 Y82.6142
G01 X4.7621 Y82.6076
G01 X4.7430 Y82.6028
G01 X4.7236 Y82.6000
G01 X4.7040 Y82.5990
G01 X4.6844 Y82.6000
G01 X4.6650 Y82.6028
G01 X4.6459 Y82.6076
G01 X4.6275 Y82.6142
G01 X4.6097 Y82.6226
G01 X4.5929 Y82.6327
G01 X4.5771 Y82.6444
G01 X4.5626 Y82.6576
G01 X4.5494 Y82.6721
G01 X4.5377 Y82.6879
G01 X4.5276 Y82.7047
G01 X4.5192 Y82.7225
G01 X4.5126 Y82.7409
G01 X4.5078 Y82.7600
G01 X4.5050 Y82.7794
G01 X4.5040 Y82.7990
G01 X4.5050 Y82.8186
G01 X4.5078 Y82.8380
G01 X4.5126 Y82.8571
G01 X4.5192 Y82.8755
G01 X4.5276 Y82.8933
G01 X4.5377 Y82.9101
G01 X4.5494 Y82.9259
G01 X4.5626 Y82.9404
G01 X4.5771 Y82.9536
G01 X4.5929 Y82.9653
G01 X4.6097 Y82.9754
G01 X4.6275 Y82.9838
G01 X4.6459 Y82.9904
G01 X4.6650 Y82.9952
G01 X4.6844 Y82.9980
G01 X4.7040 Y82.9990
G01 X4.7236 Y82.9980
G01 X4.7430 Y82.9952
G01 X4.7621 Y82.9904
G01 X4.7805 Y82.9838
G01 X4.7983 Y82.9754
G01 X4.8151 Y82.9653
G01 X4.8309 Y82.9536
G01 X4.8454 Y82.9404
G01 X4.8586 Y82.9259
G01 X4.8703 Y82.9101
G01 X4.8804 Y82.8933
G01 X4.8888 Y82.8755
G01 X4.8954 Y82.8571
G01 X4.9002 Y82.8380
G01 X4.9030 Y82.8186
G01 X4.9040 Y82.7990
G01 X4.9030 Y82.7794
G00 Z10.0000
G00 X2.1100 Y71.6230
G01 F200.00
G01 Z-2.2000
G01 F200.00
G01 X2.1090 Y71.6034
G01 X2.1062 Y71.5840
G01 X2.1014 Y71.5649
G01 X2.0948 Y71.5465
G01 X2.0864 Y71.5287
G01 X2.0763 Y71.5119
G01 X2.0646 Y71.4961
G01 X2.0514 Y71.4816
G01 X2.0369 Y71.4684
G01 X2.0211 Y71.4567
G01 X2.0043 Y71.4466
G01 X1.9865 Y71.4382
G01 X1.9681 Y71.4316
G01 X1.9490 Y71.4268
G01 X1.9296 Y71.4240
G01 X1.9100 Y71.4230
G01 X1.8904 Y71.4240
G01 X1.8710 Y71.4268
G01 X1.8519 Y71.4316
G01 X1.8335 Y71.4382
G01 X1.8157 Y71.4466
G01 X1.7989 Y71.4567
G01 X1.7831 Y71.4684
G01 X1.7686 Y71.4816
G01 X1.7554 Y71.4961
G01 X1.7437 Y71.5119
G01 X1.7336 Y71.5287
G01 X1.7252 Y71.5465
G01 X1.7186 Y71.5649
G01 X1.7138 Y71.5840
G01 X1.7110 Y71.6034
G01 X1.7100 Y71.6230
G01 X1.7110 Y71.6426
G01 X1.7138 Y71.6620
G01 X1.7186 Y71.6811
G01 X1.7252 Y71.6995
G01 X1.7336 Y71.7173
G01 X1.7437 Y71.7341
G01 X1.7554 Y71.7499
G01 X1.7686 Y71.7644
G01 X1.7831 Y71.7776
G01 X1.7989 Y71.7893
G01 X1.8157 Y71.7994
G01 X1.8335 Y71.8078
G01 X1.8519 Y71.8144
G01 X1.8710 Y71.8192
G01 X1.8904 Y71.8220
G01 X1.9100 Y71.8230
G01 X1.9296 Y71.8220
G01 X1.9490 Y71.8192
G01 X1.9681 Y71.8144
G01 X1.9865 Y71.8078
G01 X2.0043 Y71.7994
G01 X2.0211 Y71.7893
G01 X2.0369 Y71.7776
G01 X2.0514 Y71.7644
G01 X2.0646 Y71.7499
G01 X2.0763 Y71.7341
G01 X2.0864 Y71.7173
G01 X2.0948 Y71.6995
G01 X2.1014 Y71.6811
G01 X2.1062 Y71.6620
G01 X2.1090 Y71.6426
G01 X2.1100 Y71.6230
G01 X2.1090 Y71.6034
G00 Z10.0000
G00 X6.5310 Y53.0940
G01 F200.00
G01 Z-2.2000
G01 F200.00
G01 X6.5252 Y52.9764
G01 X6.5079 Y52.8599
G01 X6.4793 Y52.7457
G01 X6.4397 Y52.6348
G01 X6.3893 Y52.5283
G01 X6.3288 Y52.4273
G01 X6.2586 Y52.3327
G01 X6.1795 Y52.2455
G01 X6.0923 Y52.1664
G01 X5.9977 Y52.0962
G01 X5.8967 Y52.0357
G01 X5.7902 Y51.9853
G01 X5.6793 Y51.9457
G01 X5.5651 Y51.9171
G01 X5.4486 Y51.8998
G01 X5.3310 Y51.8940
G01 X5.2134 Y51.8998
G01 X5.0969 Y51.9171
G01 X4.9827 Y51.9457
G01 X4.8718 Y51.9853
G01 X4.7653 Y52.0357
G01 X4.6643 Y52.0962
G01 X4.5697 Y52.1664
G01 X4.4825 Y52.2455
G01 X4.4034 Y52.3327
G01 X4.3332 Y52.4273
G01 X4.2727 Y52.5283
G01 X4.2223 Y52.6348
G01 X4.1827 Y52.7457
G01 X4.1541 Y52.8599
G01 X4.1368 Y52.9764
G01 X4.1310 Y53.0940
G01 X4.1368 Y53.2116
G01 X4.1541 Y53.3281
G01 X4.1827 Y53.4423
G01 X4.2223 Y53.5532
G01 X4.2727 Y53.6597
G01 X4.3332 Y53.7607
G01 X4.4034 Y53.8553
G01 X4.4825 Y53.9425
G01 X4.5697 Y54.0216
G01 X4.6643 Y54.0918
G01 X4.7653 Y54.1523
G01 X4.8718 Y54.2027
G01 X4.9827 Y54.2423
G01 X5.0969 Y54.2709
G01 X5.2134 Y54.2882
G01 X5.3310 Y54.2940
G01 X5.4486 Y54.2882
G01 X5.5651 Y54.2709
G01 X5.6793 Y54.2423
G01 X5.7902 Y54.2027
G01 X5.8967 Y54.1523
G01 X5.9977 Y54.0918
G01 X6.0923 Y54.0216
G01 X6.1795 Y53.9425
G01 X6.2586 Y53.8553
G01 X6.3288 Y53.7607
G01 X6.3893 Y53.6597
G01 X6.4397 Y53.5532
G01 X6.4793 Y53.4423
G01 X6.5079 Y53.3281
G01 X6.5252 Y53.2116
G01 X6.5310 Y53.0940
G01 X6.5252 Y52.9764
G00 Z10.0000
G00 X5.5720 Y43.9370
G01 F200.00
G01 Z-2.2000
G01 F200.00
G01 X5.5703 Y43.9017
G01 X5.5651 Y43.8668
G01 X5.5565 Y43.8325
G01 X5.5446 Y43.7992
G01 X5.5295 Y43.7673
G01 X5.5113 Y43.7370
G01 X5.4903 Y43.7086
G01 X5.4666 Y43.6824
G01 X5.4404 Y43.6587
G01 X5.4120 Y43.6377
G01 X5.3817 Y43.6195
G01 X5.3498 Y43.6044
G01 X5.3165 Y43.5925
G01 X5.2822 Y43.5839
G01 X5.2473 Y43.5787
G01 X5.2120 Y43.5770
G01 X5.1767 Y43.5787
G01 X5.1418 Y43.5839
G01 X5.1075 Y43.5925
G01 X5.0742 Y43.6044
G01 X5.0423 Y43.6195
G01 X5.0120 Y43.6377
G01 X4.9836 Y43.6587
G01 X4.9574 Y43.6824
G01 X4.9337 Y43.7086
G01 X4.9127 Y43.7370
G01 X4.8945 Y43.7673
G01 X4.8794 Y43.7992
G01 X4.8675 Y43.8325
G01 X4.8589 Y43.8668
G01 X4.8537 Y43.9017
G01 X4.8520 Y43.9370
G01 X4.8537 Y43.9723
G01 X4.8589 Y44.0072
G01 X4.8675 Y44.0415
G01 X4.8794 Y44.0748
G01 X4.8945 Y44.1067
G01 X4.9127 Y44.1370
G01 X4.9337 Y44.1654
G01 X4.9574 Y44.1916
G01 X4.9836 Y44.2153
G01 X5.0120 Y44.2363
G01 X5.0423 Y44.2545
G01 X5.0742 Y44.2696
G01 X5.1075 Y44.2815
G01 X5.1418 Y44.2901
G01 X5.1767 Y44.2953
G01 X5.2120 Y44.2970
G01 X5.2473 Y44.2953
G01 X5.2822 Y44.2901
G01 X5.3165 Y44.2815
G01 X5.3498 Y44.2696
G01 X5.3817 Y44.2545
G01 X5.4120 Y44.2363
G01 X5.4404 Y44.2153
G01 X5.4666 Y44.1916
G01 X5.4903 Y44.1654
G01 X5.5113 Y44.1370
G01 X5.5295 Y44.1067
G01 X5.5446 Y44.0748
G01 X5.5565 Y44.0415
G01 X5.5651 Y44.0072
G01 X5.5703 Y43.9723
G01 X5.5720 Y43.9370
G01 X5.5703 Y43.9017
G00 Z10.0000
G00 X5.5720 Y38.8570
G01 F200.00
G01 Z-2.2000
G01 F200.00
G01 X5.5703 Y38.8217
G01 X5.5651 Y38.7868
G01 X5.5565 Y38.7525
G01 X5.5446 Y38.7192
G01 X5.5295 Y38.6873
G01 X5.5113 Y38.6570
G01 X5.4903 Y38.6286
G01 X5.4666 Y38.6024
G01 X5.4404 Y38.5787
G01 X5.4120 Y38.5577
G01 X5.3817 Y38.5395
G01 X5.3498 Y38.5244
G01 X5.3165 Y38.5125
G01 X5.2822 Y38.5039
G01 X5.2473 Y38.4987
G01 X5.2120 Y38.4970
G01 X5.1767 Y38.4987
G01 X5.1418 Y38.5039
G01 X5.1075 Y38.5125
G01 X5.0742 Y38.5244
G01 X5.0423 Y38.5395
G01 X5.0120 Y38.5577
G01 X4.9836 Y38.5787
G01 X4.9574 Y38.6024
G01 X4.9337 Y38.6286
G01 X4.9127 Y38.6570
G01 X4.8945 Y38.6873
G01 X4.8794 Y38.7192
G01 X4.8675 Y38.7525
G01 X4.8589 Y38.7868
G01 X4.8537 Y38.8217
G01 X4.8520 Y38.8570
G01 X4.8537 Y38.8923
G01 X4.8589 Y38.9272
G01 X4.8675 Y38.9615
G01 X4.8794 Y38.9948
G01 X4.8945 Y39.0267
G01 X4.9127 Y39.0570
G01 X4.9337 Y39.0854
G01 X4.9574 Y39.1116
G01 X4.9836 Y39.1353
G01 X5.0120 Y39.1563
G01 X5.0423 Y39.1745
G01 X5.0742 Y39.1896
G01 X5.1075 Y39.2015
G01 X5.1418 Y39.2101
G01 X5.1767 Y39.2153
G01 X5.2120 Y39.2170
G01 X5.2473 Y39.2153
G01 X5.2822 Y39.2101
G01 X5.3165 Y39.2015
G01 X5.3498 Y39.1896
G01 X5.3817 Y39.1745
G01 X5.4120 Y39.1563
G01 X5.4404 Y39.1353
G01 X5.4666 Y39.1116
G01 X5.4903 Y39.0854
G01 X5.5113 Y39.0570
G01 X5.5295 Y39.0267
G01 X5.5446 Y38.9948
G01 X5.5565 Y38.9615
G01 X5.5651 Y38.9272
G01 X5.5703 Y38.8923
G01 X5.5720 Y38.8570
G01 X5.5703 Y38.8217
G00 Z10.0000
G00 X14.9640 Y42.4130
G01 F200.00
G01 Z-2.2000
G01 F200.00
G01 X14.9621 Y42.3935
G01 X14.9564 Y42.3747
G01 X14.9471 Y42.3574
G01 X14.9347 Y42.3423
G01 X14.9196 Y42.3299
G01 X14.9023 Y42.3206
G01 X14.8835 Y42.3149
G01 X14.8640 Y42.3130
G01 X14.8445 Y42.3149
G01 X14.8257 Y42.3206
G01 X14.8084 Y42.3299
G01 X14.7933 Y42.3423
G01 X14.7809 Y42.3574
G01 X14.7716 Y42.3747
G01 X14.7659 Y42.3935
G01 X14.7640 Y42.4130
G01 X14.7659 Y42.4325
G01 X14.7716 Y42.4513
G01 X14.7809 Y42.4686
G01 X14.7933 Y42.4837
G01 X14.8084 Y42.4961
G01 X14.8257 Y42.5054
G01 X14.8445 Y42.5111
G01 X14.8640 Y42.5130
G01 X14.8835 Y42.5111
G01 X14.9023 Y42.5054
G01 X14.9196 Y42.4961
G01 X14.9347 Y42.4837
G01 X14.9471 Y42.4686
G01 X14.9564 Y42.4513
G01 X14.9621 Y42.4325
G01 X14.9640 Y42.4130
G01 X14.9621 Y42.3935
G00 Z10.0000
G00 X14.9640 Y44.9530
G01 F200.00
G01 Z-2.2000
G01 F200.00
G01 X14.9621 Y44.9335
G01 X14.9564 Y44.9147
G01 X14.9471 Y44.8974
G01 X14.9347 Y44.8823
G01 X14.9196 Y44.8699
G01 X14.9023 Y44.8606
G01 X14.8835 Y44.8549
G01 X14.8640 Y44.8530
G01 X14.8445 Y44.8549
G01 X14.8257 Y44.8606
G01 X14.8084 Y44.8699
G01 X14.7933 Y44.8823
G01 X14.7809 Y44.8974
G01 X14.7716 Y44.9147
G01 X14.7659 Y44.9335
G01 X14.7640 Y44.9530
G01 X14.7659 Y44.9725
G01 X14.7716 Y44.9913
G01 X14.7809 Y45.0086
G01 X14.7933 Y45.0237
G01 X14.8084 Y45.0361
G01 X14.8257 Y45.0454
G01 X14.8445 Y45.0511
G01 X14.8640 Y45.0530
G01 X14.8835 Y45.0511
G01 X14.9023 Y45.0454
G01 X14.9196 Y45.0361
G01 X14.9347 Y45.0237
G01 X14.9471 Y45.0086
G01 X14.9564 Y44.9913
G01 X14.9621 Y44.9725
G01 X14.9640 Y44.9530
G01 X14.9621 Y44.9335
G00 Z10.0000
G00 X26.8650 Y43.6960
G01 F200.00
G01 Z-2.2000
G01 F200.00
G01 X26.8640 Y43.6862
G01 X26.8612 Y43.6769
G01 X26.8566 Y43.6682
G01 X26.8504 Y43.6606
G01 X26.8428 Y43.6544
G01 X26.8341 Y43.6498
G01 X26.8248 Y43.6470
G01 X26.8150 Y43.6460
G01 X26.8052 Y43.6470
G01 X26.7959 Y43.6498
G01 X26.7872 Y43.6544
G01 X26.7796 Y43.6606
G01 X26.7734 Y43.6682
G01 X26.7688 Y43.6769
G01 X26.7660 Y43.6862
G01 X26.7650 Y43.6960
G01 X26.7660 Y43.7058
G01 X26.7688 Y43.7151
G01 X26.7734 Y43.7238
G01 X26.7796 Y43.7314
G01 X26.7872 Y43.7376
G01 X26.7959 Y43.7422
G01 X26.8052 Y43.7450
G01 X26.8150 Y43.7460
G01 X26.8248 Y43.7450
G01 X26.8341 Y43.7422
G01 X26.8428 Y43.7376
G01 X26.8504 Y43.7314
G01 X26.8566 Y43.7238
G01 X26.8612 Y43.7151
G01 X26.8640 Y43.7058
G01 X26.8650 Y43.6960
G01 X26.8640 Y43.6862
G00 Z10.0000
G00 X26.8650 Y41.1560
G01 F200.00
G01 Z-2.2000
G01 F200.00
G01 X26.8640 Y41.1462
G01 X26.8612 Y41.1369
G01 X26.8566 Y41.1282
G01 X26.8504 Y41.1206
G01 X26.8428 Y41.1144
G01 X26.8341 Y41.1098
G01 X26.8248 Y41.1070
G01 X26.8150 Y41.1060
G01 X26.8052 Y41.1070
G01 X26.7959 Y41.1098
G01 X26.7872 Y41.1144
G01 X26.7796 Y41.1206
G01 X26.7734 Y41.1282
G01 X26.7688 Y41.1369
G01 X26.7660 Y41.1462
G01 X26.7650 Y41.1560
G01 X26.7660 Y41.1658
G01 X26.7688 Y41.1751
G01 X26.7734 Y41.1838
G01 X26.7796 Y41.1914
G01 X26.7872 Y41.1976
G01 X26.7959 Y41.2022
G01 X26.8052 Y41.2050
G01 X26.8150 Y41.2060
G01 X26.8248 Y41.2050
G01 X26.8341 Y41.2022
G01 X26.8428 Y41.1976
G01 X26.8504 Y41.1914
G01 X26.8566 Y41.1838
G01 X26.8612 Y41.1751
G01 X26.8640 Y41.1658
G01 X26.8650 Y41.1560
G01 X26.8640 Y41.1462
G00 Z10.0000
G00 X26.8650 Y38.6160
G01 F200.00
G01 Z-2.2000
G01 F200.00
G01 X26.8640 Y38.6062
G01 X26.8612 Y38.5969
G01 X26.8566 Y38.5882
G01 X26.8504 Y38.5806
G01 X26.8428 Y38.5744
G01 X26.8341 Y38.5698
G01 X26.8248 Y38.5670
G01 X26.8150 Y38.5660
G01 X26.8052 Y38.5670
G01 X26.7959 Y38.5698
G01 X26.7872 Y38.5744
G01 X26.7796 Y38.5806
G01 X26.7734 Y38.5882
G01 X26.7688 Y38.5969
G01 X26.7660 Y38.6062
G01 X26.7650 Y38.6160
G01 X26.7660 Y38.6258
G01 X26.7688 Y38.6351
G01 X26.7734 Y38.6438
G01 X26.7796 Y38.6514
G01 X26.7872 Y38.6576
G01 X26.7959 Y38.6622
G01 X26.8052 Y38.6650
G01 X26.8150 Y38.6660
G01 X26.8248 Y38.6650
G01 X26.8341 Y38.6622
G01 X26.8428 Y38.6576
G01 X26.8504 Y38.6514
G01 X26.8566 Y38.6438
G01 X26.8612 Y38.6351
G01 X26.8640 Y38.6258
G01 X26.8650 Y38.6160
G01 X26.8640 Y38.6062
G00 Z10.0000
G00 X26.8650 Y36.0760
G01 F200.00
G01 Z-2.2000
G01 F200.00
G01 X26.8640 Y36.0662
G01 X26.8612 Y36.0569
G01 X26.8566 Y36.0482
G01 X26.8504 Y36.0406
G01 X26.8428 Y36.0344
G01 X26.8341 Y36.0298
G01 X26.8248 Y36.0270
G01 X26.8150 Y36.0260
G01 X26.8052 Y36.0270
G01 X26.7959 Y36.0298
G01 X26.7872 Y36.0344
G01 X26.7796 Y36.0406
G01 X26.7734 Y36.0482
G01 X26.7688 Y36.0569
G01 X26.7660 Y36.0662
G01 X26.7650 Y36.0760
G01 X26.7660 Y36.0858
G01 X26.7688 Y36.0951
G01 X26.7734 Y36.1038
G01 X26.7796 Y36.1114
G01 X26.7872 Y36.1176
G01 X26.7959 Y36.1222
G01 X26.8052 Y36.1250
G01 X26.8150 Y36.1260
G01 X26.8248 Y36.1250
G01 X26.8341 Y36.1222
G01 X26.8428 Y36.1176
G01 X26.8504 Y36.1114
G01 X26.8566 Y36.1038
G01 X26.8612 Y36.0951
G01 X26.8640 Y36.0858
G01 X26.8650 Y36.0760
G01 X26.8640 Y36.0662
G00 Z10.0000
G00 X26.8650 Y33.5360
G01 F200.00
G01 Z-2.2000
G01 F200.00
G01 X26.8640 Y33.5262
G01 X26.8612 Y33.5169
G01 X26.8566 Y33.5082
G01 X26.8504 Y33.5006
G01 X26.8428 Y33.4944
G01 X26.8341 Y33.4898
G01 X26.8248 Y33.4870
G01 X26.8150 Y33.4860
G01 X26.8052 Y33.4870
G01 X26.7959 Y33.4898
G01 X26.7872 Y33.4944
G01 X26.7796 Y33.5006
G01 X26.7734 Y33.5082
G01 X26.7688 Y33.5169
G01 X26.7660 Y33.5262
G01 X26.7650 Y33.5360
G01 X26.7660 Y33.5458
G01 X26.7688 Y33.5551
G01 X26.7734 Y33.5638
G01 X26.7796 Y33.5714
G01 X26.7872 Y33.5776
G01 X26.7959 Y33.5822
G01 X26.8052 Y33.5850
G01 X26.8150 Y33.5860
G01 X26.8248 Y33.5850
G01 X26.8341 Y33.5822
G01 X26.8428 Y33.5776
G01 X26.8504 Y33.5714
G01 X26.8566 Y33.5638
G01 X26.8612 Y33.5551
G01 X26.8640 Y33.5458
G01 X26.8650 Y33.5360
G01 X26.8640 Y33.5262
G00 Z10.0000
G00 X21.6680 Y33.5230
G01 F200.00
G01 Z-2.2000
G01 F200.00
G01 X21.6670 Y33.5034
G01 X21.6642 Y33.4840
G01 X21.6594 Y33.4649
G01 X21.6528 Y33.4465
G01 X21.6444 Y33.4287
G01 X21.6343 Y33.4119
G01 X21.6226 Y33.3961
G01 X21.6094 Y33.3816
G01 X21.5949 Y33.3684
G01 X21.5791 Y33.3567
G01 X21.5623 Y33.3466
G01 X21.5445 Y33.3382
G01 X21.5261 Y33.3316
G01 X21.5070 Y33.3268
G01 X21.4876 Y33.3240
G01 X21.4680 Y33.3230
G01 X21.4484 Y33.3240
G01 X21.4290 Y33.3268
G01 X21.4099 Y33.3316
G01 X21.3915 Y33.3382
G01 X21.3737 Y33.3466
G01 X21.3569 Y33.3567
G01 X21.3411 Y33.3684
G01 X21.3266 Y33.3816
G01 X21.3134 Y33.3961
G01 X21.3017 Y33.4119
G01 X21.2916 Y33.4287
G01 X21.2832 Y33.4465
G01 X21.2766 Y33.4649
G01 X21.2718 Y33.4840
G01 X21.2690 Y33.5034
G01 X21.2680 Y33.5230
G01 X21.2690 Y33.5426
G01 X21.2718 Y33.5620
G01 X21.2766 Y33.5811
G01 X21.2832 Y33.5995
G01 X21.2916 Y33.6173
G01 X21.3017 Y33.6341
G01 X21.3134 Y33.6499
G01 X21.3266 Y33.6644
G01 X21.3411 Y33.6776
G01 X21.3569 Y33.6893
G01 X21.3737 Y33.6994
G01 X21.3915 Y33.7078
G01 X21.4099 Y33.7144
G01 X21.4290 Y33.7192
G01 X21.4484 Y33.7220
G01 X21.4680 Y33.7230
G01 X21.4876 Y33.7220
G01 X21.5070 Y33.7192
G01 X21.5261 Y33.7144
G01 X21.5445 Y33.7078
G01 X21.5623 Y33.6994
G01 X21.5791 Y33.6893
G01 X21.5949 Y33.6776
G01 X21.6094 Y33.6644
G01 X21.6226 Y33.6499
G01 X21.6343 Y33.6341
G01 X21.6444 Y33.6173
G01 X21.6528 Y33.5995
G01 X21.6594 Y33.5811
G01 X21.6642 Y33.5620
G01 X21.6670 Y33.5426
G01 X21.6680 Y33.5230
G01 X21.6670 Y33.5034
G00 Z10.0000
G00 X15.6790 Y30.8150
G01 F200.00
G01 Z-2.2000
G01 F200.00
G01 X15.6780 Y30.7954
G01 X15.6752 Y30.7760
G01 X15.6704 Y30.7569
G01 X15.6638 Y30.7385
G01 X15.6554 Y30.7207
G01 X15.6453 Y30.7039
G01 X15.6336 Y30.6881
G01 X15.6204 Y30.6736
G01 X15.6059 Y30.6604
G01 X15.5901 Y30.6487
G01 X15.5733 Y30.6386
G01 X15.5555 Y30.6302
G01 X15.5371 Y30.6236
G01 X15.5180 Y30.6188
G01 X15.4986 Y30.6160
G01 X15.4790 Y30.6150
G01 X15.4594 Y30.6160
G01 X15.4400 Y30.6188
G01 X15.4209 Y30.6236
G01 X15.4025 Y30.6302
G01 X15.3847 Y30.6386
G01 X15.3679 Y30.6487
G01 X15.3521 Y30.6604
G01 X15.3376 Y30.6736
G01 X15.3244 Y30.6881
G01 X15.3127 Y30.7039
G01 X15.3026 Y30.7207
G01 X15.2942 Y30.7385
G01 X15.2876 Y30.7569
G01 X15.2828 Y30.7760
G01 X15.2800 Y30.7954
G01 X15.2790 Y30.8150
G01 X15.2800 Y30.8346
G01 X15.2828 Y30.8540
G01 X15.2876 Y30.8731
G01 X15.2942 Y30.8915
G01 X15.3026 Y30.9093
G01 X15.3127 Y30.9261
G01 X15.3244 Y30.9419
G01 X15.3376 Y30.9564
G01 X15.3521 Y30.9696
G01 X15.3679 Y30.9813
G01 X15.3847 Y30.9914
G01 X15.4025 Y30.9998
G01 X15.4209 Y31.0064
G01 X15.4400 Y31.0112
G01 X15.4594 Y31.0140
G01 X15.4790 Y31.0150
G01 X15.4986 Y31.0140
G01 X15.5180 Y31.0112
G01 X15.5371 Y31.0064
G01 X15.5555 Y30.9998
G01 X15.5733 Y30.9914
G01 X15.5901 Y30.9813
G01 X15.6059 Y30.9696
G01 X15.6204 Y30.9564
G01 X15.6336 Y30.9419
G01 X15.6453 Y30.9261
G01 X15.6554 Y30.9093
G01 X15.6638 Y30.8915
G01 X15.6704 Y30.8731
G01 X15.6752 Y30.8540
G01 X15.6780 Y30.8346
G01 X15.6790 Y30.8150
G01 X15.6780 Y30.7954
G00 Z10.0000
G00 X15.5350 Y22.3570
G01 F200.00
G01 Z-2.2000
G01 F200.00
G01 X15.5350 Y22.3570
G01 X15.5350 Y22.3570
G01 X15.5350 Y22.3570
G01 X15.5350 Y22.3570
G01 X15.5350 Y22.3570
G00 Z10.0000
G00 X18.0750 Y22.3570
G01 F200.00
G01 Z-2.2000
G01 F200.00
G01 X18.0750 Y22.3570
G01 X18.0750 Y22.3570
G01 X18.0750 Y22.3570
G01 X18.0750 Y22.3570
G01 X18.0750 Y22.3570
G00 Z10.0000
G00 X18.0750 Y14.7370
G01 F200.00
G01 Z-2.2000
G01 F200.00
G01 X18.0750 Y14.7370
G01 X18.0750 Y14.7370
G01 X18.0750 Y14.7370
G01 X18.0750 Y14.7370
G01 X18.0750 Y14.7370
G00 Z10.0000
G00 X15.5350 Y14.7370
G01 F200.00
G01 Z-2.2000
G01 F200.00
G01 X15.5350 Y14.7370
G01 X15.5350 Y14.7370
G01 X15.5350 Y14.7370
G01 X15.5350 Y14.7370
G01 X15.5350 Y14.7370
G00 Z10.0000
G00 X27.3660 Y14.7370
G01 F200.00
G01 Z-2.2000
G01 F200.00
G01 X27.3660 Y14.7370
G01 X27.3660 Y14.7370
G01 X27.3660 Y14.7370
G01 X27.3660 Y14.7370
G01 X27.3660 Y14.7370
G00 Z10.0000
G00 X29.9060 Y14.7370
G01 F200.00
G01 Z-2.2000
G01 F200.00
G01 X29.9060 Y14.7370
G01 X29.9060 Y14.7370
G01 X29.9060 Y14.7370
G01 X29.9060 Y14.7370
G01 X29.9060 Y14.7370
G00 Z10.0000
G00 X29.9060 Y22.3570
G01 F200.00
G01 Z-2.2000
G01 F200.00
G01 X29.9060 Y22.3570
G01 X29.9060 Y22.3570
G01 X29.9060 Y22.3570
G01 X29.9060 Y22.3570
G01 X29.9060 Y22.3570
G00 Z10.0000
G00 X27.3660 Y22.3570
G01 F200.00
G01 Z-2.2000
G01 F200.00
G01 X27.3660 Y22.3570
G01 X27.3660 Y22.3570
G01 X27.3660 Y22.3570
G01 X27.3660 Y22.3570
G01 X27.3660 Y22.3570
G00 Z10.0000
G00 X26.8650 Y46.2360
G01 F200.00
G01 Z-2.2000
G01 F200.00
G01 X26.8640 Y46.2262
G01 X26.8612 Y46.2169
G01 X26.8566 Y46.2082
G01 X26.8504 Y46.2006
G01 X26.8428 Y46.1944
G01 X26.8341 Y46.1898
G01 X26.8248 Y46.1870
G01 X26.8150 Y46.1860
G01 X26.8052 Y46.1870
G01 X26.7959 Y46.1898
G01 X26.7872 Y46.1944
G01 X26.7796 Y46.2006
G01 X26.7734 Y46.2082
G01 X26.7688 Y46.2169
G01 X26.7660 Y46.2262
G01 X26.7650 Y46.2360
G01 X26.7660 Y46.2458
G01 X26.7688 Y46.2551
G01 X26.7734 Y46.2638
G01 X26.7796 Y46.2714
G01 X26.7872 Y46.2776
G01 X26.7959 Y46.2822
G01 X26.8052 Y46.2850
G01 X26.8150 Y46.2860
G01 X26.8248 Y46.2850
G01 X26.8341 Y46.2822
G01 X26.8428 Y46.2776
G01 X26.8504 Y46.2714
G01 X26.8566 Y46.2638
G01 X26.8612 Y46.2551
G01 X26.8640 Y46.2458
G01 X26.8650 Y46.2360
G01 X26.8640 Y46.2262
G00 Z10.0000
G00 X26.8650 Y48.7760
G01 F200.00
G01 Z-2.2000
G01 F200.00
G01 X26.8640 Y48.7662
G01 X26.8612 Y48.7569
G01 X26.8566 Y48.7482
G01 X26.8504 Y48.7406
G01 X26.8428 Y48.7344
G01 X26.8341 Y48.7298
G01 X26.8248 Y48.7270
G01 X26.8150 Y48.7260
G01 X26.8052 Y48.7270
G01 X26.7959 Y48.7298
G01 X26.7872 Y48.7344
G01 X26.7796 Y48.7406
G01 X26.7734 Y48.7482
G01 X26.7688 Y48.7569
G01 X26.7660 Y48.7662
G01 X26.7650 Y48.7760
G01 X26.7660 Y48.7858
G01 X26.7688 Y48.7951
G01 X26.7734 Y48.8038
G01 X26.7796 Y48.8114
G01 X26.7872 Y48.8176
G01 X26.7959 Y48.8222
G01 X26.8052 Y48.8250
G01 X26.8150 Y48.8260
G01 X26.8248 Y48.8250
G01 X26.8341 Y48.8222
G01 X26.8428 Y48.8176
G01 X26.8504 Y48.8114
G01 X26.8566 Y48.8038
G01 X26.8612 Y48.7951
G01 X26.8640 Y48.7858
G01 X26.8650 Y48.7760
G01 X26.8640 Y48.7662
G00 Z10.0000
G00 X26.8650 Y51.3160
G01 F200.00
G01 Z-2.2000
G01 F200.00
G01 X26.8640 Y51.3062
G01 X26.8612 Y51.2969
G01 X26.8566 Y51.2882
G01 X26.8504 Y51.2806
G01 X26.8428 Y51.2744
G01 X26.8341 Y51.2698
G01 X26.8248 Y51.2670
G01 X26.8150 Y51.2660
G01 X26.8052 Y51.2670
G01 X26.7959 Y51.2698
G01 X26.7872 Y51.2744
G01 X26.7796 Y51.2806
G01 X26.7734 Y51.2882
G01 X26.7688 Y51.2969
G01 X26.7660 Y51.3062
G01 X26.7650 Y51.3160
G01 X26.7660 Y51.3258
G01 X26.7688 Y51.3351
G01 X26.7734 Y51.3438
G01 X26.7796 Y51.3514
G01 X26.7872 Y51.3576
G01 X26.7959 Y51.3622
G01 X26.8052 Y51.3650
G01 X26.8150 Y51.3660
G01 X26.8248 Y51.3650
G01 X26.8341 Y51.3622
G01 X26.8428 Y51.3576
G01 X26.8504 Y51.3514
G01 X26.8566 Y51.3438
G01 X26.8612 Y51.3351
G01 X26.8640 Y51.3258
G01 X26.8650 Y51.3160
G01 X26.8640 Y51.3062
G00 Z10.0000
G00 X26.8650 Y53.8560
G01 F200.00
G01 Z-2.2000
G01 F200.00
G01 X26.8640 Y53.8462
G01 X26.8612 Y53.8369
G01 X26.8566 Y53.8282
G01 X26.8504 Y53.8206
G01 X26.8428 Y53.8144
G01 X26.8341 Y53.8098
G01 X26.8248 Y53.8070
G01 X26.8150 Y53.8060
G01 X26.8052 Y53.8070
G01 X26.7959 Y53.8098
G01 X26.7872 Y53.8144
G01 X26.7796 Y53.8206
G01 X26.7734 Y53.8282
G01 X26.7688 Y53.8369
G01 X26.7660 Y53.8462
G01 X26.7650 Y53.8560
G01 X26.7660 Y53.8658
G01 X26.7688 Y53.8751
G01 X26.7734 Y53.8838
G01 X26.7796 Y53.8914
G01 X26.7872 Y53.8976
G01 X26.7959 Y53.9022
G01 X26.8052 Y53.9050
G01 X26.8150 Y53.9060
G01 X26.8248 Y53.9050
G01 X26.8341 Y53.9022
G01 X26.8428 Y53.8976
G01 X26.8504 Y53.8914
G01 X26.8566 Y53.8838
G01 X26.8612 Y53.8751
G01 X26.8640 Y53.8658
G01 X26.8650 Y53.8560
G01 X26.8640 Y53.8462
G00 Z10.0000
G00 X26.8650 Y56.3960
G01 F200.00
G01 Z-2.2000
G01 F200.00
G01 X26.8640 Y56.3862
G01 X26.8612 Y56.3769
G01 X26.8566 Y56.3682
G01 X26.8504 Y56.3606
G01 X26.8428 Y56.3544
G01 X26.8341 Y56.3498
G01 X26.8248 Y56.3470
G01 X26.8150 Y56.3460
G01 X26.8052 Y56.3470
G01 X26.7959 Y56.3498
G01 X26.7872 Y56.3544
G01 X26.7796 Y56.3606
G01 X26.7734 Y56.3682
G01 X26.7688 Y56.3769
G01 X26.7660 Y56.3862
G01 X26.7650 Y56.3960
G01 X26.7660 Y56.4058
G01 X26.7688 Y56.4151
G01 X26.7734 Y56.4238
G01 X26.7796 Y56.4314
G01 X26.7872 Y56.4376
G01 X26.7959 Y56.4422
G01 X26.8052 Y56.4450
G01 X26.8150 Y56.4460
G01 X26.8248 Y56.4450
G01 X26.8341 Y56.4422
G01 X26.8428 Y56.4376
G01 X26.8504 Y56.4314
G01 X26.8566 Y56.4238
G01 X26.8612 Y56.4151
G01 X26.8640 Y56.4058
G01 X26.8650 Y56.3960
G01 X26.8640 Y56.3862
G00 Z10.0000
G00 X26.8650 Y58.9360
G01 F200.00
G01 Z-2.2000
G01 F200.00
G01 X26.8640 Y58.9262
G01 X26.8612 Y58.9169
G01 X26.8566 Y58.9082
G01 X26.8504 Y58.9006
G01 X26.8428 Y58.8944
G01 X26.8341 Y58.8898
G01 X26.8248 Y58.8870
G01 X26.8150 Y58.8860
G01 X26.8052 Y58.8870
G01 X26.7959 Y58.8898
G01 X26.7872 Y58.8944
G01 X26.7796 Y58.9006
G01 X26.7734 Y58.9082
G01 X26.7688 Y58.9169
G01 X26.7660 Y58.9262
G01 X26.7650 Y58.9360
G01 X26.7660 Y58.9458
G01 X26.7688 Y58.9551
G01 X26.7734 Y58.9638
G01 X26.7796 Y58.9714
G01 X26.7872 Y58.9776
G01 X26.7959 Y58.9822
G01 X26.8052 Y58.9850
G01 X26.8150 Y58.9860
G01 X26.8248 Y58.9850
G01 X26.8341 Y58.9822
G01 X26.8428 Y58.9776
G01 X26.8504 Y58.9714
G01 X26.8566 Y58.9638
G01 X26.8612 Y58.9551
G01 X26.8640 Y58.9458
G01 X26.8650 Y58.9360
G01 X26.8640 Y58.9262
G00 Z10.0000
G00 X26.8650 Y61.4760
G01 F200.00
G01 Z-2.2000
G01 F200.00
G01 X26.8640 Y61.4662
G01 X26.8612 Y61.4569
G01 X26.8566 Y61.4482
G01 X26.8504 Y61.4406
G01 X26.8428 Y61.4344
G01 X26.8341 Y61.4298
G01 X26.8248 Y61.4270
G01 X26.8150 Y61.4260
G01 X26.8052 Y61.4270
G01 X26.7959 Y61.4298
G01 X26.7872 Y61.4344
G01 X26.7796 Y61.4406
G01 X26.7734 Y61.4482
G01 X26.7688 Y61.4569
G01 X26.7660 Y61.4662
G01 X26.7650 Y61.4760
G01 X26.7660 Y61.4858
G01 X26.7688 Y61.4951
G01 X26.7734 Y61.5038
G01 X26.7796 Y61.5114
G01 X26.7872 Y61.5176
G01 X26.7959 Y61.5222
G01 X26.8052 Y61.5250
G01 X26.8150 Y61.5260
G01 X26.8248 Y61.5250
G01 X26.8341 Y61.5222
G01 X26.8428 Y61.5176
G01 X26.8504 Y61.5114
G01 X26.8566 Y61.5038
G01 X26.8612 Y61.4951
G01 X26.8640 Y61.4858
G01 X26.8650 Y61.4760
G01 X26.8640 Y61.4662
G00 Z10.0000
G00 X32.8440 Y52.3190
G01 F200.00
G01 Z-2.2000
G01 F200.00
G01 X32.8430 Y52.2994
G01 X32.8402 Y52.2800
G01 X32.8354 Y52.2609
G01 X32.8288 Y52.2425
G01 X32.8204 Y52.2247
G01 X32.8103 Y52.2079
G01 X32.7986 Y52.1921
G01 X32.7854 Y52.1776
G01 X32.7709 Y52.1644
G01 X32.7551 Y52.1527
G01 X32.7383 Y52.1426
G01 X32.7205 Y52.1342
G01 X32.7021 Y52.1276
G01 X32.6830 Y52.1228
G01 X32.6636 Y52.1200
G01 X32.6440 Y52.1190
G01 X32.6244 Y52.1200
G01 X32.6050 Y52.1228
G01 X32.5859 Y52.1276
G01 X32.5675 Y52.1342
G01 X32.5497 Y52.1426
G01 X32.5329 Y52.1527
G01 X32.5171 Y52.1644
G01 X32.5026 Y52.1776
G01 X32.4894 Y52.1921
G01 X32.4777 Y52.2079
G01 X32.4676 Y52.2247
G01 X32.4592 Y52.2425
G01 X32.4526 Y52.2609
G01 X32.4478 Y52.2800
G01 X32.4450 Y52.2994
G01 X32.4440 Y52.3190
G01 X32.4450 Y52.3386
G01 X32.4478 Y52.3580
G01 X32.4526 Y52.3771
G01 X32.4592 Y52.3955
G01 X32.4676 Y52.4133
G01 X32.4777 Y52.4301
G01 X32.4894 Y52.4459
G01 X32.5026 Y52.4604
G01 X32.5171 Y52.4736
G01 X32.5329 Y52.4853
G01 X32.5497 Y52.4954
G01 X32.5675 Y52.5038
G01 X32.5859 Y52.5104
G01 X32.6050 Y52.5152
G01 X32.6244 Y52.5180
G01 X32.6440 Y52.5190
G01 X32.6636 Y52.5180
G01 X32.6830 Y52.5152
G01 X32.7021 Y52.5104
G01 X32.7205 Y52.5038
G01 X32.7383 Y52.4954
G01 X32.7551 Y52.4853
G01 X32.7709 Y52.4736
G01 X32.7854 Y52.4604
G01 X32.7986 Y52.4459
G01 X32.8103 Y52.4301
G01 X32.8204 Y52.4133
G01 X32.8288 Y52.3955
G01 X32.8354 Y52.3771
G01 X32.8402 Y52.3580
G01 X32.8430 Y52.3386
G01 X32.8440 Y52.3190
G01 X32.8430 Y52.2994
G00 Z10.0000
G00 X34.4440 Y48.5090
G01 F200.00
G01 Z-2.2000
G01 F200.00
G01 X34.4430 Y48.4894
G01 X34.4402 Y48.4700
G01 X34.4354 Y48.4509
G01 X34.4288 Y48.4325
G01 X34.4204 Y48.4147
G01 X34.4103 Y48.3979
G01 X34.3986 Y48.3821
G01 X34.3854 Y48.3676
G01 X34.3709 Y48.3544
G01 X34.3551 Y48.3427
G01 X34.3383 Y48.3326
G01 X34.3205 Y48.3242
G01 X34.3021 Y48.3176
G01 X34.2830 Y48.3128
G01 X34.2636 Y48.3100
G01 X34.2440 Y48.3090
G01 X34.2244 Y48.3100
G01 X34.2050 Y48.3128
G01 X34.1859 Y48.3176
G01 X34.1675 Y48.3242
G01 X34.1497 Y48.3326
G01 X34.1329 Y48.3427
G01 X34.1171 Y48.3544
G01 X34.1026 Y48.3676
G01 X34.0894 Y48.3821
G01 X34.0777 Y48.3979
G01 X34.0676 Y48.4147
G01 X34.0592 Y48.4325
G01 X34.0526 Y48.4509
G01 X34.0478 Y48.4700
G01 X34.0450 Y48.4894
G01 X34.0440 Y48.5090
G01 X34.0450 Y48.5286
G01 X34.0478 Y48.5480
G01 X34.0526 Y48.5671
G01 X34.0592 Y48.5855
G01 X34.0676 Y48.6033
G01 X34.0777 Y48.6201
G01 X34.0894 Y48.6359
G01 X34.1026 Y48.6504
G01 X34.1171 Y48.6636
G01 X34.1329 Y48.6753
G01 X34.1497 Y48.6854
G01 X34.1675 Y48.6938
G01 X34.1859 Y48.7004
G01 X34.2050 Y48.7052
G01 X34.2244 Y48.7080
G01 X34.2440 Y48.7090
G01 X34.2636 Y48.7080
G01 X34.2830 Y48.7052
G01 X34.3021 Y48.7004
G01 X34.3205 Y48.6938
G01 X34.3383 Y48.6854
G01 X34.3551 Y48.6753
G01 X34.3709 Y48.6636
G01 X34.3854 Y48.6504
G01 X34.3986 Y48.6359
G01 X34.4103 Y48.6201
G01 X34.4204 Y48.6033
G01 X34.4288 Y48.5855
G01 X34.4354 Y48.5671
G01 X34.4402 Y48.5480
G01 X34.4430 Y48.5286
G01 X34.4440 Y48.5090
G01 X34.4430 Y48.4894
G00 Z10.0000
G00 X45.0360 Y42.4130
G01 F200.00
G01 Z-2.2000
G01 F200.00
G01 X45.0350 Y42.3934
G01 X45.0322 Y42.3740
G01 X45.0274 Y42.3549
G01 X45.0208 Y42.3365
G01 X45.0124 Y42.3187
G01 X45.0023 Y42.3019
G01 X44.9906 Y42.2861
G01 X44.9774 Y42.2716
G01 X44.9629 Y42.2584
G01 X44.9471 Y42.2467
G01 X44.9303 Y42.2366
G01 X44.9125 Y42.2282
G01 X44.8941 Y42.2216
G01 X44.8750 Y42.2168
G01 X44.8556 Y42.2140
G01 X44.8360 Y42.2130
G01 X44.8164 Y42.2140
G01 X44.7970 Y42.2168
G01 X44.7779 Y42.2216
G01 X44.7595 Y42.2282
G01 X44.7417 Y42.2366
G01 X44.7249 Y42.2467
G01 X44.7091 Y42.2584
G01 X44.6946 Y42.2716
G01 X44.6814 Y42.2861
G01 X44.6697 Y42.3019
G01 X44.6596 Y42.3187
G01 X44.6512 Y42.3365
G01 X44.6446 Y42.3549
G01 X44.6398 Y42.3740
G01 X44.6370 Y42.3934
G01 X44.6360 Y42.4130
G01 X44.6370 Y42.4326
G01 X44.6398 Y42.4520
G01 X44.6446 Y42.4711
G01 X44.6512 Y42.4895
G01 X44.6596 Y42.5073
G01 X44.6697 Y42.5241
G01 X44.6814 Y42.5399
G01 X44.6946 Y42.5544
G01 X44.7091 Y42.5676
G01 X44.7249 Y42.5793
G01 X44.7417 Y42.5894
G01 X44.7595 Y42.5978
G01 X44.7779 Y42.6044
G01 X44.7970 Y42.6092
G01 X44.8164 Y42.6120
G01 X44.8360 Y42.6130
G01 X44.8556 Y42.6120
G01 X44.8750 Y42.6092
G01 X44.8941 Y42.6044
G01 X44.9125 Y42.5978
G01 X44.9303 Y42.5894
G01 X44.9471 Y42.5793
G01 X44.9629 Y42.5676
G01 X44.9774 Y42.5544
G01 X44.9906 Y42.5399
G01 X45.0023 Y42.5241
G01 X45.0124 Y42.5073
G01 X45.0208 Y42.4895
G01 X45.0274 Y42.4711
G01 X45.0322 Y42.4520
G01 X45.0350 Y42.4326
G01 X45.0360 Y42.4130
G01 X45.0350 Y42.3934
G00 Z10.0000
G00 X45.9860 Y37.7330
G01 F200.00
G01 Z-2.2000
G01 F200.00
G01 X45.9850 Y37.7134
G01 X45.9822 Y37.6940
G01 X45.9774 Y37.6749
G01 X45.9708 Y37.6565
G01 X45.9624 Y37.6387
G01 X45.9523 Y37.6219
G01 X45.9406 Y37.6061
G01 X45.9274 Y37.5916
G01 X45.9129 Y37.5784
G01 X45.8971 Y37.5667
G01 X45.8803 Y37.5566
G01 X45.8625 Y37.5482
G01 X45.8441 Y37.5416
G01 X45.8250 Y37.5368
G01 X45.8056 Y37.5340
G01 X45.7860 Y37.5330
G01 X45.7664 Y37.5340
G01 X45.7470 Y37.5368
G01 X45.7279 Y37.5416
G01 X45.7095 Y37.5482
G01 X45.6917 Y37.5566
G01 X45.6749 Y37.5667
G01 X45.6591 Y37.5784
G01 X45.6446 Y37.5916
G01 X45.6314 Y37.6061
G01 X45.6197 Y37.6219
G01 X45.6096 Y37.6387
G01 X45.6012 Y37.6565
G01 X45.5946 Y37.6749
G01 X45.5898 Y37.6940
G01 X45.5870 Y37.7134
G01 X45.5860 Y37.7330
G01 X45.5870 Y37.7526
G01 X45.5898 Y37.7720
G01 X45.5946 Y37.7911
G01 X45.6012 Y37.8095
G01 X45.6096 Y37.8273
G01 X45.6197 Y37.8441
G01 X45.6314 Y37.8599
G01 X45.6446 Y37.8744
G01 X45.6591 Y37.8876
G01 X45.6749 Y37.8993
G01 X45.6917 Y37.9094
G01 X45.7095 Y37.9178
G01 X45.7279 Y37.9244
G01 X45.7470 Y37.9292
G01 X45.7664 Y37.9320
G01 X45.7860 Y37.9330
G01 X45.8056 Y37.9320
G01 X45.8250 Y37.9292
G01 X45.8441 Y37.9244
G01 X45.8625 Y37.9178
G01 X45.8803 Y37.9094
G01 X45.8971 Y37.8993
G01 X45.9129 Y37.8876
G01 X45.9274 Y37.8744
G01 X45.9406 Y37.8599
G01 X45.9523 Y37.8441
G01 X45.9624 Y37.8273
G01 X45.9708 Y37.8095
G01 X45.9774 Y37.7911
G01 X45.9822 Y37.7720
G01 X45.9850 Y37.7526
G01 X45.9860 Y37.7330
G01 X45.9850 Y37.7134
G00 Z10.0000
G00 X48.0310 Y34.8580
G01 F200.00
G01 Z-2.2000
G01 F200.00
G01 X48.0300 Y34.8384
G01 X48.0272 Y34.8190
G01 X48.0224 Y34.7999
G01 X48.0158 Y34.7815
G01 X48.0074 Y34.7637
G01 X47.9973 Y34.7469
G01 X47.9856 Y34.7311
G01 X47.9724 Y34.7166
G01 X47.9579 Y34.7034
G01 X47.9421 Y34.6917
G01 X47.9253 Y34.6816
G01 X47.9075 Y34.6732
G01 X47.8891 Y34.6666
G01 X47.8700 Y34.6618
G01 X47.8506 Y34.6590
G01 X47.8310 Y34.6580
G01 X47.8114 Y34.6590
G01 X47.7920 Y34.6618
G01 X47.7729 Y34.6666
G01 X47.7545 Y34.6732
G01 X47.7367 Y34.6816
G01 X47.7199 Y34.6917
G01 X47.7041 Y34.7034
G01 X47.6896 Y34.7166
G01 X47.6764 Y34.7311
G01 X47.6647 Y34.7469
G01 X47.6546 Y34.7637
G01 X47.6462 Y34.7815
G01 X47.6396 Y34.7999
G01 X47.6348 Y34.8190
G01 X47.6320 Y34.8384
G01 X47.6310 Y34.8580
G01 X47.6320 Y34.8776
G01 X47.6348 Y34.8970
G01 X47.6396 Y34.9161
G01 X47.6462 Y34.9345
G01 X47.6546 Y34.9523
G01 X47.6647 Y34.9691
G01 X47.6764 Y34.9849
G01 X47.6896 Y34.9994
G01 X47.7041 Y35.0126
G01 X47.7199 Y35.0243
G01 X47.7367 Y35.0344
G01 X47.7545 Y35.0428
G01 X47.7729 Y35.0494
G01 X47.7920 Y35.0542
G01 X47.8114 Y35.0570
G01 X47.8310 Y35.0580
G01 X47.8506 Y35.0570
G01 X47.8700 Y35.0542
G01 X47.8891 Y35.0494
G01 X47.9075 Y35.0428
G01 X47.9253 Y35.0344
G01 X47.9421 Y35.0243
G01 X47.9579 Y35.0126
G01 X47.9724 Y34.9994
G01 X47.9856 Y34.9849
G01 X47.9973 Y34.9691
G01 X48.0074 Y34.9523
G01 X48.0158 Y34.9345
G01 X48.0224 Y34.9161
G01 X48.0272 Y34.8970
G01 X48.0300 Y34.8776
G01 X48.0310 Y34.8580
G01 X48.0300 Y34.8384
G00 Z10.0000
G00 X54.1800 Y25.3950
G01 F200.00
G01 Z-2.2000
G01 F200.00
G01 X54.1790 Y25.3754
G01 X54.1762 Y25.3560
G01 X54.1714 Y25.3369
G01 X54.1648 Y25.3185
G01 X54.1564 Y25.3007
G01 X54.1463 Y25.2839
G01 X54.1346 Y25.2681
G01 X54.1214 Y25.2536
G01 X54.1069 Y25.2404
G01 X54.0911 Y25.2287
G01 X54.0743 Y25.2186
G01 X54.0565 Y25.2102
G01 X54.0381 Y25.2036
G01 X54.0190 Y25.1988
G01 X53.9996 Y25.1960
G01 X53.9800 Y25.1950
G01 X53.9604 Y25.1960
G01 X53.9410 Y25.1988
G01 X53.9219 Y25.2036
G01 X53.9035 Y25.2102
G01 X53.8857 Y25.2186
G01 X53.8689 Y25.2287
G01 X53.8531 Y25.2404
G01 X53.8386 Y25.2536
G01 X53.8254 Y25.2681
G01 X53.8137 Y25.2839
G01 X53.8036 Y25.3007
G01 X53.7952 Y25.3185
G01 X53.7886 Y25.3369
G01 X53.7838 Y25.3560
G01 X53.7810 Y25.3754
G01 X53.7800 Y25.3950
G01 X53.7810 Y25.4146
G01 X53.7838 Y25.4340
G01 X53.7886 Y25.4531
G01 X53.7952 Y25.4715
G01 X53.8036 Y25.4893
G01 X53.8137 Y25.5061
G01 X53.8254 Y25.5219
G01 X53.8386 Y25.5364
G01 X53.8531 Y25.5496
G01 X53.8689 Y25.5613
G01 X53.8857 Y25.5714
G01 X53.9035 Y25.5798
G01 X53.9219 Y25.5864
G01 X53.9410 Y25.5912
G01 X53.9604 Y25.5940
G01 X53.9800 Y25.5950
G01 X53.9996 Y25.5940
G01 X54.0190 Y25.5912
G01 X54.0381 Y25.5864
G01 X54.0565 Y25.5798
G01 X54.0743 Y25.5714
G01 X54.0911 Y25.5613
G01 X54.1069 Y25.5496
G01 X54.1214 Y25.5364
G01 X54.1346 Y25.5219
G01 X54.1463 Y25.5061
G01 X54.1564 Y25.4893
G01 X54.1648 Y25.4715
G01 X54.1714 Y25.4531
G01 X54.1762 Y25.4340
G01 X54.1790 Y25.4146
G01 X54.1800 Y25.3950
G01 X54.1790 Y25.3754
G00 Z10.0000
G00 X56.3660 Y21.8390
G01 F200.00
G01 Z-2.2000
G01 F200.00
G01 X56.3641 Y21.8195
G01 X56.3584 Y21.8007
G01 X56.3491 Y21.7834
G01 X56.3367 Y21.7683
G01 X56.3216 Y21.7559
G01 X56.3043 Y21.7466
G01 X56.2855 Y21.7409
G01 X56.2660 Y21.7390
G01 X56.2465 Y21.7409
G01 X56.2277 Y21.7466
G01 X56.2104 Y21.7559
G01 X56.1953 Y21.7683
G01 X56.1829 Y21.7834
G01 X56.1736 Y21.8007
G01 X56.1679 Y21.8195
G01 X56.1660 Y21.8390
G01 X56.1679 Y21.8585
G01 X56.1736 Y21.8773
G01 X56.1829 Y21.8946
G01 X56.1953 Y21.9097
G01 X56.2104 Y21.9221
G01 X56.2277 Y21.9314
G01 X56.2465 Y21.9371
G01 X56.2660 Y21.9390
G01 X56.2855 Y21.9371
G01 X56.3043 Y21.9314
G01 X56.3216 Y21.9221
G01 X56.3367 Y21.9097
G01 X56.3491 Y21.8946
G01 X56.3584 Y21.8773
G01 X56.3641 Y21.8585
G01 X56.3660 Y21.8390
G01 X56.3641 Y21.8195
G00 Z10.0000
G00 X58.9060 Y21.8390
G01 F200.00
G01 Z-2.2000
G01 F200.00
G01 X58.9041 Y21.8195
G01 X58.8984 Y21.8007
G01 X58.8891 Y21.7834
G01 X58.8767 Y21.7683
G01 X58.8616 Y21.7559
G01 X58.8443 Y21.7466
G01 X58.8255 Y21.7409
G01 X58.8060 Y21.7390
G01 X58.7865 Y21.7409
G01 X58.7677 Y21.7466
G01 X58.7504 Y21.7559
G01 X58.7353 Y21.7683
G01 X58.7229 Y21.7834
G01 X58.7136 Y21.8007
G01 X58.7079 Y21.8195
G01 X58.7060 Y21.8390
G01 X58.7079 Y21.8585
G01 X58.7136 Y21.8773
G01 X58.7229 Y21.8946
G01 X58.7353 Y21.9097
G01 X58.7504 Y21.9221
G01 X58.7677 Y21.9314
G01 X58.7865 Y21.9371
G01 X58.8060 Y21.9390
G01 X58.8255 Y21.9371
G01 X58.8443 Y21.9314
G01 X58.8616 Y21.9221
G01 X58.8767 Y21.9097
G01 X58.8891 Y21.8946
G01 X58.8984 Y21.8773
G01 X58.9041 Y21.8585
G01 X58.9060 Y21.8390
G01 X58.9041 Y21.8195
G00 Z10.0000
G00 X61.4460 Y21.8390
G01 F200.00
G01 Z-2.2000
G01 F200.00
G01 X61.4441 Y21.8195
G01 X61.4384 Y21.8007
G01 X61.4291 Y21.7834
G01 X61.4167 Y21.7683
G01 X61.4016 Y21.7559
G01 X61.3843 Y21.7466
G01 X61.3655 Y21.7409
G01 X61.3460 Y21.7390
G01 X61.3265 Y21.7409
G01 X61.3077 Y21.7466
G01 X61.2904 Y21.7559
G01 X61.2753 Y21.7683
G01 X61.2629 Y21.7834
G01 X61.2536 Y21.8007
G01 X61.2479 Y21.8195
G01 X61.2460 Y21.8390
G01 X61.2479 Y21.8585
G01 X61.2536 Y21.8773
G01 X61.2629 Y21.8946
G01 X61.2753 Y21.9097
G01 X61.2904 Y21.9221
G01 X61.3077 Y21.9314
G01 X61.3265 Y21.9371
G01 X61.3460 Y21.9390
G01 X61.3655 Y21.9371
G01 X61.3843 Y21.9314
G01 X61.4016 Y21.9221
G01 X61.4167 Y21.9097
G01 X61.4291 Y21.8946
G01 X61.4384 Y21.8773
G01 X61.4441 Y21.8585
G01 X61.4460 Y21.8390
G01 X61.4441 Y21.8195
G00 Z10.0000
G00 X61.2850 Y24.9850
G01 F200.00
G01 Z-2.2000
G01 F200.00
G01 X61.2840 Y24.9654
G01 X61.2812 Y24.9460
G01 X61.2764 Y24.9269
G01 X61.2698 Y24.9085
G01 X61.2614 Y24.8907
G01 X61.2513 Y24.8739
G01 X61.2396 Y24.8581
G01 X61.2264 Y24.8436
G01 X61.2119 Y24.8304
G01 X61.1961 Y24.8187
G01 X61.1793 Y24.8086
G01 X61.1615 Y24.8002
G01 X61.1431 Y24.7936
G01 X61.1240 Y24.7888
G01 X61.1046 Y24.7860
G01 X61.0850 Y24.7850
G01 X61.0654 Y24.7860
G01 X61.0460 Y24.7888
G01 X61.0269 Y24.7936
G01 X61.0085 Y24.8002
G01 X60.9907 Y24.8086
G01 X60.9739 Y24.8187
G01 X60.9581 Y24.8304
G01 X60.9436 Y24.8436
G01 X60.9304 Y24.8581
G01 X60.9187 Y24.8739
G01 X60.9086 Y24.8907
G01 X60.9002 Y24.9085
G01 X60.8936 Y24.9269
G01 X60.8888 Y24.9460
G01 X60.8860 Y24.9654
G01 X60.8850 Y24.9850
G01 X60.8860 Y25.0046
G01 X60.8888 Y25.0240
G01 X60.8936 Y25.0431
G01 X60.9002 Y25.0615
G01 X60.9086 Y25.0793
G01 X60.9187 Y25.0961
G01 X60.9304 Y25.1119
G01 X60.9436 Y25.1264
G01 X60.9581 Y25.1396
G01 X60.9739 Y25.1513
G01 X60.9907 Y25.1614
G01 X61.0085 Y25.1698
G01 X61.0269 Y25.1764
G01 X61.0460 Y25.1812
G01 X61.0654 Y25.1840
G01 X61.0850 Y25.1850
G01 X61.1046 Y25.1840
G01 X61.1240 Y25.1812
G01 X61.1431 Y25.1764
G01 X61.1615 Y25.1698
G01 X61.1793 Y25.1614
G01 X61.1961 Y25.1513
G01 X61.2119 Y25.1396
G01 X61.2264 Y25.1264
G01 X61.2396 Y25.1119
G01 X61.2513 Y25.0961
G01 X61.2614 Y25.0793
G01 X61.2698 Y25.0615
G01 X61.2764 Y25.0431
G01 X61.2812 Y25.0240
G01 X61.2840 Y25.0046
G01 X61.2850 Y24.9850
G01 X61.2840 Y24.9654
G00 Z10.0000
G00 X65.9420 Y25.6490
G01 F200.00
G01 Z-2.2000
G01 F200.00
G01 X65.9410 Y25.6294
G01 X65.9382 Y25.6100
G01 X65.9334 Y25.5909
G01 X65.9268 Y25.5725
G01 X65.9184 Y25.5547
G01 X65.9083 Y25.5379
G01 X65.8966 Y25.5221
G01 X65.8834 Y25.5076
G01 X65.8689 Y25.4944
G01 X65.8531 Y25.4827
G01 X65.8363 Y25.4726
G01 X65.8185 Y25.4642
G01 X65.8001 Y25.4576
G01 X65.7810 Y25.4528
G01 X65.7616 Y25.4500
G01 X65.7420 Y25.4490
G01 X65.7224 Y25.4500
G01 X65.7030 Y25.4528
G01 X65.6839 Y25.4576
G01 X65.6655 Y25.4642
G01 X65.6477 Y25.4726
G01 X65.6309 Y25.4827
G01 X65.6151 Y25.4944
G01 X65.6006 Y25.5076
G01 X65.5874 Y25.5221
G01 X65.5757 Y25.5379
G01 X65.5656 Y25.5547
G01 X65.5572 Y25.5725
G01 X65.5506 Y25.5909
G01 X65.5458 Y25.6100
G01 X65.5430 Y25.6294
G01 X65.5420 Y25.6490
G01 X65.5430 Y25.6686
G01 X65.5458 Y25.6880
G01 X65.5506 Y25.7071
G01 X65.5572 Y25.7255
G01 X65.5656 Y25.7433
G01 X65.5757 Y25.7601
G01 X65.5874 Y25.7759
G01 X65.6006 Y25.7904
G01 X65.6151 Y25.8036
G01 X65.6309 Y25.8153
G01 X65.6477 Y25.8254
G01 X65.6655 Y25.8338
G01 X65.6839 Y25.8404
G01 X65.7030 Y25.8452
G01 X65.7224 Y25.8480
G01 X65.7420 Y25.8490
G01 X65.7616 Y25.8480
G01 X65.7810 Y25.8452
G01 X65.8001 Y25.8404
G01 X65.8185 Y25.8338
G01 X65.8363 Y25.8254
G01 X65.8531 Y25.8153
G01 X65.8689 Y25.8036
G01 X65.8834 Y25.7904
G01 X65.8966 Y25.7759
G01 X65.9083 Y25.7601
G01 X65.9184 Y25.7433
G01 X65.9268 Y25.7255
G01 X65.9334 Y25.7071
G01 X65.9382 Y25.6880
G01 X65.9410 Y25.6686
G01 X65.9420 Y25.6490
G01 X65.9410 Y25.6294
G00 Z10.0000
G00 X71.3520 Y21.8390
G01 F200.00
G01 Z-2.2000
G01 F200.00
G01 X71.3501 Y21.8195
G01 X71.3444 Y21.8007
G01 X71.3351 Y21.7834
G01 X71.3227 Y21.7683
G01 X71.3076 Y21.7559
G01 X71.2903 Y21.7466
G01 X71.2715 Y21.7409
G01 X71.2520 Y21.7390
G01 X71.2325 Y21.7409
G01 X71.2137 Y21.7466
G01 X71.1964 Y21.7559
G01 X71.1813 Y21.7683
G01 X71.1689 Y21.7834
G01 X71.1596 Y21.8007
G01 X71.1539 Y21.8195
G01 X71.1520 Y21.8390
G01 X71.1539 Y21.8585
G01 X71.1596 Y21.8773
G01 X71.1689 Y21.8946
G01 X71.1813 Y21.9097
G01 X71.1964 Y21.9221
G01 X71.2137 Y21.9314
G01 X71.2325 Y21.9371
G01 X71.2520 Y21.9390
G01 X71.2715 Y21.9371
G01 X71.2903 Y21.9314
G01 X71.3076 Y21.9221
G01 X71.3227 Y21.9097
G01 X71.3351 Y21.8946
G01 X71.3444 Y21.8773
G01 X71.3501 Y21.8585
G01 X71.3520 Y21.8390
G01 X71.3501 Y21.8195
G00 Z10.0000
G00 X73.8920 Y21.8390
G01 F200.00
G01 Z-2.2000
G01 F200.00
G01 X73.8901 Y21.8195
G01 X73.8844 Y21.8007
G01 X73.8751 Y21.7834
G01 X73.8627 Y21.7683
G01 X73.8476 Y21.7559
G01 X73.8303 Y21.7466
G01 X73.8115 Y21.7409
G01 X73.7920 Y21.7390
G01 X73.7725 Y21.7409
G01 X73.7537 Y21.7466
G01 X73.7364 Y21.7559
G01 X73.7213 Y21.7683
G01 X73.7089 Y21.7834
G01 X73.6996 Y21.8007
G01 X73.6939 Y21.8195
G01 X73.6920 Y21.8390
G01 X73.6939 Y21.8585
G01 X73.6996 Y21.8773
G01 X73.7089 Y21.8946
G01 X73.7213 Y21.9097
G01 X73.7364 Y21.9221
G01 X73.7537 Y21.9314
G01 X73.7725 Y21.9371
G01 X73.7920 Y21.9390
G01 X73.8115 Y21.9371
G01 X73.8303 Y21.9314
G01 X73.8476 Y21.9221
G01 X73.8627 Y21.9097
G01 X73.8751 Y21.8946
G01 X73.8844 Y21.8773
G01 X73.8901 Y21.8585
G01 X73.8920 Y21.8390
G01 X73.8901 Y21.8195
G00 Z10.0000
G00 X76.4320 Y21.8390
G01 F200.00
G01 Z-2.2000
G01 F200.00
G01 X76.4301 Y21.8195
G01 X76.4244 Y21.8007
G01 X76.4151 Y21.7834
G01 X76.4027 Y21.7683
G01 X76.3876 Y21.7559
G01 X76.3703 Y21.7466
G01 X76.3515 Y21.7409
G01 X76.3320 Y21.7390
G01 X76.3125 Y21.7409
G01 X76.2937 Y21.7466
G01 X76.2764 Y21.7559
G01 X76.2613 Y21.7683
G01 X76.2489 Y21.7834
G01 X76.2396 Y21.8007
G01 X76.2339 Y21.8195
G01 X76.2320 Y21.8390
G01 X76.2339 Y21.8585
G01 X76.2396 Y21.8773
G01 X76.2489 Y21.8946
G01 X76.2613 Y21.9097
G01 X76.2764 Y21.9221
G01 X76.2937 Y21.9314
G01 X76.3125 Y21.9371
G01 X76.3320 Y21.9390
G01 X76.3515 Y21.9371
G01 X76.3703 Y21.9314
G01 X76.3876 Y21.9221
G01 X76.4027 Y21.9097
G01 X76.4151 Y21.8946
G01 X76.4244 Y21.8773
G01 X76.4301 Y21.8585
G01 X76.4320 Y21.8390
G01 X76.4301 Y21.8195
G00 Z10.0000
G00 X77.0400 Y25.3950
G01 F200.00
G01 Z-2.2000
G01 F200.00
G01 X77.0390 Y25.3754
G01 X77.0362 Y25.3560
G01 X77.0314 Y25.3369
G01 X77.0248 Y25.3185
G01 X77.0164 Y25.3007
G01 X77.0063 Y25.2839
G01 X76.9946 Y25.2681
G01 X76.9814 Y25.2536
G01 X76.9669 Y25.2404
G01 X76.9511 Y25.2287
G01 X76.9343 Y25.2186
G01 X76.9165 Y25.2102
G01 X76.8981 Y25.2036
G01 X76.8790 Y25.1988
G01 X76.8596 Y25.1960
G01 X76.8400 Y25.1950
G01 X76.8204 Y25.1960
G01 X76.8010 Y25.1988
G01 X76.7819 Y25.2036
G01 X76.7635 Y25.2102
G01 X76.7457 Y25.2186
G01 X76.7289 Y25.2287
G01 X76.7131 Y25.2404
G01 X76.6986 Y25.2536
G01 X76.6854 Y25.2681
G01 X76.6737 Y25.2839
G01 X76.6636 Y25.3007
G01 X76.6552 Y25.3185
G01 X76.6486 Y25.3369
G01 X76.6438 Y25.3560
G01 X76.6410 Y25.3754
G01 X76.6400 Y25.3950
G01 X76.6410 Y25.4146
G01 X76.6438 Y25.4340
G01 X76.6486 Y25.4531
G01 X76.6552 Y25.4715
G01 X76.6636 Y25.4893
G01 X76.6737 Y25.5061
G01 X76.6854 Y25.5219
G01 X76.6986 Y25.5364
G01 X76.7131 Y25.5496
G01 X76.7289 Y25.5613
G01 X76.7457 Y25.5714
G01 X76.7635 Y25.5798
G01 X76.7819 Y25.5864
G01 X76.8010 Y25.5912
G01 X76.8204 Y25.5940
G01 X76.8400 Y25.5950
G01 X76.8596 Y25.5940
G01 X76.8790 Y25.5912
G01 X76.8981 Y25.5864
G01 X76.9165 Y25.5798
G01 X76.9343 Y25.5714
G01 X76.9511 Y25.5613
G01 X76.9669 Y25.5496
G01 X76.9814 Y25.5364
G01 X76.9946 Y25.5219
G01 X77.0063 Y25.5061
G01 X77.0164 Y25.4893
G01 X77.0248 Y25.4715
G01 X77.0314 Y25.4531
G01 X77.0362 Y25.4340
G01 X77.0390 Y25.4146
G01 X77.0400 Y25.3950
G01 X77.0390 Y25.3754
G00 Z10.0000
G00 X83.6490 Y22.7130
G01 F200.00
G01 Z-2.2000
G01 F200.00
G01 X83.6480 Y22.6934
G01 X83.6452 Y22.6740
G01 X83.6404 Y22.6549
G01 X83.6338 Y22.6365
G01 X83.6254 Y22.6187
G01 X83.6153 Y22.6019
G01 X83.6036 Y22.5861
G01 X83.5904 Y22.5716
G01 X83.5759 Y22.5584
G01 X83.5601 Y22.5467
G01 X83.5433 Y22.5366
G01 X83.5255 Y22.5282
G01 X83.5071 Y22.5216
G01 X83.4880 Y22.5168
G01 X83.4686 Y22.5140
G01 X83.4490 Y22.5130
G01 X83.4294 Y22.5140
G01 X83.4100 Y22.5168
G01 X83.3909 Y22.5216
G01 X83.3725 Y22.5282
G01 X83.3547 Y22.5366
G01 X83.3379 Y22.5467
G01 X83.3221 Y22.5584
G01 X83.3076 Y22.5716
G01 X83.2944 Y22.5861
G01 X83.2827 Y22.6019
G01 X83.2726 Y22.6187
G01 X83.2642 Y22.6365
G01 X83.2576 Y22.6549
G01 X83.2528 Y22.6740
G01 X83.2500 Y22.6934
G01 X83.2490 Y22.7130
G01 X83.2500 Y22.7326
G01 X83.2528 Y22.7520
G01 X83.2576 Y22.7711
G01 X83.2642 Y22.7895
G01 X83.2726 Y22.8073
G01 X83.2827 Y22.8241
G01 X83.2944 Y22.8399
G01 X83.3076 Y22.8544
G01 X83.3221 Y22.8676
G01 X83.3379 Y22.8793
G01 X83.3547 Y22.8894
G01 X83.3725 Y22.8978
G01 X83.3909 Y22.9044
G01 X83.4100 Y22.9092
G01 X83.4294 Y22.9120
G01 X83.4490 Y22.9130
G01 X83.4686 Y22.9120
G01 X83.4880 Y22.9092
G01 X83.5071 Y22.9044
G01 X83.5255 Y22.8978
G01 X83.5433 Y22.8894
G01 X83.5601 Y22.8793
G01 X83.5759 Y22.8676
G01 X83.5904 Y22.8544
G01 X83.6036 Y22.8399
G01 X83.6153 Y22.8241
G01 X83.6254 Y22.8073
G01 X83.6338 Y22.7895
G01 X83.6404 Y22.7711
G01 X83.6452 Y22.7520
G01 X83.6480 Y22.7326
G01 X83.6490 Y22.7130
G01 X83.6480 Y22.6934
G00 Z10.0000
G00 X91.4440 Y23.2920
G01 F200.00
G01 Z-2.2000
G01 F200.00
G01 X91.4423 Y23.2567
G01 X91.4371 Y23.2218
G01 X91.4285 Y23.1875
G01 X91.4166 Y23.1542
G01 X91.4015 Y23.1223
G01 X91.3833 Y23.0920
G01 X91.3623 Y23.0636
G01 X91.3386 Y23.0374
G01 X91.3124 Y23.0137
G01 X91.2840 Y22.9927
G01 X91.2537 Y22.9745
