(G-CODE GENERATED BY FLATCAM v8.912 - www.flatcam.org - Version Date: 2019/03/17)

(Name: Board-F_Cu.gbr_iso_cnc)
(Type: G-code from Geometry)
(Units: MM)

(Created on Monday, 25 March 2019 at 16:05)

(TOOL DIAMETER: 0.17 mm)
(Feedrate: 76.2 mm/min)
(Feedrate_Z: 76.2 mm/min)
(Feedrate rapids 1000.0 mm/min)

(Z_Cut: -0.1 mm)
(Z_Move: 10.0 mm)
(Z Toolchange: 25.4 mm)
(X,Y Toolchange: 0.0000, 0.0000 mm)
(Z Start: None mm)
(Z End: 100.0 mm)
(Steps per circle: 64)
(Postprocessor Geometry: default)

(X range:    0.2274 ...   96.3635  mm)
(Y range:    0.2503 ...  114.4205  mm)

(Spindle Speed: 18000 RPM)
G94 ( Millimeters per minute feed rate. )
G21 ( Units == Millimeters. )
G90 ( Absolute coordinates. )
G64 P0.01000 ( set maximum deviation from commanded toolpath )



G21
G90
G94

G01 F76.20
G00 Z10.0000

M03 S18000
G00 X3.3085 Y7.2936
G01 F76.20
G01 Z-0.1000
G01 F76.20
G01 X3.3085 Y6.8951
G01 X3.3862 Y6.5043
G01 X3.5387 Y6.1362
G01 X3.7601 Y5.8048
G01 X4.0419 Y5.5231
G01 X4.3732 Y5.3017
G01 X4.7414 Y5.1492
G01 X5.1322 Y5.0715
G01 X5.5307 Y5.0715
G01 X5.9215 Y5.1492
G01 X6.2897 Y5.3017
G01 X6.6210 Y5.5231
G01 X6.9028 Y5.8048
G01 X7.1241 Y6.1362
G01 X7.2766 Y6.5043
G01 X7.3544 Y6.8951
G01 X7.3544 Y7.2936
G01 X7.2766 Y7.6845
G01 X7.1241 Y8.0526
G01 X6.9028 Y8.3839
G01 X6.6210 Y8.6657
G01 X6.2897 Y8.8871
G01 X5.9215 Y9.0396
G01 X5.5307 Y9.1173
G01 X5.1322 Y9.1173
G01 X4.7414 Y9.0396
G01 X4.3732 Y8.8871
G01 X4.0419 Y8.6657
G01 X3.7601 Y8.3839
G01 X3.5387 Y8.0526
G01 X3.3862 Y7.6845
G01 X3.3085 Y7.2936
G01 X3.3085 Y6.8951
G00 Z10.0000
G00 X3.4615 Y7.2786
G01 F76.20
G01 Z-0.1000
G01 F76.20
G01 X3.4615 Y6.9102
G01 X3.5334 Y6.5489
G01 X3.6743 Y6.2086
G01 X3.8790 Y5.9024
G01 X4.1394 Y5.6419
G01 X4.4457 Y5.4373
G01 X4.7860 Y5.2963
G01 X5.1473 Y5.2245
G01 X5.5156 Y5.2245
G01 X5.8769 Y5.2963
G01 X6.2172 Y5.4373
G01 X6.5235 Y5.6419
G01 X6.7839 Y5.9024
G01 X6.9886 Y6.2086
G01 X7.1295 Y6.5489
G01 X7.2014 Y6.9102
G01 X7.2014 Y7.2786
G01 X7.1295 Y7.6398
G01 X6.9886 Y7.9801
G01 X6.7839 Y8.2864
G01 X6.5235 Y8.5469
G01 X6.2172 Y8.7515
G01 X5.8769 Y8.8925
G01 X5.5156 Y8.9643
G01 X5.1473 Y8.9643
G01 X4.7860 Y8.8925
G01 X4.4457 Y8.7515
G01 X4.1394 Y8.5469
G01 X3.8790 Y8.2864
G01 X3.6743 Y7.9801
G01 X3.5334 Y7.6398
G01 X3.4615 Y7.2786
G01 X3.4615 Y6.9102
G00 Z10.0000
G00 X3.6145 Y7.2635
G01 F76.20
G01 Z-0.1000
G01 F76.20
G01 X3.6145 Y6.9253
G01 X3.6805 Y6.5936
G01 X3.8099 Y6.2811
G01 X3.9978 Y5.9999
G01 X4.2370 Y5.7608
G01 X4.5182 Y5.5729
G01 X4.8306 Y5.4434
G01 X5.1623 Y5.3775
G01 X5.5005 Y5.3775
G01 X5.8323 Y5.4434
G01 X6.1447 Y5.5729
G01 X6.4259 Y5.7608
G01 X6.6651 Y5.9999
G01 X6.8530 Y6.2811
G01 X6.9824 Y6.5936
G01 X7.0484 Y6.9253
G01 X7.0484 Y7.2635
G01 X6.9824 Y7.5952
G01 X6.8530 Y7.9077
G01 X6.6651 Y8.1889
G01 X6.4259 Y8.4280
G01 X6.1447 Y8.6159
G01 X5.8323 Y8.7453
G01 X5.5005 Y8.8113
G01 X5.1623 Y8.8113
G01 X4.8306 Y8.7453
G01 X4.5182 Y8.6159
G01 X4.2370 Y8.4280
G01 X3.9978 Y8.1889
G01 X3.8099 Y7.9077
G01 X3.6805 Y7.5952
G01 X3.6145 Y7.2635
G01 X3.6145 Y6.9253
G00 Z10.0000
G00 X10.0574 Y4.3900
G01 F76.20
G01 Z-0.1000
G01 F76.20
G01 X10.0599 Y4.4165
G01 X10.0834 Y4.5547
G01 X10.0893 Y4.5808
G01 X10.1281 Y4.7155
G01 X10.1369 Y4.7406
G01 X10.1911 Y4.8714
G01 X10.1960 Y4.8815
G01 X10.1718 Y4.9057
G01 X10.1099 Y4.7817
G01 X10.0310 Y4.4929
G01 X10.0100 Y4.1942
G01 X10.0476 Y3.8972
G01 X10.1441 Y3.6084
G01 X10.1679 Y3.5638
G01 X10.1960 Y3.5920
G01 X10.1906 Y3.6033
G01 X10.1369 Y3.7328
G01 X10.1281 Y3.7580
G01 X10.0893 Y3.8927
G01 X10.0834 Y3.9187
G01 X10.0599 Y4.0569
G01 X10.0569 Y4.0834
G01 X10.0487 Y4.2367
G01 X10.0574 Y4.3900
G01 X10.0599 Y4.4165
G00 Z10.0000
G00 X10.2098 Y4.3814
G01 F76.20
G01 Z-0.1000
G01 F76.20
G01 X10.2107 Y4.3909
G01 X10.2346 Y4.5310
G01 X10.2751 Y4.6731
G01 X10.2783 Y4.6821
G01 X10.3321 Y4.8121
G01 X10.3851 Y4.9088
G01 X10.1752 Y5.1187
G01 X10.0884 Y5.0810
G01 X9.9663 Y4.8366
G01 X9.8795 Y4.5187
G01 X9.8563 Y4.1899
G01 X9.8977 Y3.8630
G01 X10.0031 Y3.5476
G01 X10.0853 Y3.3937
G01 X10.1752 Y3.3547
G01 X10.3851 Y3.5646
G01 X10.3319 Y3.6618
G01 X10.2783 Y3.7913
G01 X10.2751 Y3.8003
G01 X10.2363 Y3.9350
G01 X10.2342 Y3.9443
G01 X10.2107 Y4.0825
G01 X10.2097 Y4.0920
G01 X10.2018 Y4.2320
G01 X10.2018 Y4.2415
G01 X10.2098 Y4.3814
G01 X10.2107 Y4.3909
G00 Z10.0000
G00 X10.8646 Y5.3883
G01 F76.20
G01 Z-0.1000
G01 F76.20
G01 X10.9618 Y5.4415
G01 X11.0913 Y5.4951
G01 X11.1003 Y5.4983
G01 X11.2350 Y5.5371
G01 X11.2443 Y5.5392
G01 X11.3825 Y5.5627
G01 X11.3920 Y5.5637
G01 X11.5367 Y5.5717
G01 X11.6814 Y5.5637
G01 X11.6909 Y5.5627
G01 X11.8291 Y5.5392
G01 X11.8384 Y5.5371
G01 X11.9731 Y5.4983
G01 X11.9821 Y5.4951
G01 X12.1120 Y5.4413
G01 X12.2088 Y5.3883
G01 X12.4187 Y5.5982
G01 X12.3810 Y5.6850
G01 X12.1365 Y5.8071
G01 X11.8186 Y5.8939
G01 X11.4899 Y5.9171
G01 X11.1630 Y5.8757
G01 X10.8476 Y5.7703
G01 X10.6937 Y5.6881
G01 X10.6547 Y5.5982
G01 X10.8646 Y5.3883
G01 X10.9618 Y5.4415
G00 Z10.0000
G00 X10.8919 Y5.5774
G01 F76.20
G01 Z-0.1000
G01 F76.20
G01 X10.9032 Y5.5828
G01 X11.0328 Y5.6365
G01 X11.0579 Y5.6453
G01 X11.1926 Y5.6841
G01 X11.2187 Y5.6900
G01 X11.3569 Y5.7135
G01 X11.3834 Y5.7165
G01 X11.5367 Y5.7247
G01 X11.6900 Y5.7165
G01 X11.7165 Y5.7135
G01 X11.8600 Y5.6891
G01 X11.8807 Y5.6841
G01 X12.0154 Y5.6453
G01 X12.0406 Y5.6365
G01 X12.1714 Y5.5823
G01 X12.1815 Y5.5774
G01 X12.2056 Y5.6016
G01 X12.0817 Y5.6635
G01 X11.7928 Y5.7424
G01 X11.4942 Y5.7634
G01 X11.1972 Y5.7258
G01 X10.9083 Y5.6293
G01 X10.8638 Y5.6055
G01 X10.8919 Y5.5774
G01 X10.9032 Y5.5828
G00 Z10.0000
G00 X12.6883 Y4.9088
G01 F76.20
G01 Z-0.1000
G01 F76.20
G01 X12.7414 Y4.8116
G01 X12.7951 Y4.6821
G01 X12.7982 Y4.6731
G01 X12.8370 Y4.5384
G01 X12.8391 Y4.5291
G01 X12.8626 Y4.3909
G01 X12.8637 Y4.3814
G01 X12.8717 Y4.2367
G01 X12.8637 Y4.0920
G01 X12.8626 Y4.0825
G01 X12.8391 Y3.9443
G01 X12.8370 Y3.9350
G01 X12.7982 Y3.8003
G01 X12.7951 Y3.7913
G01 X12.7412 Y3.6614
G01 X12.6883 Y3.5646
G01 X12.8982 Y3.3547
G01 X12.9850 Y3.3924
G01 X13.1071 Y3.6369
G01 X13.1939 Y3.9548
G01 X13.2171 Y4.2835
G01 X13.1756 Y4.6104
G01 X13.0703 Y4.9258
G01 X12.9880 Y5.0797
G01 X12.8982 Y5.1187
G01 X12.6883 Y4.9088
G01 X12.7414 Y4.8116
G00 Z10.0000
G00 X12.8773 Y4.8815
G01 F76.20
G01 Z-0.1000
G01 F76.20
G01 X12.8828 Y4.8702
G01 X12.9364 Y4.7406
G01 X12.9452 Y4.7155
G01 X12.9840 Y4.5808
G01 X12.9900 Y4.5547
G01 X13.0135 Y4.4165
G01 X13.0164 Y4.3900
G01 X13.0247 Y4.2367
G01 X13.0164 Y4.0834
G01 X13.0135 Y4.0569
G01 X12.9890 Y3.9134
G01 X12.9840 Y3.8927
G01 X12.9452 Y3.7580
G01 X12.9364 Y3.7328
G01 X12.8822 Y3.6020
G01 X12.8774 Y3.5919
G01 X12.9015 Y3.5678
G01 X12.9634 Y3.6917
G01 X13.0423 Y3.9806
G01 X13.0634 Y4.2792
G01 X13.0258 Y4.5762
G01 X12.9293 Y4.8651
G01 X12.9055 Y4.9096
G01 X12.8773 Y4.8815
G01 X12.8828 Y4.8702
G00 Z10.0000
G00 X13.8674 Y4.3900
G01 F76.20
G01 Z-0.1000
G01 F76.20
G01 X13.8587 Y4.2367
G01 X13.8669 Y4.0834
G01 X13.8699 Y4.0569
G01 X13.8934 Y3.9187
G01 X13.8993 Y3.8927
G01 X13.9381 Y3.7580
G01 X13.9469 Y3.7328
G01 X14.0006 Y3.6033
G01 X14.0122 Y3.5792
G01 X14.0800 Y3.4566
G01 X14.0923 Y3.4367
G01 X14.1753 Y3.3196
G01 X14.1923 Y3.2991
G01 X14.1919 Y3.2988
G01 X14.2853 Y3.1942
G01 X14.3042 Y3.1754
G01 X14.4087 Y3.0820
G01 X14.4296 Y3.0653
G01 X14.5439 Y2.9842
G01 X14.5665 Y2.9700
G01 X14.6892 Y2.9022
G01 X14.7120 Y2.8912
G01 X14.8428 Y2.8370
G01 X14.8679 Y2.8282
G01 X15.0026 Y2.7894
G01 X15.0234 Y2.7844
G01 X15.1669 Y2.7599
G01 X15.1934 Y2.7570
G01 X15.3467 Y2.7487
G01 X15.5000 Y2.7570
G01 X15.5265 Y2.7599
G01 X15.6647 Y2.7834
G01 X15.6907 Y2.7894
G01 X15.8254 Y2.8282
G01 X15.8506 Y2.8370
G01 X15.9801 Y2.8906
G01 X16.0042 Y2.9022
G01 X16.1268 Y2.9700
G01 X16.1467 Y2.9823
G01 X16.2638 Y3.0653
G01 X16.2843 Y3.0824
G01 X16.2846 Y3.0820
G01 X16.3892 Y3.1754
G01 X16.4080 Y3.1942
G01 X16.5014 Y3.2988
G01 X16.5181 Y3.3196
G01 X16.5992 Y3.4340
G01 X16.6134 Y3.4566
G01 X16.6812 Y3.5792
G01 X16.6922 Y3.6020
G01 X16.7464 Y3.7328
G01 X16.7552 Y3.7580
G01 X16.7940 Y3.8927
G01 X16.7990 Y3.9134
G01 X16.8235 Y4.0569
G01 X16.8264 Y4.0834
G01 X16.8347 Y4.2367
G01 X16.8264 Y4.3900
G01 X16.8235 Y4.4165
G01 X16.8000 Y4.5547
G01 X16.7940 Y4.5808
G01 X16.7552 Y4.7155
G01 X16.7464 Y4.7406
G01 X16.6928 Y4.8702
G01 X16.6812 Y4.8942
G01 X16.6134 Y5.0169
G01 X16.6011 Y5.0368
G01 X16.5181 Y5.1538
G01 X16.5010 Y5.1743
G01 X16.5014 Y5.1747
G01 X16.4080 Y5.2792
G01 X16.3892 Y5.2981
G01 X16.2846 Y5.3915
G01 X16.2638 Y5.4081
G01 X16.1494 Y5.4892
G01 X16.1268 Y5.5034
G01 X16.0042 Y5.5712
G01 X15.9814 Y5.5823
G01 X15.8506 Y5.6365
G01 X15.8254 Y5.6453
G01 X15.6907 Y5.6841
G01 X15.6700 Y5.6891
G01 X15.5265 Y5.7135
G01 X15.5000 Y5.7165
G01 X15.3467 Y5.7247
G01 X15.1934 Y5.7165
G01 X15.1669 Y5.7135
G01 X15.0287 Y5.6900
G01 X15.0026 Y5.6841
G01 X14.8679 Y5.6453
G01 X14.8428 Y5.6365
G01 X14.7132 Y5.5828
G01 X14.6892 Y5.5712
G01 X14.5665 Y5.5034
G01 X14.5466 Y5.4911
G01 X14.4296 Y5.4081
G01 X14.4091 Y5.3911
G01 X14.4087 Y5.3915
G01 X14.3042 Y5.2981
G01 X14.2853 Y5.2792
G01 X14.1919 Y5.1747
G01 X14.1753 Y5.1538
G01 X14.0942 Y5.0395
G01 X14.0800 Y5.0169
G01 X14.0122 Y4.8942
G01 X14.0011 Y4.8714
G01 X13.9469 Y4.7406
G01 X13.9381 Y4.7155
G01 X13.8993 Y4.5808
G01 X13.8934 Y4.5547
G01 X13.8699 Y4.4165
G01 X13.8674 Y4.3900
G01 X13.8587 Y4.2367
G00 Z10.0000
G00 X14.0198 Y4.3814
G01 F76.20
G01 Z-0.1000
G01 F76.20
G01 X14.0117 Y4.2367
G01 X14.0197 Y4.0920
G01 X14.0207 Y4.0825
G01 X14.0442 Y3.9443
G01 X14.0463 Y3.9350
G01 X14.0851 Y3.8003
G01 X14.0883 Y3.7913
G01 X14.1419 Y3.6618
G01 X14.1461 Y3.6532
G01 X14.2139 Y3.5306
G01 X14.2190 Y3.5225
G01 X14.3001 Y3.4082
G01 X14.3060 Y3.4007
G01 X14.3994 Y3.2962
G01 X14.4062 Y3.2895
G01 X14.5107 Y3.1961
G01 X14.5181 Y3.1901
G01 X14.6325 Y3.1090
G01 X14.6405 Y3.1039
G01 X14.7632 Y3.0361
G01 X14.7713 Y3.0322
G01 X14.9013 Y2.9783
G01 X14.9103 Y2.9752
G01 X15.0524 Y2.9346
G01 X15.1925 Y2.9108
G01 X15.2020 Y2.9097
G01 X15.3467 Y2.9017
G01 X15.4914 Y2.9097
G01 X15.5009 Y2.9108
G01 X15.6391 Y2.9343
G01 X15.6484 Y2.9364
G01 X15.7831 Y2.9752
G01 X15.7921 Y2.9783
G01 X15.9216 Y3.0320
G01 X15.9302 Y3.0361
G01 X16.0528 Y3.1039
G01 X16.0609 Y3.1090
G01 X16.1752 Y3.1901
G01 X16.1827 Y3.1961
G01 X16.2872 Y3.2895
G01 X16.2939 Y3.2962
G01 X16.3873 Y3.4007
G01 X16.3933 Y3.4082
G01 X16.4744 Y3.5225
G01 X16.4795 Y3.5306
G01 X16.5473 Y3.6532
G01 X16.5512 Y3.6614
G01 X16.6051 Y3.7913
G01 X16.6082 Y3.8003
G01 X16.6488 Y3.9424
G01 X16.6726 Y4.0825
G01 X16.6737 Y4.0920
G01 X16.6817 Y4.2367
G01 X16.6737 Y4.3814
G01 X16.6726 Y4.3909
G01 X16.6491 Y4.5291
G01 X16.6470 Y4.5384
G01 X16.6082 Y4.6731
G01 X16.6051 Y4.6821
G01 X16.5514 Y4.8116
G01 X16.5473 Y4.8202
G01 X16.4795 Y4.9429
G01 X16.4744 Y4.9509
G01 X16.3933 Y5.0653
G01 X16.3873 Y5.0727
G01 X16.2939 Y5.1772
G01 X16.2872 Y5.1840
G01 X16.1827 Y5.2774
G01 X16.1752 Y5.2833
G01 X16.0609 Y5.3644
G01 X16.0528 Y5.3695
G01 X15.9302 Y5.4373
G01 X15.9220 Y5.4413
G01 X15.7921 Y5.4951
G01 X15.7831 Y5.4983
G01 X15.6410 Y5.5388
G01 X15.5009 Y5.5627
G01 X15.4914 Y5.5637
G01 X15.3467 Y5.5717
G01 X15.2020 Y5.5637
G01 X15.1925 Y5.5627
G01 X15.0543 Y5.5392
G01 X15.0450 Y5.5371
G01 X14.9103 Y5.4983
G01 X14.9013 Y5.4951
G01 X14.7718 Y5.4415
G01 X14.7632 Y5.4373
G01 X14.6405 Y5.3695
G01 X14.6325 Y5.3644
G01 X14.5181 Y5.2833
G01 X14.5107 Y5.2774
G01 X14.4062 Y5.1840
G01 X14.3994 Y5.1772
G01 X14.3060 Y5.0727
G01 X14.3001 Y5.0653
G01 X14.2190 Y4.9509
G01 X14.2139 Y4.9429
G01 X14.1461 Y4.8202
G01 X14.1421 Y4.8121
G01 X14.0883 Y4.6821
G01 X14.0851 Y4.6731
G01 X14.0463 Y4.5384
G01 X14.0442 Y4.5291
G01 X14.0207 Y4.3909
G01 X14.0198 Y4.3814
G01 X14.0117 Y4.2367
G00 Z10.0000
G00 X16.8666 Y4.3864
G01 F76.20
G01 Z-0.1000
G01 F76.20
G01 X16.8082 Y4.6801
G01 X16.6936 Y4.9567
G01 X16.5273 Y5.2056
G01 X16.3156 Y5.4173
G01 X16.0666 Y5.5837
G01 X15.7900 Y5.6982
G01 X15.4964 Y5.7567
G01 X15.1970 Y5.7567
G01 X14.9033 Y5.6982
G01 X14.6267 Y5.5837
G01 X14.3778 Y5.4173
G01 X14.1661 Y5.2056
G01 X13.9997 Y4.9567
G01 X13.8852 Y4.6801
G01 X13.8267 Y4.3864
G01 X13.8267 Y4.0870
G01 X13.8852 Y3.7934
G01 X13.9997 Y3.5168
G01 X14.1661 Y3.2678
G01 X14.3778 Y3.0561
G01 X14.6267 Y2.8898
G01 X14.9033 Y2.7752
G01 X15.1970 Y2.7168
G01 X15.4964 Y2.7168
G01 X15.7900 Y2.7752
G01 X16.0666 Y2.8898
G01 X16.3156 Y3.0561
G01 X16.5273 Y3.2678
G01 X16.6936 Y3.5168
G01 X16.8082 Y3.7934
G01 X16.8666 Y4.0870
G01 X16.8666 Y4.3864
G01 X16.8082 Y4.6801
G00 Z10.0000
G00 X17.0196 Y4.4015
G01 F76.20
G01 Z-0.1000
G01 F76.20
G01 X16.9553 Y4.7247
G01 X16.8292 Y5.0292
G01 X16.6461 Y5.3032
G01 X16.4131 Y5.5362
G01 X16.1391 Y5.7193
G01 X15.8347 Y5.8454
G01 X15.5114 Y5.9097
G01 X15.1819 Y5.9097
G01 X14.8587 Y5.8454
G01 X14.5542 Y5.7193
G01 X14.2802 Y5.5362
G01 X14.0472 Y5.3032
G01 X13.8641 Y5.0292
G01 X13.7380 Y4.7247
G01 X13.6737 Y4.4015
G01 X13.6737 Y4.0720
G01 X13.7380 Y3.7487
G01 X13.8641 Y3.4443
G01 X14.0472 Y3.1703
G01 X14.2802 Y2.9373
G01 X14.5542 Y2.7542
G01 X14.8587 Y2.6281
G01 X15.1819 Y2.5638
G01 X15.5114 Y2.5638
G01 X15.8347 Y2.6281
G01 X16.1391 Y2.7542
G01 X16.4131 Y2.9373
G01 X16.6461 Y3.1703
G01 X16.8292 Y3.4443
G01 X16.9553 Y3.7487
G01 X17.0196 Y4.0720
G01 X17.0196 Y4.4015
G01 X16.9553 Y4.7247
G00 Z10.0000
G00 X17.6774 Y4.3900
G01 F76.20
G01 Z-0.1000
G01 F76.20
G01 X17.6687 Y4.2367
G01 X17.6769 Y4.0834
G01 X17.6799 Y4.0569
G01 X17.7034 Y3.9187
G01 X17.7093 Y3.8927
G01 X17.7481 Y3.7580
G01 X17.7569 Y3.7328
G01 X17.8106 Y3.6033
G01 X17.8222 Y3.5792
G01 X17.8900 Y3.4566
G01 X17.9023 Y3.4367
G01 X17.9853 Y3.3196
G01 X18.0023 Y3.2991
G01 X18.0019 Y3.2988
G01 X18.0953 Y3.1942
G01 X18.1142 Y3.1754
G01 X18.2187 Y3.0820
G01 X18.2396 Y3.0653
G01 X18.3539 Y2.9842
G01 X18.3765 Y2.9700
G01 X18.4992 Y2.9022
G01 X18.5220 Y2.8912
G01 X18.6528 Y2.8370
G01 X18.6779 Y2.8282
G01 X18.8126 Y2.7894
G01 X18.8334 Y2.7844
G01 X18.9769 Y2.7599
G01 X19.0034 Y2.7570
G01 X19.1567 Y2.7487
G01 X19.3100 Y2.7570
G01 X19.3365 Y2.7599
G01 X19.4747 Y2.7834
G01 X19.5007 Y2.7894
G01 X19.6354 Y2.8282
G01 X19.6606 Y2.8370
G01 X19.7901 Y2.8906
G01 X19.8142 Y2.9022
G01 X19.9368 Y2.9700
G01 X19.9567 Y2.9823
G01 X20.0738 Y3.0653
G01 X20.0943 Y3.0824
G01 X20.0946 Y3.0820
G01 X20.1992 Y3.1754
G01 X20.2180 Y3.1942
G01 X20.3114 Y3.2988
G01 X20.3281 Y3.3196
G01 X20.4092 Y3.4340
G01 X20.4234 Y3.4566
G01 X20.4912 Y3.5792
G01 X20.5022 Y3.6020
G01 X20.5564 Y3.7328
G01 X20.5652 Y3.7580
G01 X20.6040 Y3.8927
G01 X20.6090 Y3.9134
G01 X20.6335 Y4.0569
G01 X20.6364 Y4.0834
G01 X20.6447 Y4.2367
G01 X20.6364 Y4.3900
G01 X20.6335 Y4.4165
G01 X20.6100 Y4.5547
G01 X20.6040 Y4.5808
G01 X20.5652 Y4.7155
G01 X20.5564 Y4.7406
G01 X20.5028 Y4.8702
G01 X20.4912 Y4.8942
G01 X20.4234 Y5.0169
G01 X20.4111 Y5.0368
G01 X20.3281 Y5.1538
G01 X20.3110 Y5.1743
G01 X20.3114 Y5.1747
G01 X20.2180 Y5.2792
G01 X20.1992 Y5.2981
G01 X20.0946 Y5.3915
G01 X20.0738 Y5.4081
G01 X19.9594 Y5.4892
G01 X19.9368 Y5.5034
G01 X19.8142 Y5.5712
G01 X19.7914 Y5.5823
G01 X19.6606 Y5.6365
G01 X19.6354 Y5.6453
G01 X19.5007 Y5.6841
G01 X19.4800 Y5.6891
G01 X19.3365 Y5.7135
G01 X19.3100 Y5.7165
G01 X19.1567 Y5.7247
G01 X19.0034 Y5.7165
G01 X18.9769 Y5.7135
G01 X18.8387 Y5.6900
G01 X18.8126 Y5.6841
G01 X18.6779 Y5.6453
G01 X18.6528 Y5.6365
G01 X18.5232 Y5.5828
G01 X18.4992 Y5.5712
G01 X18.3765 Y5.5034
G01 X18.3566 Y5.4911
G01 X18.2396 Y5.4081
G01 X18.2191 Y5.3911
G01 X18.2187 Y5.3915
G01 X18.1142 Y5.2981
G01 X18.0953 Y5.2792
G01 X18.0019 Y5.1747
G01 X17.9853 Y5.1538
G01 X17.9042 Y5.0395
G01 X17.8900 Y5.0169
G01 X17.8222 Y4.8942
G01 X17.8111 Y4.8714
G01 X17.7569 Y4.7406
G01 X17.7481 Y4.7155
G01 X17.7093 Y4.5808
G01 X17.7034 Y4.5547
G01 X17.6799 Y4.4165
G01 X17.6774 Y4.3900
G01 X17.6687 Y4.2367
G00 Z10.0000
G00 X17.8298 Y4.3814
G01 F76.20
G01 Z-0.1000
G01 F76.20
G01 X17.8217 Y4.2367
G01 X17.8297 Y4.0920
G01 X17.8307 Y4.0825
G01 X17.8542 Y3.9443
G01 X17.8563 Y3.9350
G01 X17.8951 Y3.8003
G01 X17.8983 Y3.7913
G01 X17.9519 Y3.6618
G01 X17.9561 Y3.6532
G01 X18.0239 Y3.5306
G01 X18.0290 Y3.5225
G01 X18.1101 Y3.4082
G01 X18.1160 Y3.4007
G01 X18.2094 Y3.2962
G01 X18.2162 Y3.2895
G01 X18.3207 Y3.1961
G01 X18.3281 Y3.1901
G01 X18.4425 Y3.1090
G01 X18.4505 Y3.1039
G01 X18.5732 Y3.0361
G01 X18.5813 Y3.0322
G01 X18.7113 Y2.9783
G01 X18.7203 Y2.9752
G01 X18.8624 Y2.9346
G01 X19.0025 Y2.9108
G01 X19.0120 Y2.9097
G01 X19.1567 Y2.9017
G01 X19.3014 Y2.9097
G01 X19.3109 Y2.9108
G01 X19.4491 Y2.9343
G01 X19.4584 Y2.9364
G01 X19.5931 Y2.9752
G01 X19.6021 Y2.9783
G01 X19.7316 Y3.0320
G01 X19.7402 Y3.0361
G01 X19.8628 Y3.1039
G01 X19.8709 Y3.1090
G01 X19.9852 Y3.1901
G01 X19.9927 Y3.1961
G01 X20.0972 Y3.2895
G01 X20.1039 Y3.2962
G01 X20.1973 Y3.4007
G01 X20.2033 Y3.4082
G01 X20.2844 Y3.5225
G01 X20.2895 Y3.5306
G01 X20.3573 Y3.6532
G01 X20.3612 Y3.6614
G01 X20.4151 Y3.7913
G01 X20.4182 Y3.8003
G01 X20.4588 Y3.9424
G01 X20.4826 Y4.0825
G01 X20.4837 Y4.0920
G01 X20.4917 Y4.2367
G01 X20.4837 Y4.3814
G01 X20.4826 Y4.3909
G01 X20.4591 Y4.5291
G01 X20.4570 Y4.5384
G01 X20.4182 Y4.6731
G01 X20.4151 Y4.6821
G01 X20.3614 Y4.8116
G01 X20.3573 Y4.8202
G01 X20.2895 Y4.9429
G01 X20.2844 Y4.9509
G01 X20.2033 Y5.0653
G01 X20.1973 Y5.0727
G01 X20.1039 Y5.1772
G01 X20.0972 Y5.1840
G01 X19.9927 Y5.2774
G01 X19.9852 Y5.2833
G01 X19.8709 Y5.3644
G01 X19.8628 Y5.3695
G01 X19.7402 Y5.4373
G01 X19.7320 Y5.4413
G01 X19.6021 Y5.4951
G01 X19.5931 Y5.4983
G01 X19.4510 Y5.5388
G01 X19.3109 Y5.5627
G01 X19.3014 Y5.5637
G01 X19.1567 Y5.5717
G01 X19.0120 Y5.5637
G01 X19.0025 Y5.5627
G01 X18.8643 Y5.5392
G01 X18.8550 Y5.5371
G01 X18.7203 Y5.4983
G01 X18.7113 Y5.4951
G01 X18.5818 Y5.4415
G01 X18.5732 Y5.4373
G01 X18.4505 Y5.3695
G01 X18.4425 Y5.3644
G01 X18.3281 Y5.2833
G01 X18.3207 Y5.2774
G01 X18.2162 Y5.1840
G01 X18.2094 Y5.1772
G01 X18.1160 Y5.0727
G01 X18.1101 Y5.0653
G01 X18.0290 Y4.9509
G01 X18.0239 Y4.9429
G01 X17.9561 Y4.8202
G01 X17.9521 Y4.8121
G01 X17.8983 Y4.6821
G01 X17.8951 Y4.6731
G01 X17.8563 Y4.5384
G01 X17.8542 Y4.5291
G01 X17.8307 Y4.3909
G01 X17.8298 Y4.3814
G01 X17.8217 Y4.2367
G00 Z10.0000
G00 X20.3269 Y3.2575
G01 F76.20
G01 Z-0.1000
G01 F76.20
G01 X20.3373 Y3.2678
G01 X20.5036 Y3.5168
G01 X20.6182 Y3.7934
G01 X20.6766 Y4.0870
G01 X20.6766 Y4.3864
G01 X20.6182 Y4.6801
G01 X20.5036 Y4.9567
G01 X20.3373 Y5.2056
G01 X20.1256 Y5.4173
G01 X19.8766 Y5.5837
G01 X19.6000 Y5.6982
G01 X19.3064 Y5.7567
G01 X19.0070 Y5.7567
G01 X18.7133 Y5.6982
G01 X18.4367 Y5.5837
G01 X18.1878 Y5.4173
G01 X17.9761 Y5.2056
G01 X17.8097 Y4.9567
G01 X17.6952 Y4.6801
G01 X17.6367 Y4.3864
G01 X17.6367 Y4.0870
G01 X17.6952 Y3.7934
G01 X17.8097 Y3.5168
G01 X17.9761 Y3.2678
G01 X18.1878 Y3.0561
G01 X18.4367 Y2.8898
G01 X18.7133 Y2.7752
G01 X19.0070 Y2.7168
G01 X19.3064 Y2.7168
G01 X19.6000 Y2.7752
G01 X19.8766 Y2.8898
G01 X20.1256 Y3.0561
G01 X20.3269 Y3.2575
G01 X20.3373 Y3.2678
G00 Z10.0000
G00 X20.4351 Y3.1493
G01 F76.20
G01 Z-0.1000
G01 F76.20
G01 X20.4561 Y3.1703
G01 X20.6392 Y3.4443
G01 X20.7653 Y3.7487
G01 X20.8296 Y4.0720
G01 X20.8296 Y4.4015
G01 X20.7653 Y4.7247
G01 X20.6392 Y5.0292
G01 X20.4561 Y5.3032
G01 X20.2231 Y5.5362
G01 X19.9491 Y5.7193
G01 X19.6447 Y5.8454
G01 X19.3214 Y5.9097
G01 X18.9919 Y5.9097
G01 X18.6687 Y5.8454
G01 X18.3642 Y5.7193
G01 X18.0902 Y5.5362
G01 X17.8572 Y5.3032
G01 X17.6741 Y5.0292
G01 X17.5480 Y4.7247
G01 X17.4837 Y4.4015
G01 X17.4837 Y4.0720
G01 X17.5480 Y3.7487
G01 X17.6741 Y3.4443
G01 X17.8572 Y3.1703
G01 X18.0902 Y2.9373
G01 X18.3642 Y2.7542
G01 X18.6687 Y2.6281
G01 X18.9919 Y2.5638
G01 X19.3214 Y2.5638
G01 X19.6447 Y2.6281
G01 X19.9491 Y2.7542
G01 X20.2231 Y2.9373
G01 X20.4351 Y3.1493
G01 X20.4561 Y3.1703
G00 Z10.0000
G00 X22.7828 Y4.4662
G01 F76.20
G01 Z-0.1000
G01 F76.20
G01 X22.7853 Y4.4927
G01 X22.8088 Y4.6309
G01 X22.8147 Y4.6570
G01 X22.8535 Y4.7917
G01 X22.8623 Y4.8168
G01 X22.9165 Y4.9476
G01 X22.9214 Y4.9577
G01 X22.8972 Y4.9819
G01 X22.8353 Y4.8579
G01 X22.7564 Y4.5691
G01 X22.7354 Y4.2704
G01 X22.7730 Y3.9734
G01 X22.8695 Y3.6846
G01 X22.8933 Y3.6400
G01 X22.9214 Y3.6682
G01 X22.9160 Y3.6795
G01 X22.8623 Y3.8090
G01 X22.8535 Y3.8342
G01 X22.8147 Y3.9689
G01 X22.8088 Y3.9949
G01 X22.7853 Y4.1331
G01 X22.7823 Y4.1596
G01 X22.7741 Y4.3129
G01 X22.7828 Y4.4662
G01 X22.7853 Y4.4927
G00 Z10.0000
G00 X22.9352 Y4.4576
G01 F76.20
G01 Z-0.1000
G01 F76.20
G01 X22.9361 Y4.4671
G01 X22.9600 Y4.6072
G01 X23.0005 Y4.7493
G01 X23.0037 Y4.7583
G01 X23.0575 Y4.8883
G01 X23.1105 Y4.9850
G01 X22.9006 Y5.1949
G01 X22.8138 Y5.1572
G01 X22.6917 Y4.9128
G01 X22.6049 Y4.5949
G01 X22.5817 Y4.2661
G01 X22.6231 Y3.9392
G01 X22.7285 Y3.6238
G01 X22.8107 Y3.4699
G01 X22.9006 Y3.4309
G01 X23.1105 Y3.6408
G01 X23.0573 Y3.7380
G01 X23.0037 Y3.8675
G01 X23.0005 Y3.8765
G01 X22.9617 Y4.0112
G01 X22.9596 Y4.0205
G01 X22.9361 Y4.1587
G01 X22.9351 Y4.1682
G01 X22.9272 Y4.3082
G01 X22.9272 Y4.3177
G01 X22.9352 Y4.4576
G01 X22.9361 Y4.4671
G00 Z10.0000
G00 X23.5900 Y5.4645
G01 F76.20
G01 Z-0.1000
G01 F76.20
G01 X23.6872 Y5.5177
G01 X23.8167 Y5.5713
G01 X23.8257 Y5.5745
G01 X23.9604 Y5.6133
G01 X23.9697 Y5.6154
G01 X24.1079 Y5.6389
G01 X24.1174 Y5.6399
G01 X24.2621 Y5.6479
G01 X24.4068 Y5.6399
G01 X24.4163 Y5.6389
G01 X24.5545 Y5.6154
G01 X24.5638 Y5.6133
G01 X24.6985 Y5.5745
G01 X24.7075 Y5.5713
G01 X24.8374 Y5.5175
G01 X24.9342 Y5.4645
G01 X25.1441 Y5.6744
G01 X25.1064 Y5.7612
G01 X24.8619 Y5.8833
G01 X24.5440 Y5.9701
G01 X24.2153 Y5.9933
G01 X23.8884 Y5.9519
G01 X23.5730 Y5.8465
G01 X23.4191 Y5.7643
G01 X23.3801 Y5.6744
G01 X23.5900 Y5.4645
G01 X23.6872 Y5.5177
G00 Z10.0000
G00 X23.6173 Y5.6536
G01 F76.20
G01 Z-0.1000
G01 F76.20
G01 X23.6286 Y5.6590
G01 X23.7582 Y5.7127
G01 X23.7833 Y5.7215
G01 X23.9180 Y5.7603
G01 X23.9441 Y5.7662
G01 X24.0823 Y5.7897
G01 X24.1088 Y5.7927
G01 X24.2621 Y5.8009
G01 X24.4154 Y5.7927
G01 X24.4419 Y5.7897
G01 X24.5854 Y5.7653
G01 X24.6061 Y5.7603
G01 X24.7408 Y5.7215
G01 X24.7660 Y5.7127
G01 X24.8968 Y5.6585
G01 X24.9069 Y5.6536
G01 X24.9310 Y5.6778
G01 X24.8071 Y5.7397
G01 X24.5182 Y5.8186
G01 X24.2196 Y5.8396
G01 X23.9226 Y5.8020
G01 X23.6337 Y5.7055
G01 X23.5892 Y5.6817
G01 X23.6173 Y5.6536
G01 X23.6286 Y5.6590
G00 Z10.0000
G00 X25.4137 Y4.9850
G01 F76.20
G01 Z-0.1000
G01 F76.20
G01 X25.4668 Y4.8878
G01 X25.5205 Y4.7583
G01 X25.5236 Y4.7493
G01 X25.5624 Y4.6146
G01 X25.5645 Y4.6053
G01 X25.5880 Y4.4671
G01 X25.5891 Y4.4576
G01 X25.5971 Y4.3129
G01 X25.5891 Y4.1682
G01 X25.5880 Y4.1587
G01 X25.5645 Y4.0205
G01 X25.5624 Y4.0112
G01 X25.5236 Y3.8765
G01 X25.5205 Y3.8675
G01 X25.4666 Y3.7376
G01 X25.4137 Y3.6408
G01 X25.6236 Y3.4309
G01 X25.7104 Y3.4686
G01 X25.8325 Y3.7131
G01 X25.9193 Y4.0310
G01 X25.9425 Y4.3597
G01 X25.9010 Y4.6866
G01 X25.7957 Y5.0020
G01 X25.7134 Y5.1559
G01 X25.6236 Y5.1949
G01 X25.4137 Y4.9850
G01 X25.4668 Y4.8878
G00 Z10.0000
G00 X25.6027 Y4.9577
G01 F76.20
G01 Z-0.1000
G01 F76.20
G01 X25.6082 Y4.9464
G01 X25.6618 Y4.8168
G01 X25.6706 Y4.7917
G01 X25.7094 Y4.6570
G01 X25.7154 Y4.6309
G01 X25.7389 Y4.4927
G01 X25.7418 Y4.4662
G01 X25.7501 Y4.3129
G01 X25.7418 Y4.1596
G01 X25.7389 Y4.1331
G01 X25.7144 Y3.9896
G01 X25.7094 Y3.9689
G01 X25.6706 Y3.8342
G01 X25.6618 Y3.8090
G01 X25.6076 Y3.6782
G01 X25.6028 Y3.6681
G01 X25.6269 Y3.6440
G01 X25.6888 Y3.7679
G01 X25.7677 Y4.0568
G01 X25.7888 Y4.3554
G01 X25.7512 Y4.6524
G01 X25.6547 Y4.9413
G01 X25.6309 Y4.9858
G01 X25.6027 Y4.9577
G01 X25.6082 Y4.9464
G00 Z10.0000
G00 X26.3991 Y4.4777
G01 F76.20
G01 Z-0.1000
G01 F76.20
G01 X26.3991 Y4.1482
G01 X26.4634 Y3.8249
G01 X26.5895 Y3.5205
G01 X26.7726 Y3.2465
G01 X27.0056 Y3.0135
G01 X27.2796 Y2.8304
G01 X27.5841 Y2.7043
G01 X27.9073 Y2.6400
G01 X28.2368 Y2.6400
G01 X28.5601 Y2.7043
G01 X28.8645 Y2.8304
G01 X29.1385 Y3.0135
G01 X29.3715 Y3.2465
G01 X29.5546 Y3.5205
G01 X29.6807 Y3.8249
G01 X29.7450 Y4.1482
G01 X29.7450 Y4.4777
G01 X29.6807 Y4.8009
G01 X29.5546 Y5.1054
G01 X29.3715 Y5.3794
G01 X29.1385 Y5.6124
G01 X28.8645 Y5.7955
G01 X28.5601 Y5.9216
G01 X28.2368 Y5.9859
G01 X27.9073 Y5.9859
G01 X27.5841 Y5.9216
G01 X27.2796 Y5.7955
G01 X27.0056 Y5.6124
G01 X26.7726 Y5.3794
G01 X26.5895 Y5.1054
G01 X26.4634 Y4.8009
G01 X26.3991 Y4.4777
G01 X26.3991 Y4.1482
G00 Z10.0000
G00 X26.5521 Y4.4626
G01 F76.20
G01 Z-0.1000
G01 F76.20
G01 X26.5521 Y4.1632
G01 X26.6106 Y3.8696
G01 X26.7251 Y3.5930
G01 X26.8915 Y3.3440
G01 X27.1032 Y3.1323
G01 X27.3521 Y2.9660
G01 X27.6287 Y2.8514
G01 X27.9224 Y2.7930
G01 X28.2218 Y2.7930
G01 X28.5154 Y2.8514
G01 X28.7920 Y2.9660
G01 X29.0410 Y3.1323
G01 X29.2527 Y3.3440
G01 X29.4190 Y3.5930
G01 X29.5336 Y3.8696
G01 X29.5920 Y4.1632
G01 X29.5920 Y4.4626
G01 X29.5336 Y4.7563
G01 X29.4190 Y5.0329
G01 X29.2527 Y5.2818
G01 X29.0410 Y5.4935
G01 X28.7920 Y5.6599
G01 X28.5154 Y5.7744
G01 X28.2218 Y5.8329
G01 X27.9224 Y5.8329
G01 X27.6287 Y5.7744
G01 X27.3521 Y5.6599
G01 X27.1032 Y5.4935
G01 X26.8915 Y5.2818
G01 X26.7251 Y5.0329
G01 X26.6106 Y4.7563
G01 X26.5521 Y4.4626
G01 X26.5521 Y4.1632
G00 Z10.0000
G00 X26.5928 Y4.4662
G01 F76.20
G01 Z-0.1000
G01 F76.20
G01 X26.5841 Y4.3129
G01 X26.5923 Y4.1596
G01 X26.5953 Y4.1331
G01 X26.6188 Y3.9949
G01 X26.6247 Y3.9689
G01 X26.6635 Y3.8342
G01 X26.6723 Y3.8090
G01 X26.7260 Y3.6795
G01 X26.7376 Y3.6554
G01 X26.8054 Y3.5328
G01 X26.8177 Y3.5129
G01 X26.9007 Y3.3958
G01 X26.9177 Y3.3753
G01 X26.9173 Y3.3750
G01 X27.0107 Y3.2704
G01 X27.0296 Y3.2516
G01 X27.1341 Y3.1582
G01 X27.1550 Y3.1415
G01 X27.2693 Y3.0604
G01 X27.2919 Y3.0462
G01 X27.4146 Y2.9784
G01 X27.4374 Y2.9674
G01 X27.5682 Y2.9132
G01 X27.5933 Y2.9044
G01 X27.7280 Y2.8656
G01 X27.7488 Y2.8606
G01 X27.8923 Y2.8361
G01 X27.9188 Y2.8332
G01 X28.0721 Y2.8249
G01 X28.2254 Y2.8332
G01 X28.2519 Y2.8361
G01 X28.3901 Y2.8596
G01 X28.4161 Y2.8656
G01 X28.5508 Y2.9044
G01 X28.5760 Y2.9132
G01 X28.7055 Y2.9668
G01 X28.7296 Y2.9784
G01 X28.8522 Y3.0462
G01 X28.8721 Y3.0585
G01 X28.9892 Y3.1415
G01 X29.0097 Y3.1586
G01 X29.0100 Y3.1582
G01 X29.1146 Y3.2516
G01 X29.1334 Y3.2704
G01 X29.2268 Y3.3750
G01 X29.2435 Y3.3958
G01 X29.3246 Y3.5102
G01 X29.3388 Y3.5328
G01 X29.4066 Y3.6554
G01 X29.4176 Y3.6782
G01 X29.4718 Y3.8090
G01 X29.4806 Y3.8342
G01 X29.5194 Y3.9689
G01 X29.5244 Y3.9896
G01 X29.5489 Y4.1331
G01 X29.5518 Y4.1596
G01 X29.5601 Y4.3129
G01 X29.5518 Y4.4662
G01 X29.5489 Y4.4927
G01 X29.5254 Y4.6309
G01 X29.5194 Y4.6570
G01 X29.4806 Y4.7917
G01 X29.4718 Y4.8168
G01 X29.4182 Y4.9464
G01 X29.4066 Y4.9704
G01 X29.3388 Y5.0931
G01 X29.3265 Y5.1130
G01 X29.2435 Y5.2300
G01 X29.2264 Y5.2505
G01 X29.2268 Y5.2509
G01 X29.1334 Y5.3554
G01 X29.1146 Y5.3743
G01 X29.0100 Y5.4677
G01 X28.9892 Y5.4843
G01 X28.8748 Y5.5654
G01 X28.8522 Y5.5796
G01 X28.7296 Y5.6474
G01 X28.7068 Y5.6585
G01 X28.5760 Y5.7127
G01 X28.5508 Y5.7215
G01 X28.4161 Y5.7603
G01 X28.3954 Y5.7653
G01 X28.2519 Y5.7897
G01 X28.2254 Y5.7927
G01 X28.0721 Y5.8009
G01 X27.9188 Y5.7927
G01 X27.8923 Y5.7897
G01 X27.7541 Y5.7662
G01 X27.7280 Y5.7603
G01 X27.5933 Y5.7215
G01 X27.5682 Y5.7127
G01 X27.4386 Y5.6590
G01 X27.4146 Y5.6474
G01 X27.2919 Y5.5796
G01 X27.2720 Y5.5673
G01 X27.1550 Y5.4843
G01 X27.1345 Y5.4673
G01 X27.1341 Y5.4677
G01 X27.0296 Y5.3743
G01 X27.0107 Y5.3554
G01 X26.9173 Y5.2509
G01 X26.9007 Y5.2300
G01 X26.8196 Y5.1157
G01 X26.8054 Y5.0931
G01 X26.7376 Y4.9704
G01 X26.7265 Y4.9476
G01 X26.6723 Y4.8168
G01 X26.6635 Y4.7917
G01 X26.6247 Y4.6570
G01 X26.6188 Y4.6309
G01 X26.5953 Y4.4927
G01 X26.5928 Y4.4662
G01 X26.5841 Y4.3129
G00 Z10.0000
G00 X26.7452 Y4.4576
G01 F76.20
G01 Z-0.1000
G01 F76.20
G01 X26.7371 Y4.3129
G01 X26.7451 Y4.1682
G01 X26.7461 Y4.1587
G01 X26.7696 Y4.0205
G01 X26.7717 Y4.0112
G01 X26.8105 Y3.8765
G01 X26.8137 Y3.8675
G01 X26.8673 Y3.7380
G01 X26.8715 Y3.7294
G01 X26.9393 Y3.6068
G01 X26.9444 Y3.5987
G01 X27.0255 Y3.4844
G01 X27.0314 Y3.4769
G01 X27.1248 Y3.3724
G01 X27.1316 Y3.3657
G01 X27.2361 Y3.2723
G01 X27.2435 Y3.2663
G01 X27.3579 Y3.1852
G01 X27.3659 Y3.1801
G01 X27.4886 Y3.1123
G01 X27.4967 Y3.1084
G01 X27.6267 Y3.0545
G01 X27.6357 Y3.0514
G01 X27.7778 Y3.0108
G01 X27.9179 Y2.9870
G01 X27.9274 Y2.9859
G01 X28.0721 Y2.9779
G01 X28.2168 Y2.9859
G01 X28.2263 Y2.9870
G01 X28.3645 Y3.0105
G01 X28.3738 Y3.0126
G01 X28.5085 Y3.0514
G01 X28.5175 Y3.0545
G01 X28.6470 Y3.1082
G01 X28.6556 Y3.1123
G01 X28.7782 Y3.1801
G01 X28.7863 Y3.1852
G01 X28.9006 Y3.2663
G01 X28.9081 Y3.2723
G01 X29.0126 Y3.3657
G01 X29.0193 Y3.3724
G01 X29.1127 Y3.4769
G01 X29.1187 Y3.4844
G01 X29.1998 Y3.5987
G01 X29.2049 Y3.6068
G01 X29.2727 Y3.7294
G01 X29.2766 Y3.7376
G01 X29.3305 Y3.8675
G01 X29.3336 Y3.8765
G01 X29.3742 Y4.0186
G01 X29.3980 Y4.1587
G01 X29.3991 Y4.1682
G01 X29.4071 Y4.3129
G01 X29.3991 Y4.4576
G01 X29.3980 Y4.4671
G01 X29.3745 Y4.6053
G01 X29.3724 Y4.6146
G01 X29.3336 Y4.7493
G01 X29.3305 Y4.7583
G01 X29.2768 Y4.8878
G01 X29.2727 Y4.8964
G01 X29.2049 Y5.0191
G01 X29.1998 Y5.0271
G01 X29.1187 Y5.1415
G01 X29.1127 Y5.1489
G01 X29.0193 Y5.2534
G01 X29.0126 Y5.2602
G01 X28.9081 Y5.3536
G01 X28.9006 Y5.3595
G01 X28.7863 Y5.4406
G01 X28.7782 Y5.4457
G01 X28.6556 Y5.5135
G01 X28.6474 Y5.5175
G01 X28.5175 Y5.5713
G01 X28.5085 Y5.5745
G01 X28.3664 Y5.6150
G01 X28.2263 Y5.6389
G01 X28.2168 Y5.6399
G01 X28.0721 Y5.6479
G01 X27.9274 Y5.6399
G01 X27.9179 Y5.6389
G01 X27.7797 Y5.6154
G01 X27.7704 Y5.6133
G01 X27.6357 Y5.5745
G01 X27.6267 Y5.5713
G01 X27.4972 Y5.5177
G01 X27.4886 Y5.5135
G01 X27.3659 Y5.4457
G01 X27.3579 Y5.4406
G01 X27.2435 Y5.3595
G01 X27.2361 Y5.3536
G01 X27.1316 Y5.2602
G01 X27.1248 Y5.2534
G01 X27.0314 Y5.1489
G01 X27.0255 Y5.1415
G01 X26.9444 Y5.0271
G01 X26.9393 Y5.0191
G01 X26.8715 Y4.8964
G01 X26.8675 Y4.8883
G01 X26.8137 Y4.7583
G01 X26.8105 Y4.7493
G01 X26.7717 Y4.6146
G01 X26.7696 Y4.6053
G01 X26.7461 Y4.4671
G01 X26.7452 Y4.4576
G01 X26.7371 Y4.3129
G00 Z10.0000
G00 X23.5900 Y3.1613
G01 F76.20
G01 Z-0.1000
G01 F76.20
G01 X23.3801 Y2.9514
G01 X23.4178 Y2.8646
G01 X23.6622 Y2.7425
G01 X23.9801 Y2.6557
G01 X24.3089 Y2.6325
G01 X24.6358 Y2.6740
G01 X24.9512 Y2.7793
G01 X25.1051 Y2.8616
G01 X25.1441 Y2.9514
G01 X24.9342 Y3.1613
G01 X24.8370 Y3.1082
G01 X24.7075 Y3.0545
G01 X24.6985 Y3.0514
G01 X24.5638 Y3.0126
G01 X24.5545 Y3.0105
G01 X24.4163 Y2.9870
G01 X24.4068 Y2.9859
G01 X24.2621 Y2.9779
G01 X24.1174 Y2.9859
G01 X24.1079 Y2.9870
G01 X23.9697 Y3.0105
G01 X23.9604 Y3.0126
G01 X23.8257 Y3.0514
G01 X23.8167 Y3.0545
G01 X23.6867 Y3.1084
G01 X23.5900 Y3.1613
G01 X23.3801 Y2.9514
G00 Z10.0000
G00 X23.6173 Y2.9722
G01 F76.20
G01 Z-0.1000
G01 F76.20
G01 X23.5931 Y2.9481
G01 X23.7171 Y2.8862
G01 X24.0059 Y2.8073
G01 X24.3046 Y2.7862
G01 X24.6016 Y2.8238
G01 X24.8904 Y2.9203
G01 X24.9350 Y2.9441
G01 X24.9068 Y2.9723
G01 X24.8955 Y2.9668
G01 X24.7660 Y2.9132
G01 X24.7408 Y2.9044
G01 X24.6061 Y2.8656
G01 X24.5801 Y2.8596
G01 X24.4419 Y2.8361
G01 X24.4154 Y2.8332
G01 X24.2621 Y2.8249
G01 X24.1088 Y2.8332
G01 X24.0823 Y2.8361
G01 X23.9388 Y2.8606
G01 X23.9180 Y2.8656
G01 X23.7833 Y2.9044
G01 X23.7582 Y2.9132
G01 X23.6274 Y2.9674
G01 X23.6173 Y2.9722
G01 X23.5931 Y2.9481
G00 Z10.0000
G00 X30.4028 Y4.4662
G01 F76.20
G01 Z-0.1000
G01 F76.20
G01 X30.3941 Y4.3129
G01 X30.4023 Y4.1596
G01 X30.4053 Y4.1331
G01 X30.4288 Y3.9949
G01 X30.4347 Y3.9689
G01 X30.4735 Y3.8342
G01 X30.4823 Y3.8090
G01 X30.5360 Y3.6795
G01 X30.5476 Y3.6554
G01 X30.6154 Y3.5328
G01 X30.6277 Y3.5129
G01 X30.7107 Y3.3958
G01 X30.7277 Y3.3753
G01 X30.7273 Y3.3750
G01 X30.8207 Y3.2704
G01 X30.8396 Y3.2516
G01 X30.9441 Y3.1582
G01 X30.9650 Y3.1415
G01 X31.0793 Y3.0604
G01 X31.1019 Y3.0462
G01 X31.2246 Y2.9784
G01 X31.2474 Y2.9674
G01 X31.3782 Y2.9132
G01 X31.4033 Y2.9044
G01 X31.5380 Y2.8656
G01 X31.5588 Y2.8606
G01 X31.7023 Y2.8361
G01 X31.7288 Y2.8332
G01 X31.8821 Y2.8249
G01 X32.0354 Y2.8332
G01 X32.0619 Y2.8361
G01 X32.2001 Y2.8596
G01 X32.2261 Y2.8656
G01 X32.3608 Y2.9044
G01 X32.3860 Y2.9132
G01 X32.5155 Y2.9668
G01 X32.5396 Y2.9784
G01 X32.6622 Y3.0462
G01 X32.6821 Y3.0585
G01 X32.7992 Y3.1415
G01 X32.8197 Y3.1586
G01 X32.8200 Y3.1582
G01 X32.9246 Y3.2516
G01 X32.9434 Y3.2704
G01 X33.0368 Y3.3750
G01 X33.0535 Y3.3958
G01 X33.1346 Y3.5102
G01 X33.1488 Y3.5328
G01 X33.2166 Y3.6554
G01 X33.2276 Y3.6782
G01 X33.2818 Y3.8090
G01 X33.2906 Y3.8342
G01 X33.3294 Y3.9689
G01 X33.3344 Y3.9896
G01 X33.3589 Y4.1331
G01 X33.3618 Y4.1596
G01 X33.3701 Y4.3129
G01 X33.3618 Y4.4662
G01 X33.3589 Y4.4927
G01 X33.3354 Y4.6309
G01 X33.3294 Y4.6570
G01 X33.2906 Y4.7917
G01 X33.2818 Y4.8168
G01 X33.2282 Y4.9464
G01 X33.2166 Y4.9704
G01 X33.1488 Y5.0931
G01 X33.1365 Y5.1130
G01 X33.0535 Y5.2300
G01 X33.0364 Y5.2505
G01 X33.0368 Y5.2509
G01 X32.9434 Y5.3554
G01 X32.9246 Y5.3743
G01 X32.8200 Y5.4677
G01 X32.7992 Y5.4843
G01 X32.6848 Y5.5654
G01 X32.6622 Y5.5796
G01 X32.5396 Y5.6474
G01 X32.5168 Y5.6585
G01 X32.3860 Y5.7127
G01 X32.3608 Y5.7215
G01 X32.2261 Y5.7603
G01 X32.2054 Y5.7653
G01 X32.0619 Y5.7897
G01 X32.0354 Y5.7927
G01 X31.8821 Y5.8009
G01 X31.7288 Y5.7927
G01 X31.7023 Y5.7897
G01 X31.5641 Y5.7662
G01 X31.5380 Y5.7603
G01 X31.4033 Y5.7215
G01 X31.3782 Y5.7127
G01 X31.2486 Y5.6590
G01 X31.2246 Y5.6474
G01 X31.1019 Y5.5796
G01 X31.0820 Y5.5673
G01 X30.9650 Y5.4843
G01 X30.9445 Y5.4673
G01 X30.9441 Y5.4677
G01 X30.8396 Y5.3743
G01 X30.8207 Y5.3554
G01 X30.7273 Y5.2509
G01 X30.7107 Y5.2300
G01 X30.6296 Y5.1157
G01 X30.6154 Y5.0931
G01 X30.5476 Y4.9704
G01 X30.5365 Y4.9476
G01 X30.4823 Y4.8168
G01 X30.4735 Y4.7917
G01 X30.4347 Y4.6570
G01 X30.4288 Y4.6309
G01 X30.4053 Y4.4927
G01 X30.4028 Y4.4662
G01 X30.3941 Y4.3129
G00 Z10.0000
G00 X30.5552 Y4.4576
G01 F76.20
G01 Z-0.1000
G01 F76.20
G01 X30.5471 Y4.3129
G01 X30.5551 Y4.1682
G01 X30.5561 Y4.1587
G01 X30.5796 Y4.0205
G01 X30.5817 Y4.0112
G01 X30.6205 Y3.8765
G01 X30.6237 Y3.8675
G01 X30.6773 Y3.7380
G01 X30.6815 Y3.7294
G01 X30.7493 Y3.6068
G01 X30.7544 Y3.5987
G01 X30.8355 Y3.4844
G01 X30.8414 Y3.4769
G01 X30.9348 Y3.3724
G01 X30.9416 Y3.3657
G01 X31.0461 Y3.2723
G01 X31.0535 Y3.2663
G01 X31.1679 Y3.1852
G01 X31.1759 Y3.1801
G01 X31.2986 Y3.1123
G01 X31.3067 Y3.1084
G01 X31.4367 Y3.0545
G01 X31.4457 Y3.0514
G01 X31.5878 Y3.0108
G01 X31.7279 Y2.9870
G01 X31.7374 Y2.9859
G01 X31.8821 Y2.9779
G01 X32.0268 Y2.9859
G01 X32.0363 Y2.9870
G01 X32.1745 Y3.0105
G01 X32.1838 Y3.0126
G01 X32.3185 Y3.0514
G01 X32.3275 Y3.0545
G01 X32.4570 Y3.1082
G01 X32.4656 Y3.1123
G01 X32.5882 Y3.1801
G01 X32.5963 Y3.1852
G01 X32.7106 Y3.2663
G01 X32.7181 Y3.2723
G01 X32.8226 Y3.3657
G01 X32.8293 Y3.3724
G01 X32.9227 Y3.4769
G01 X32.9287 Y3.4844
G01 X33.0098 Y3.5987
G01 X33.0149 Y3.6068
G01 X33.0827 Y3.7294
G01 X33.0866 Y3.7376
G01 X33.1405 Y3.8675
G01 X33.1436 Y3.8765
G01 X33.1842 Y4.0186
G01 X33.2080 Y4.1587
G01 X33.2091 Y4.1682
G01 X33.2171 Y4.3129
G01 X33.2091 Y4.4576
G01 X33.2080 Y4.4671
G01 X33.1845 Y4.6053
G01 X33.1824 Y4.6146
G01 X33.1436 Y4.7493
G01 X33.1405 Y4.7583
G01 X33.0868 Y4.8878
G01 X33.0827 Y4.8964
G01 X33.0149 Y5.0191
G01 X33.0098 Y5.0271
G01 X32.9287 Y5.1415
G01 X32.9227 Y5.1489
G01 X32.8293 Y5.2534
G01 X32.8226 Y5.2602
G01 X32.7181 Y5.3536
G01 X32.7106 Y5.3595
G01 X32.5963 Y5.4406
G01 X32.5882 Y5.4457
G01 X32.4656 Y5.5135
G01 X32.4574 Y5.5175
G01 X32.3275 Y5.5713
G01 X32.3185 Y5.5745
G01 X32.1764 Y5.6150
G01 X32.0363 Y5.6389
G01 X32.0268 Y5.6399
G01 X31.8821 Y5.6479
G01 X31.7374 Y5.6399
G01 X31.7279 Y5.6389
G01 X31.5897 Y5.6154
G01 X31.5804 Y5.6133
G01 X31.4457 Y5.5745
G01 X31.4367 Y5.5713
G01 X31.3072 Y5.5177
G01 X31.2986 Y5.5135
G01 X31.1759 Y5.4457
G01 X31.1679 Y5.4406
G01 X31.0535 Y5.3595
G01 X31.0461 Y5.3536
G01 X30.9416 Y5.2602
G01 X30.9348 Y5.2534
G01 X30.8414 Y5.1489
G01 X30.8355 Y5.1415
G01 X30.7544 Y5.0271
G01 X30.7493 Y5.0191
G01 X30.6815 Y4.8964
G01 X30.6775 Y4.8883
G01 X30.6237 Y4.7583
G01 X30.6205 Y4.7493
G01 X30.5817 Y4.6146
G01 X30.5796 Y4.6053
G01 X30.5561 Y4.4671
G01 X30.5552 Y4.4576
G01 X30.5471 Y4.3129
G00 Z10.0000
G00 X32.9634 Y3.2448
G01 F76.20
G01 Z-0.1000
G01 F76.20
G01 X33.0627 Y3.3440
G01 X33.2290 Y3.5930
G01 X33.3436 Y3.8696
G01 X33.4020 Y4.1632
G01 X33.4020 Y4.4626
G01 X33.3436 Y4.7563
G01 X33.2290 Y5.0329
G01 X33.0627 Y5.2818
G01 X32.8510 Y5.4935
G01 X32.6020 Y5.6599
G01 X32.3254 Y5.7744
G01 X32.0318 Y5.8329
G01 X31.7324 Y5.8329
G01 X31.4387 Y5.7744
G01 X31.1621 Y5.6599
G01 X30.9132 Y5.4935
G01 X30.7015 Y5.2818
G01 X30.5351 Y5.0329
G01 X30.4206 Y4.7563
G01 X30.3621 Y4.4626
G01 X30.3621 Y4.1632
G01 X30.4206 Y3.8696
G01 X30.5351 Y3.5930
G01 X30.7015 Y3.3440
G01 X30.9132 Y3.1323
G01 X31.1621 Y2.9660
G01 X31.4387 Y2.8514
G01 X31.7324 Y2.7930
G01 X32.0318 Y2.7930
G01 X32.3254 Y2.8514
G01 X32.6020 Y2.9660
G01 X32.8510 Y3.1323
G01 X32.9634 Y3.2448
G01 X33.0627 Y3.3440
G00 Z10.0000
G00 X33.0716 Y3.1366
G01 F76.20
G01 Z-0.1000
G01 F76.20
G01 X33.1815 Y3.2465
G01 X33.3646 Y3.5205
G01 X33.4907 Y3.8249
G01 X33.5550 Y4.1482
G01 X33.5550 Y4.4777
G01 X33.4907 Y4.8009
G01 X33.3646 Y5.1054
G01 X33.1815 Y5.3794
G01 X32.9485 Y5.6124
G01 X32.6745 Y5.7955
G01 X32.3701 Y5.9216
G01 X32.0468 Y5.9859
G01 X31.7173 Y5.9859
G01 X31.3941 Y5.9216
G01 X31.0896 Y5.7955
G01 X30.8156 Y5.6124
G01 X30.5826 Y5.3794
G01 X30.3995 Y5.1054
G01 X30.2734 Y4.8009
G01 X30.2091 Y4.4777
G01 X30.2091 Y4.1482
G01 X30.2734 Y3.8249
G01 X30.3995 Y3.5205
G01 X30.5826 Y3.2465
G01 X30.8156 Y3.0135
G01 X31.0896 Y2.8304
G01 X31.3941 Y2.7043
G01 X31.7173 Y2.6400
G01 X32.0468 Y2.6400
G01 X32.3701 Y2.7043
G01 X32.6745 Y2.8304
G01 X32.9485 Y3.0135
G01 X33.0716 Y3.1366
G01 X33.1815 Y3.2465
G00 Z10.0000
G00 X35.3177 Y4.4535
G01 F76.20
G01 Z-0.1000
G01 F76.20
G01 X35.3202 Y4.4800
G01 X35.3437 Y4.6182
G01 X35.3496 Y4.6443
G01 X35.3884 Y4.7790
G01 X35.3972 Y4.8041
G01 X35.4514 Y4.9349
G01 X35.4563 Y4.9450
G01 X35.4321 Y4.9692
G01 X35.3702 Y4.8452
G01 X35.2913 Y4.5564
G01 X35.2703 Y4.2577
G01 X35.3079 Y3.9607
G01 X35.4044 Y3.6719
G01 X35.4282 Y3.6273
G01 X35.4563 Y3.6555
G01 X35.4509 Y3.6668
G01 X35.3972 Y3.7963
G01 X35.3884 Y3.8215
G01 X35.3496 Y3.9562
G01 X35.3437 Y3.9822
G01 X35.3202 Y4.1204
G01 X35.3172 Y4.1469
G01 X35.3090 Y4.3002
G01 X35.3177 Y4.4535
G01 X35.3202 Y4.4800
G00 Z10.0000
G00 X35.4701 Y4.4449
G01 F76.20
G01 Z-0.1000
G01 F76.20
G01 X35.4710 Y4.4544
G01 X35.4949 Y4.5945
G01 X35.5354 Y4.7366
G01 X35.5386 Y4.7456
G01 X35.5924 Y4.8756
G01 X35.6454 Y4.9723
G01 X35.4355 Y5.1822
G01 X35.3487 Y5.1445
G01 X35.2266 Y4.9001
G01 X35.1398 Y4.5822
G01 X35.1166 Y4.2534
G01 X35.1580 Y3.9265
G01 X35.2634 Y3.6111
G01 X35.3456 Y3.4572
G01 X35.4355 Y3.4182
G01 X35.6454 Y3.6281
G01 X35.5922 Y3.7253
G01 X35.5386 Y3.8548
G01 X35.5354 Y3.8638
G01 X35.4966 Y3.9985
G01 X35.4945 Y4.0078
G01 X35.4710 Y4.1460
G01 X35.4700 Y4.1555
G01 X35.4621 Y4.2955
G01 X35.4621 Y4.3050
G01 X35.4701 Y4.4449
G01 X35.4710 Y4.4544
G00 Z10.0000
G00 X36.1249 Y5.4518
G01 F76.20
G01 Z-0.1000
G01 F76.20
G01 X36.2221 Y5.5050
G01 X36.3516 Y5.5586
G01 X36.3606 Y5.5618
G01 X36.4953 Y5.6006
G01 X36.5046 Y5.6027
G01 X36.6428 Y5.6262
G01 X36.6523 Y5.6272
G01 X36.7970 Y5.6352
G01 X36.9417 Y5.6272
G01 X36.9512 Y5.6262
G01 X37.0894 Y5.6027
G01 X37.0987 Y5.6006
G01 X37.2334 Y5.5618
G01 X37.2424 Y5.5586
G01 X37.3723 Y5.5048
G01 X37.4691 Y5.4518
G01 X37.6790 Y5.6617
G01 X37.6413 Y5.7485
G01 X37.3968 Y5.8706
G01 X37.0789 Y5.9574
G01 X36.7502 Y5.9806
G01 X36.4233 Y5.9392
G01 X36.1079 Y5.8338
G01 X35.9540 Y5.7516
G01 X35.9150 Y5.6617
G01 X36.1249 Y5.4518
G01 X36.2221 Y5.5050
G00 Z10.0000
G00 X36.1522 Y5.6409
G01 F76.20
G01 Z-0.1000
G01 F76.20
G01 X36.1635 Y5.6463
G01 X36.2931 Y5.7000
G01 X36.3182 Y5.7088
G01 X36.4529 Y5.7476
G01 X36.4790 Y5.7535
G01 X36.6172 Y5.7770
G01 X36.6437 Y5.7800
G01 X36.7970 Y5.7882
G01 X36.9503 Y5.7800
G01 X36.9768 Y5.7770
G01 X37.1203 Y5.7526
G01 X37.1410 Y5.7476
G01 X37.2757 Y5.7088
G01 X37.3009 Y5.7000
G01 X37.4317 Y5.6458
G01 X37.4418 Y5.6409
G01 X37.4659 Y5.6651
G01 X37.3420 Y5.7270
G01 X37.0531 Y5.8059
G01 X36.7545 Y5.8269
G01 X36.4575 Y5.7893
G01 X36.1686 Y5.6928
G01 X36.1241 Y5.6690
G01 X36.1522 Y5.6409
G01 X36.1635 Y5.6463
G00 Z10.0000
G00 X37.9486 Y4.9723
G01 F76.20
G01 Z-0.1000
G01 F76.20
G01 X38.0017 Y4.8751
G01 X38.0554 Y4.7456
G01 X38.0585 Y4.7366
G01 X38.0973 Y4.6019
G01 X38.0994 Y4.5926
G01 X38.1229 Y4.4544
G01 X38.1240 Y4.4449
G01 X38.1320 Y4.3002
G01 X38.1240 Y4.1555
G01 X38.1229 Y4.1460
G01 X38.0994 Y4.0078
G01 X38.0973 Y3.9985
G01 X38.0585 Y3.8638
G01 X38.0554 Y3.8548
G01 X38.0015 Y3.7249
G01 X37.9486 Y3.6281
G01 X38.1585 Y3.4182
G01 X38.2453 Y3.4559
G01 X38.3674 Y3.7004
G01 X38.4542 Y4.0183
G01 X38.4774 Y4.3470
G01 X38.4359 Y4.6739
G01 X38.3306 Y4.9893
G01 X38.2483 Y5.1432
G01 X38.1585 Y5.1822
G01 X37.9486 Y4.9723
G01 X38.0017 Y4.8751
G00 Z10.0000
G00 X38.1376 Y4.9450
G01 F76.20
G01 Z-0.1000
G01 F76.20
G01 X38.1431 Y4.9337
G01 X38.1967 Y4.8041
G01 X38.2055 Y4.7790
G01 X38.2443 Y4.6443
G01 X38.2503 Y4.6182
G01 X38.2738 Y4.4800
G01 X38.2767 Y4.4535
G01 X38.2850 Y4.3002
G01 X38.2767 Y4.1469
G01 X38.2738 Y4.1204
G01 X38.2493 Y3.9769
G01 X38.2443 Y3.9562
G01 X38.2055 Y3.8215
G01 X38.1967 Y3.7963
G01 X38.1425 Y3.6655
G01 X38.1377 Y3.6554
G01 X38.1618 Y3.6313
G01 X38.2237 Y3.7552
G01 X38.3026 Y4.0441
G01 X38.3237 Y4.3427
G01 X38.2861 Y4.6397
G01 X38.1896 Y4.9286
G01 X38.1658 Y4.9731
G01 X38.1376 Y4.9450
G01 X38.1431 Y4.9337
G00 Z10.0000
G00 X38.9340 Y4.4650
G01 F76.20
G01 Z-0.1000
G01 F76.20
G01 X38.9340 Y4.1355
G01 X38.9983 Y3.8122
G01 X39.1244 Y3.5078
G01 X39.3075 Y3.2338
G01 X39.5405 Y3.0008
G01 X39.8145 Y2.8177
G01 X40.1190 Y2.6916
G01 X40.4422 Y2.6273
G01 X40.7717 Y2.6273
G01 X41.0950 Y2.6916
G01 X41.3994 Y2.8177
G01 X41.6734 Y3.0008
G01 X41.9064 Y3.2338
G01 X42.0895 Y3.5078
G01 X42.2156 Y3.8122
G01 X42.2799 Y4.1355
G01 X42.2799 Y4.4650
G01 X42.2156 Y4.7882
G01 X42.0895 Y5.0927
G01 X41.9064 Y5.3667
G01 X41.6734 Y5.5997
G01 X41.3994 Y5.7828
G01 X41.0950 Y5.9089
G01 X40.7717 Y5.9732
G01 X40.4422 Y5.9732
G01 X40.1190 Y5.9089
G01 X39.8145 Y5.7828
G01 X39.5405 Y5.5997
G01 X39.3075 Y5.3667
G01 X39.1244 Y5.0927
G01 X38.9983 Y4.7882
G01 X38.9340 Y4.4650
G01 X38.9340 Y4.1355
G00 Z10.0000
G00 X39.0870 Y4.4499
G01 F76.20
G01 Z-0.1000
G01 F76.20
G01 X39.0870 Y4.1505
G01 X39.1455 Y3.8569
G01 X39.2600 Y3.5803
G01 X39.4264 Y3.3313
G01 X39.6381 Y3.1196
G01 X39.8870 Y2.9533
G01 X40.1636 Y2.8387
G01 X40.4573 Y2.7803
G01 X40.7567 Y2.7803
G01 X41.0503 Y2.8387
G01 X41.3269 Y2.9533
G01 X41.5759 Y3.1196
G01 X41.7876 Y3.3313
G01 X41.9539 Y3.5803
G01 X42.0685 Y3.8569
G01 X42.1269 Y4.1505
G01 X42.1269 Y4.4499
G01 X42.0685 Y4.7436
G01 X41.9539 Y5.0202
G01 X41.7876 Y5.2691
G01 X41.5759 Y5.4808
G01 X41.3269 Y5.6472
G01 X41.0503 Y5.7617
G01 X40.7567 Y5.8202
G01 X40.4573 Y5.8202
G01 X40.1636 Y5.7617
G01 X39.8870 Y5.6472
G01 X39.6381 Y5.4808
G01 X39.4264 Y5.2691
G01 X39.2600 Y5.0202
G01 X39.1455 Y4.7436
G01 X39.0870 Y4.4499
G01 X39.0870 Y4.1505
G00 Z10.0000
G00 X39.1277 Y4.4535
G01 F76.20
G01 Z-0.1000
G01 F76.20
G01 X39.1190 Y4.3002
G01 X39.1272 Y4.1469
G01 X39.1302 Y4.1204
G01 X39.1537 Y3.9822
G01 X39.1596 Y3.9562
G01 X39.1984 Y3.8215
G01 X39.2072 Y3.7963
G01 X39.2609 Y3.6668
G01 X39.2725 Y3.6427
G01 X39.3403 Y3.5201
G01 X39.3526 Y3.5002
G01 X39.4356 Y3.3831
G01 X39.4526 Y3.3626
G01 X39.4522 Y3.3623
G01 X39.5456 Y3.2577
G01 X39.5645 Y3.2389
G01 X39.6690 Y3.1455
G01 X39.6899 Y3.1288
G01 X39.8042 Y3.0477
G01 X39.8268 Y3.0335
G01 X39.9495 Y2.9657
G01 X39.9723 Y2.9547
G01 X40.1031 Y2.9005
G01 X40.1282 Y2.8917
G01 X40.2629 Y2.8529
G01 X40.2837 Y2.8479
G01 X40.4272 Y2.8234
G01 X40.4537 Y2.8205
G01 X40.6070 Y2.8122
G01 X40.7603 Y2.8205
G01 X40.7868 Y2.8234
G01 X40.9250 Y2.8469
G01 X40.9510 Y2.8529
G01 X41.0857 Y2.8917
G01 X41.1109 Y2.9005
G01 X41.2404 Y2.9541
G01 X41.2645 Y2.9657
G01 X41.3871 Y3.0335
G01 X41.4070 Y3.0458
G01 X41.5241 Y3.1288
G01 X41.5446 Y3.1459
G01 X41.5449 Y3.1455
G01 X41.6495 Y3.2389
G01 X41.6683 Y3.2577
G01 X41.7617 Y3.3623
G01 X41.7784 Y3.3831
G01 X41.8595 Y3.4975
G01 X41.8737 Y3.5201
G01 X41.9415 Y3.6427
G01 X41.9525 Y3.6655
G01 X42.0067 Y3.7963
G01 X42.0155 Y3.8215
G01 X42.0543 Y3.9562
G01 X42.0593 Y3.9769
G01 X42.0838 Y4.1204
G01 X42.0867 Y4.1469
G01 X42.0950 Y4.3002
G01 X42.0867 Y4.4535
G01 X42.0838 Y4.4800
G01 X42.0603 Y4.6182
G01 X42.0543 Y4.6443
G01 X42.0155 Y4.7790
G01 X42.0067 Y4.8041
G01 X41.9531 Y4.9337
G01 X41.9415 Y4.9577
G01 X41.8737 Y5.0804
G01 X41.8614 Y5.1003
G01 X41.7784 Y5.2173
G01 X41.7613 Y5.2378
G01 X41.7617 Y5.2382
G01 X41.6683 Y5.3427
G01 X41.6495 Y5.3616
G01 X41.5449 Y5.4550
G01 X41.5241 Y5.4716
G01 X41.4097 Y5.5527
G01 X41.3871 Y5.5669
G01 X41.2645 Y5.6347
G01 X41.2417 Y5.6458
G01 X41.1109 Y5.7000
G01 X41.0857 Y5.7088
G01 X40.9510 Y5.7476
G01 X40.9303 Y5.7526
G01 X40.7868 Y5.7770
G01 X40.7603 Y5.7800
G01 X40.6070 Y5.7882
G01 X40.4537 Y5.7800
G01 X40.4272 Y5.7770
G01 X40.2890 Y5.7535
G01 X40.2629 Y5.7476
G01 X40.1282 Y5.7088
G01 X40.1031 Y5.7000
G01 X39.9735 Y5.6463
G01 X39.9495 Y5.6347
G01 X39.8268 Y5.5669
G01 X39.8069 Y5.5546
G01 X39.6899 Y5.4716
G01 X39.6694 Y5.4546
G01 X39.6690 Y5.4550
G01 X39.5645 Y5.3616
G01 X39.5456 Y5.3427
G01 X39.4522 Y5.2382
G01 X39.4356 Y5.2173
G01 X39.3545 Y5.1030
G01 X39.3403 Y5.0804
G01 X39.2725 Y4.9577
G01 X39.2614 Y4.9349
G01 X39.2072 Y4.8041
G01 X39.1984 Y4.7790
G01 X39.1596 Y4.6443
G01 X39.1537 Y4.6182
G01 X39.1302 Y4.4800
G01 X39.1277 Y4.4535
G01 X39.1190 Y4.3002
G00 Z10.0000
G00 X39.2801 Y4.4449
G01 F76.20
G01 Z-0.1000
G01 F76.20
G01 X39.2720 Y4.3002
G01 X39.2800 Y4.1555
G01 X39.2810 Y4.1460
G01 X39.3045 Y4.0078
G01 X39.3066 Y3.9985
G01 X39.3454 Y3.8638
G01 X39.3486 Y3.8548
G01 X39.4022 Y3.7253
G01 X39.4064 Y3.7167
G01 X39.4742 Y3.5941
G01 X39.4793 Y3.5860
G01 X39.5604 Y3.4717
G01 X39.5663 Y3.4642
G01 X39.6597 Y3.3597
G01 X39.6665 Y3.3530
G01 X39.7710 Y3.2596
G01 X39.7784 Y3.2536
G01 X39.8928 Y3.1725
G01 X39.9008 Y3.1674
G01 X40.0235 Y3.0996
G01 X40.0316 Y3.0957
G01 X40.1616 Y3.0418
G01 X40.1706 Y3.0387
G01 X40.3127 Y2.9981
G01 X40.4528 Y2.9743
G01 X40.4623 Y2.9732
G01 X40.6070 Y2.9652
G01 X40.7517 Y2.9732
G01 X40.7612 Y2.9743
G01 X40.8994 Y2.9978
G01 X40.9087 Y2.9999
G01 X41.0434 Y3.0387
G01 X41.0524 Y3.0418
G01 X41.1819 Y3.0955
G01 X41.1905 Y3.0996
G01 X41.3131 Y3.1674
G01 X41.3212 Y3.1725
G01 X41.4355 Y3.2536
G01 X41.4430 Y3.2596
G01 X41.5475 Y3.3530
G01 X41.5542 Y3.3597
G01 X41.6476 Y3.4642
G01 X41.6536 Y3.4717
G01 X41.7347 Y3.5860
G01 X41.7398 Y3.5941
G01 X41.8076 Y3.7167
G01 X41.8115 Y3.7249
G01 X41.8654 Y3.8548
G01 X41.8685 Y3.8638
G01 X41.9091 Y4.0059
G01 X41.9329 Y4.1460
G01 X41.9340 Y4.1555
G01 X41.9420 Y4.3002
G01 X41.9340 Y4.4449
G01 X41.9329 Y4.4544
G01 X41.9094 Y4.5926
G01 X41.9073 Y4.6019
G01 X41.8685 Y4.7366
G01 X41.8654 Y4.7456
G01 X41.8117 Y4.8751
G01 X41.8076 Y4.8837
G01 X41.7398 Y5.0064
G01 X41.7347 Y5.0144
G01 X41.6536 Y5.1288
G01 X41.6476 Y5.1362
G01 X41.5542 Y5.2407
G01 X41.5475 Y5.2475
G01 X41.4430 Y5.3409
G01 X41.4355 Y5.3468
G01 X41.3212 Y5.4279
G01 X41.3131 Y5.4330
G01 X41.1905 Y5.5008
G01 X41.1823 Y5.5048
G01 X41.0524 Y5.5586
G01 X41.0434 Y5.5618
G01 X40.9013 Y5.6023
G01 X40.7612 Y5.6262
G01 X40.7517 Y5.6272
G01 X40.6070 Y5.6352
G01 X40.4623 Y5.6272
G01 X40.4528 Y5.6262
G01 X40.3146 Y5.6027
G01 X40.3053 Y5.6006
G01 X40.1706 Y5.5618
G01 X40.1616 Y5.5586
G01 X40.0321 Y5.5050
G01 X40.0235 Y5.5008
G01 X39.9008 Y5.4330
G01 X39.8928 Y5.4279
G01 X39.7784 Y5.3468
G01 X39.7710 Y5.3409
G01 X39.6665 Y5.2475
G01 X39.6597 Y5.2407
G01 X39.5663 Y5.1362
G01 X39.5604 Y5.1288
G01 X39.4793 Y5.0144
G01 X39.4742 Y5.0064
G01 X39.4064 Y4.8837
G01 X39.4024 Y4.8756
G01 X39.3486 Y4.7456
G01 X39.3454 Y4.7366
G01 X39.3066 Y4.6019
G01 X39.3045 Y4.5926
G01 X39.2810 Y4.4544
G01 X39.2801 Y4.4449
G01 X39.2720 Y4.3002
G00 Z10.0000
G00 X36.1249 Y3.1486
G01 F76.20
G01 Z-0.1000
G01 F76.20
G01 X35.9150 Y2.9387
G01 X35.9527 Y2.8519
G01 X36.1971 Y2.7298
G01 X36.5150 Y2.6430
G01 X36.8438 Y2.6198
G01 X37.1707 Y2.6613
G01 X37.4861 Y2.7666
G01 X37.6400 Y2.8489
G01 X37.6790 Y2.9387
G01 X37.4691 Y3.1486
G01 X37.3719 Y3.0955
G01 X37.2424 Y3.0418
G01 X37.2334 Y3.0387
G01 X37.0987 Y2.9999
G01 X37.0894 Y2.9978
G01 X36.9512 Y2.9743
G01 X36.9417 Y2.9732
G01 X36.7970 Y2.9652
G01 X36.6523 Y2.9732
G01 X36.6428 Y2.9743
G01 X36.5046 Y2.9978
G01 X36.4953 Y2.9999
G01 X36.3606 Y3.0387
G01 X36.3516 Y3.0418
G01 X36.2216 Y3.0957
G01 X36.1249 Y3.1486
G01 X35.9150 Y2.9387
G00 Z10.0000
G00 X36.1522 Y2.9595
G01 F76.20
G01 Z-0.1000
G01 F76.20
G01 X36.1280 Y2.9354
G01 X36.2520 Y2.8735
G01 X36.5408 Y2.7946
G01 X36.8395 Y2.7735
G01 X37.1365 Y2.8111
G01 X37.4253 Y2.9076
G01 X37.4699 Y2.9314
G01 X37.4417 Y2.9596
G01 X37.4304 Y2.9541
G01 X37.3009 Y2.9005
G01 X37.2757 Y2.8917
G01 X37.1410 Y2.8529
G01 X37.1150 Y2.8469
G01 X36.9768 Y2.8234
G01 X36.9503 Y2.8205
G01 X36.7970 Y2.8122
G01 X36.6437 Y2.8205
G01 X36.6172 Y2.8234
G01 X36.4737 Y2.8479
G01 X36.4529 Y2.8529
G01 X36.3182 Y2.8917
G01 X36.2931 Y2.9005
G01 X36.1623 Y2.9547
G01 X36.1522 Y2.9595
G01 X36.1280 Y2.9354
G00 Z10.0000
G00 X42.7440 Y4.4650
G01 F76.20
G01 Z-0.1000
G01 F76.20
G01 X42.7440 Y4.1355
G01 X42.8083 Y3.8122
G01 X42.9344 Y3.5078
G01 X43.1175 Y3.2338
G01 X43.3505 Y3.0008
G01 X43.6245 Y2.8177
G01 X43.9290 Y2.6916
G01 X44.2522 Y2.6273
G01 X44.5817 Y2.6273
G01 X44.9050 Y2.6916
G01 X45.2094 Y2.8177
G01 X45.4834 Y3.0008
G01 X45.7164 Y3.2338
G01 X45.8995 Y3.5078
G01 X46.0256 Y3.8122
G01 X46.0899 Y4.1355
G01 X46.0899 Y4.4650
G01 X46.0256 Y4.7882
G01 X45.8995 Y5.0927
G01 X45.7164 Y5.3667
G01 X45.4834 Y5.5997
G01 X45.2094 Y5.7828
G01 X44.9050 Y5.9089
G01 X44.5817 Y5.9732
G01 X44.2522 Y5.9732
G01 X43.9290 Y5.9089
G01 X43.6245 Y5.7828
G01 X43.3505 Y5.5997
G01 X43.1175 Y5.3667
G01 X42.9344 Y5.0927
G01 X42.8083 Y4.7882
G01 X42.7440 Y4.4650
G01 X42.7440 Y4.1355
G00 Z10.0000
G00 X42.8970 Y4.4499
G01 F76.20
G01 Z-0.1000
G01 F76.20
G01 X42.8970 Y4.1505
G01 X42.9555 Y3.8569
G01 X43.0700 Y3.5803
G01 X43.2364 Y3.3313
G01 X43.4481 Y3.1196
G01 X43.6970 Y2.9533
G01 X43.9736 Y2.8387
G01 X44.2673 Y2.7803
G01 X44.5667 Y2.7803
G01 X44.8603 Y2.8387
G01 X45.1369 Y2.9533
G01 X45.3859 Y3.1196
G01 X45.5976 Y3.3313
G01 X45.7639 Y3.5803
G01 X45.8785 Y3.8569
G01 X45.9369 Y4.1505
G01 X45.9369 Y4.4499
G01 X45.8785 Y4.7436
G01 X45.7639 Y5.0202
G01 X45.5976 Y5.2691
G01 X45.3859 Y5.4808
G01 X45.1369 Y5.6472
G01 X44.8603 Y5.7617
G01 X44.5667 Y5.8202
G01 X44.2673 Y5.8202
G01 X43.9736 Y5.7617
G01 X43.6970 Y5.6472
G01 X43.4481 Y5.4808
G01 X43.2364 Y5.2691
G01 X43.0700 Y5.0202
G01 X42.9555 Y4.7436
G01 X42.8970 Y4.4499
G01 X42.8970 Y4.1505
G00 Z10.0000
G00 X42.9377 Y4.4535
G01 F76.20
G01 Z-0.1000
G01 F76.20
G01 X42.9290 Y4.3002
G01 X42.9372 Y4.1469
G01 X42.9402 Y4.1204
G01 X42.9637 Y3.9822
G01 X42.9696 Y3.9562
G01 X43.0084 Y3.8215
G01 X43.0172 Y3.7963
G01 X43.0709 Y3.6668
G01 X43.0825 Y3.6427
G01 X43.1503 Y3.5201
G01 X43.1626 Y3.5002
G01 X43.2456 Y3.3831
G01 X43.2626 Y3.3626
G01 X43.2622 Y3.3623
G01 X43.3556 Y3.2577
G01 X43.3745 Y3.2389
G01 X43.4790 Y3.1455
G01 X43.4999 Y3.1288
G01 X43.6142 Y3.0477
G01 X43.6368 Y3.0335
G01 X43.7595 Y2.9657
G01 X43.7823 Y2.9547
G01 X43.9131 Y2.9005
G01 X43.9382 Y2.8917
G01 X44.0729 Y2.8529
G01 X44.0937 Y2.8479
G01 X44.2372 Y2.8234
G01 X44.2637 Y2.8205
G01 X44.4170 Y2.8122
G01 X44.5703 Y2.8205
G01 X44.5968 Y2.8234
G01 X44.7350 Y2.8469
G01 X44.7610 Y2.8529
G01 X44.8957 Y2.8917
G01 X44.9209 Y2.9005
G01 X45.0504 Y2.9541
G01 X45.0745 Y2.9657
G01 X45.1971 Y3.0335
G01 X45.2170 Y3.0458
G01 X45.3341 Y3.1288
G01 X45.3546 Y3.1459
G01 X45.3549 Y3.1455
G01 X45.4595 Y3.2389
G01 X45.4783 Y3.2577
G01 X45.5717 Y3.3623
G01 X45.5884 Y3.3831
G01 X45.6695 Y3.4975
G01 X45.6837 Y3.5201
G01 X45.7515 Y3.6427
G01 X45.7625 Y3.6655
G01 X45.8167 Y3.7963
G01 X45.8255 Y3.8215
G01 X45.8643 Y3.9562
G01 X45.8693 Y3.9769
G01 X45.8938 Y4.1204
G01 X45.8967 Y4.1469
G01 X45.9050 Y4.3002
G01 X45.8967 Y4.4535
G01 X45.8938 Y4.4800
G01 X45.8703 Y4.6182
G01 X45.8643 Y4.6443
G01 X45.8255 Y4.7790
G01 X45.8167 Y4.8041
G01 X45.7631 Y4.9337
G01 X45.7515 Y4.9577
G01 X45.6837 Y5.0804
G01 X45.6714 Y5.1003
G01 X45.5884 Y5.2173
G01 X45.5713 Y5.2378
G01 X45.5717 Y5.2382
G01 X45.4783 Y5.3427
G01 X45.4595 Y5.3616
G01 X45.3549 Y5.4550
G01 X45.3341 Y5.4716
G01 X45.2197 Y5.5527
G01 X45.1971 Y5.5669
G01 X45.0745 Y5.6347
G01 X45.0517 Y5.6458
G01 X44.9209 Y5.7000
G01 X44.8957 Y5.7088
G01 X44.7610 Y5.7476
G01 X44.7403 Y5.7526
G01 X44.5968 Y5.7770
G01 X44.5703 Y5.7800
G01 X44.4170 Y5.7882
G01 X44.2637 Y5.7800
G01 X44.2372 Y5.7770
G01 X44.0990 Y5.7535
G01 X44.0729 Y5.7476
G01 X43.9382 Y5.7088
G01 X43.9131 Y5.7000
G01 X43.7835 Y5.6463
G01 X43.7595 Y5.6347
G01 X43.6368 Y5.5669
G01 X43.6169 Y5.5546
G01 X43.4999 Y5.4716
G01 X43.4794 Y5.4546
G01 X43.4790 Y5.4550
G01 X43.3745 Y5.3616
G01 X43.3556 Y5.3427
G01 X43.2622 Y5.2382
G01 X43.2456 Y5.2173
G01 X43.1645 Y5.1030
G01 X43.1503 Y5.0804
G01 X43.0825 Y4.9577
G01 X43.0714 Y4.9349
G01 X43.0172 Y4.8041
G01 X43.0084 Y4.7790
G01 X42.9696 Y4.6443
G01 X42.9637 Y4.6182
G01 X42.9402 Y4.4800
G01 X42.9377 Y4.4535
G01 X42.9290 Y4.3002
G00 Z10.0000
G00 X43.0901 Y4.4449
G01 F76.20
G01 Z-0.1000
G01 F76.20
G01 X43.0820 Y4.3002
G01 X43.0900 Y4.1555
G01 X43.0910 Y4.1460
G01 X43.1145 Y4.0078
G01 X43.1166 Y3.9985
G01 X43.1554 Y3.8638
G01 X43.1586 Y3.8548
G01 X43.2122 Y3.7253
G01 X43.2164 Y3.7167
G01 X43.2842 Y3.5941
G01 X43.2893 Y3.5860
G01 X43.3704 Y3.4717
G01 X43.3763 Y3.4642
G01 X43.4697 Y3.3597
G01 X43.4765 Y3.3530
G01 X43.5810 Y3.2596
G01 X43.5884 Y3.2536
G01 X43.7028 Y3.1725
G01 X43.7108 Y3.1674
G01 X43.8335 Y3.0996
G01 X43.8416 Y3.0957
G01 X43.9716 Y3.0418
G01 X43.9806 Y3.0387
G01 X44.1227 Y2.9981
G01 X44.2628 Y2.9743
G01 X44.2723 Y2.9732
G01 X44.4170 Y2.9652
G01 X44.5617 Y2.9732
G01 X44.5712 Y2.9743
G01 X44.7094 Y2.9978
G01 X44.7187 Y2.9999
G01 X44.8534 Y3.0387
G01 X44.8624 Y3.0418
G01 X44.9919 Y3.0955
G01 X45.0005 Y3.0996
G01 X45.1231 Y3.1674
G01 X45.1312 Y3.1725
G01 X45.2455 Y3.2536
G01 X45.2530 Y3.2596
G01 X45.3575 Y3.3530
G01 X45.3642 Y3.3597
G01 X45.4576 Y3.4642
G01 X45.4636 Y3.4717
G01 X45.5447 Y3.5860
G01 X45.5498 Y3.5941
G01 X45.6176 Y3.7167
G01 X45.6215 Y3.7249
G01 X45.6754 Y3.8548
G01 X45.6785 Y3.8638
G01 X45.7191 Y4.0059
G01 X45.7429 Y4.1460
G01 X45.7440 Y4.1555
G01 X45.7520 Y4.3002
G01 X45.7440 Y4.4449
G01 X45.7429 Y4.4544
G01 X45.7194 Y4.5926
G01 X45.7173 Y4.6019
G01 X45.6785 Y4.7366
G01 X45.6754 Y4.7456
G01 X45.6217 Y4.8751
G01 X45.6176 Y4.8837
G01 X45.5498 Y5.0064
G01 X45.5447 Y5.0144
G01 X45.4636 Y5.1288
G01 X45.4576 Y5.1362
G01 X45.3642 Y5.2407
G01 X45.3575 Y5.2475
G01 X45.2530 Y5.3409
G01 X45.2455 Y5.3468
G01 X45.1312 Y5.4279
G01 X45.1231 Y5.4330
G01 X45.0005 Y5.5008
G01 X44.9923 Y5.5048
G01 X44.8624 Y5.5586
G01 X44.8534 Y5.5618
G01 X44.7113 Y5.6023
G01 X44.5712 Y5.6262
G01 X44.5617 Y5.6272
G01 X44.4170 Y5.6352
G01 X44.2723 Y5.6272
G01 X44.2628 Y5.6262
G01 X44.1246 Y5.6027
G01 X44.1153 Y5.6006
G01 X43.9806 Y5.5618
G01 X43.9716 Y5.5586
G01 X43.8421 Y5.5050
G01 X43.8335 Y5.5008
G01 X43.7108 Y5.4330
G01 X43.7028 Y5.4279
G01 X43.5884 Y5.3468
G01 X43.5810 Y5.3409
G01 X43.4765 Y5.2475
G01 X43.4697 Y5.2407
G01 X43.3763 Y5.1362
G01 X43.3704 Y5.1288
G01 X43.2893 Y5.0144
G01 X43.2842 Y5.0064
G01 X43.2164 Y4.8837
G01 X43.2124 Y4.8756
G01 X43.1586 Y4.7456
G01 X43.1554 Y4.7366
G01 X43.1166 Y4.6019
G01 X43.1145 Y4.5926
G01 X43.0910 Y4.4544
G01 X43.0901 Y4.4449
G01 X43.0820 Y4.3002
G00 Z10.0000
G00 X43.2555 Y13.8245
G01 F76.20
G01 Z-0.1000
G01 F76.20
G01 X43.2555 Y13.7939
G01 X43.3124 Y13.8207
G01 X43.4806 Y13.9454
G01 X43.6212 Y14.1005
G01 X43.7079 Y14.2450
G01 X43.6760 Y14.2450
G01 X43.6491 Y14.1963
G01 X43.6349 Y14.1737
G01 X43.5830 Y14.1006
G01 X43.5664 Y14.0797
G01 X43.5066 Y14.0128
G01 X43.4877 Y13.9939
G01 X43.4208 Y13.9342
G01 X43.4204 Y13.9346
G01 X43.4000 Y13.9175
G01 X43.3241 Y13.8637
G01 X43.3042 Y13.8514
G01 X43.2555 Y13.8245
G01 X43.2555 Y13.7939
G00 Z10.0000
G00 X43.1025 Y13.9210
G01 F76.20
G01 Z-0.1000
G01 F76.20
G01 X43.1025 Y13.5926
G01 X43.1364 Y13.5740
G01 X43.1700 Y13.5842
G01 X43.3914 Y13.6888
G01 X43.5838 Y13.8315
G01 X43.7447 Y14.0089
G01 X43.8679 Y14.2144
G01 X43.9236 Y14.3699
G01 X43.9083 Y14.3980
G01 X43.5796 Y14.3980
G01 X43.5586 Y14.3489
G01 X43.5101 Y14.2623
G01 X43.4523 Y14.1816
G01 X43.3925 Y14.1148
G01 X43.3189 Y14.0482
G01 X43.2373 Y13.9897
G01 X43.1517 Y13.9419
G01 X43.1025 Y13.9210
G01 X43.1025 Y13.5926
G00 Z10.0000
G00 X43.1025 Y15.5532
G01 F76.20
G01 Z-0.1000
G01 F76.20
G01 X43.1517 Y15.5322
G01 X43.2383 Y15.4838
G01 X43.3189 Y15.4259
G01 X43.3858 Y15.3661
G01 X43.4523 Y15.2925
G01 X43.5108 Y15.2109
G01 X43.5586 Y15.1253
G01 X43.5796 Y15.0761
G01 X43.9083 Y15.0761
G01 X43.9236 Y15.1042
G01 X43.8679 Y15.2598
G01 X43.7447 Y15.4652
G01 X43.5838 Y15.6427
G01 X43.3914 Y15.7853
G01 X43.1700 Y15.8899
G01 X43.1364 Y15.9001
G01 X43.1025 Y15.8815
G01 X43.1025 Y15.5532
G01 X43.1517 Y15.5322
G00 Z10.0000
G00 X43.2555 Y15.6803
G01 F76.20
G01 Z-0.1000
G01 F76.20
G01 X43.2555 Y15.6497
G01 X43.3042 Y15.6228
G01 X43.3268 Y15.6086
G01 X43.4000 Y15.5566
G01 X43.4208 Y15.5400
G01 X43.4877 Y15.4802
G01 X43.5066 Y15.4614
G01 X43.5664 Y15.3945
G01 X43.5659 Y15.3941
G01 X43.5830 Y15.3736
G01 X43.6368 Y15.2977
G01 X43.6491 Y15.2778
G01 X43.6760 Y15.2291
G01 X43.7079 Y15.2291
G01 X43.6212 Y15.3736
G01 X43.4806 Y15.5287
G01 X43.3124 Y15.6534
G01 X43.2555 Y15.6803
G01 X43.2555 Y15.6497
G00 Z10.0000
G00 X41.4144 Y14.2971
G01 F76.20
G01 Z-0.1000
G01 F76.20
G01 X41.4426 Y14.3110
G01 X41.4825 Y14.3267
G01 X41.4958 Y14.3311
G01 X41.5372 Y14.3423
G01 X41.5509 Y14.3452
G01 X41.5933 Y14.3518
G01 X41.6362 Y14.3546
G01 X41.6326 Y14.3646
G01 X41.6078 Y14.4508
G01 X41.5980 Y14.4936
G01 X41.5830 Y14.5820
G01 X41.5781 Y14.6256
G01 X41.5724 Y14.7371
G01 X41.5781 Y14.8486
G01 X41.5788 Y14.8485
G01 X41.5830 Y14.8921
G01 X41.5996 Y14.9892
G01 X41.6078 Y15.0233
G01 X41.6326 Y15.1095
G01 X41.6361 Y15.1196
G01 X41.5933 Y15.1224
G01 X41.5934 Y15.1234
G01 X41.5509 Y15.1290
G01 X41.5372 Y15.1319
G01 X41.4958 Y15.1431
G01 X41.4798 Y15.1484
G01 X41.4426 Y15.1632
G01 X41.4144 Y15.1771
G01 X41.4144 Y14.2971
G01 X41.4426 Y14.3110
G00 Z10.0000
G00 X41.2900 Y13.8859
G01 F76.20
G01 Z-0.1000
G01 F76.20
G01 X41.2930 Y13.9051
G01 X41.2975 Y13.9253
G01 X41.3093 Y13.9636
G01 X41.3149 Y13.9777
G01 X41.3317 Y14.0127
G01 X41.3529 Y14.0467
G01 X41.3686 Y14.0675
G01 X41.3910 Y14.0927
G01 X41.4057 Y14.1068
G01 X41.4257 Y14.1237
G01 X41.4400 Y14.1345
G01 X41.4584 Y14.1467
G01 X41.4935 Y14.1661
G01 X41.5305 Y14.1814
G01 X41.5438 Y14.1858
G01 X41.5827 Y14.1955
G01 X41.6224 Y14.2009
G01 X41.6485 Y14.2021
G01 X41.6885 Y14.2002
G01 X41.7082 Y14.1978
G01 X41.7281 Y14.1940
G01 X41.7667 Y14.1835
G01 X41.7811 Y14.1784
G01 X41.8166 Y14.1627
G01 X41.8513 Y14.1427
G01 X41.8836 Y14.1190
G01 X41.9131 Y14.0918
G01 X42.0463 Y13.9454
G01 X42.2145 Y13.8207
G01 X42.2714 Y13.7939
G01 X42.2714 Y13.8245
G01 X42.2227 Y13.8514
G01 X42.2001 Y13.8656
G01 X42.1269 Y13.9175
G01 X42.1061 Y13.9342
G01 X42.0392 Y13.9939
G01 X42.0203 Y14.0128
G01 X41.9605 Y14.0797
G01 X41.9609 Y14.0801
G01 X41.9439 Y14.1006
G01 X41.8901 Y14.1765
G01 X41.8778 Y14.1963
G01 X41.8344 Y14.2748
G01 X41.8228 Y14.2989
G01 X41.7885 Y14.3818
G01 X41.7796 Y14.4070
G01 X41.7548 Y14.4932
G01 X41.7489 Y14.5192
G01 X41.7338 Y14.6076
G01 X41.7308 Y14.6342
G01 X41.7254 Y14.7371
G01 X41.7308 Y14.8400
G01 X41.7338 Y14.8665
G01 X41.7498 Y14.9602
G01 X41.7548 Y14.9810
G01 X41.7796 Y15.0672
G01 X41.7885 Y15.0924
G01 X41.8233 Y15.1765
G01 X41.8344 Y15.1993
G01 X41.8778 Y15.2778
G01 X41.8920 Y15.3004
G01 X41.9439 Y15.3736
G01 X41.9605 Y15.3945
G01 X42.0203 Y15.4614
G01 X42.0392 Y15.4802
G01 X42.1061 Y15.5400
G01 X42.1064 Y15.5396
G01 X42.1269 Y15.5566
G01 X42.2028 Y15.6105
G01 X42.2227 Y15.6228
G01 X42.2714 Y15.6497
G01 X42.2714 Y15.6803
G01 X42.2145 Y15.6534
G01 X42.0463 Y15.5287
G01 X41.9131 Y15.3823
G01 X41.8836 Y15.3552
G01 X41.8513 Y15.3315
G01 X41.8388 Y15.3237
G01 X41.8040 Y15.3054
G01 X41.7799 Y15.2953
G01 X41.7417 Y15.2833
G01 X41.7023 Y15.2756
G01 X41.6885 Y15.2739
G01 X41.6624 Y15.2722
G01 X41.6460 Y15.2721
G01 X41.6085 Y15.2746
G01 X41.6085 Y15.2753
G01 X41.5827 Y15.2786
G01 X41.5438 Y15.2884
G01 X41.5289 Y15.2933
G01 X41.4932 Y15.3083
G01 X41.4584 Y15.3274
G01 X41.4368 Y15.3420
G01 X41.4057 Y15.3674
G01 X41.3910 Y15.3814
G01 X41.3777 Y15.3960
G01 X41.3529 Y15.4275
G01 X41.3440 Y15.4407
G01 X41.3252 Y15.4738
G01 X41.3144 Y15.4976
G01 X41.3012 Y15.5354
G01 X41.2975 Y15.5489
G01 X41.2900 Y15.5882
G01 X41.2740 Y15.6409
G01 X41.2490 Y15.6878
G01 X41.2152 Y15.7289
G01 X41.1741 Y15.7626
G01 X41.1272 Y15.7877
G01 X41.0764 Y15.8031
G01 X41.0055 Y15.8101
G01 X39.4414 Y15.8101
G01 X39.3705 Y15.8031
G01 X39.3196 Y15.7877
G01 X39.2727 Y15.7626
G01 X39.2316 Y15.7289
G01 X39.1979 Y15.6878
G01 X39.1728 Y15.6409
G01 X39.1574 Y15.5900
G01 X39.1504 Y15.5191
G01 X39.1504 Y13.9550
G01 X39.1574 Y13.8842
G01 X39.1728 Y13.8333
G01 X39.1979 Y13.7864
G01 X39.2316 Y13.7453
G01 X39.2727 Y13.7116
G01 X39.3196 Y13.6865
G01 X39.3705 Y13.6710
G01 X39.4414 Y13.6641
G01 X41.0055 Y13.6641
G01 X41.0764 Y13.6710
G01 X41.1272 Y13.6865
G01 X41.1741 Y13.7116
G01 X41.2152 Y13.7453
G01 X41.2490 Y13.7864
G01 X41.2740 Y13.8333
G01 X41.2900 Y13.8859
G01 X41.2930 Y13.9051
G00 Z10.0000
G00 X41.4408 Y13.8579
G01 F76.20
G01 Z-0.1000
G01 F76.20
G01 X41.4437 Y13.8783
G01 X41.4489 Y13.8990
G01 X41.4571 Y13.9212
G01 X41.4672 Y13.9417
G01 X41.4798 Y13.9613
G01 X41.4944 Y13.9794
G01 X41.5110 Y13.9957
G01 X41.5304 Y14.0111
G01 X41.5489 Y14.0226
G01 X41.5699 Y14.0327
G01 X41.5918 Y14.0405
G01 X41.6145 Y14.0459
G01 X41.6376 Y14.0487
G01 X41.6608 Y14.0489
G01 X41.6861 Y14.0464
G01 X41.7068 Y14.0419
G01 X41.7293 Y14.0344
G01 X41.7501 Y14.0249
G01 X41.7701 Y14.0130
G01 X41.7886 Y13.9990
G01 X41.8088 Y13.9796
G01 X41.9431 Y13.8315
G01 X42.1355 Y13.6888
G01 X42.3569 Y13.5842
G01 X42.3905 Y13.5740
G01 X42.4244 Y13.5926
G01 X42.4244 Y13.9210
G01 X42.3752 Y13.9419
G01 X42.2967 Y13.9853
G01 X42.2886 Y13.9904
G01 X42.2080 Y14.0482
G01 X42.1411 Y14.1080
G01 X42.0746 Y14.1816
G01 X42.0161 Y14.2632
G01 X41.9683 Y14.3489
G01 X41.9641 Y14.3574
G01 X41.9267 Y14.4493
G01 X41.8997 Y14.5448
G01 X41.8847 Y14.6333
G01 X41.8784 Y14.7371
G01 X41.8847 Y14.8409
G01 X41.9000 Y14.9312
G01 X41.9267 Y15.0248
G01 X41.9643 Y15.1172
G01 X42.0117 Y15.2038
G01 X42.0167 Y15.2119
G01 X42.0746 Y15.2925
G01 X42.1344 Y15.3594
G01 X42.2080 Y15.4259
G01 X42.2155 Y15.4319
G01 X42.2967 Y15.4889
G01 X42.3752 Y15.5322
G01 X42.4244 Y15.5532
G01 X42.4244 Y15.8815
G01 X42.3905 Y15.9001
G01 X42.3569 Y15.8899
G01 X42.1355 Y15.7853
G01 X41.9431 Y15.6427
G01 X41.8088 Y15.4945
G01 X41.7956 Y15.4814
G01 X41.7777 Y15.4665
G01 X41.7580 Y15.4536
G01 X41.7375 Y15.4432
G01 X41.7289 Y15.4396
G01 X41.7068 Y15.4323
G01 X41.6932 Y15.4291
G01 X41.6840 Y15.4275
G01 X41.6608 Y15.4252
G01 X41.6376 Y15.4255
G01 X41.6145 Y15.4283
G01 X41.5918 Y15.4336
G01 X41.5699 Y15.4414
G01 X41.5489 Y15.4516
G01 X41.5292 Y15.4640
G01 X41.5110 Y15.4784
G01 X41.4992 Y15.4896
G01 X41.4854 Y15.5055
G01 X41.4798 Y15.5129
G01 X41.4672 Y15.5325
G01 X41.4569 Y15.5533
G01 X41.4518 Y15.5663
G01 X41.4453 Y15.5887
G01 X41.4403 Y15.6200
G01 X41.4161 Y15.6997
G01 X41.3768 Y15.7732
G01 X41.3239 Y15.8376
G01 X41.2595 Y15.8904
G01 X41.1861 Y15.9297
G01 X41.1064 Y15.9539
G01 X41.0130 Y15.9631
G01 X39.4339 Y15.9631
G01 X39.3405 Y15.9539
G01 X39.2608 Y15.9297
G01 X39.1873 Y15.8904
G01 X39.1229 Y15.8376
G01 X39.0701 Y15.7732
G01 X39.0308 Y15.6997
G01 X39.0066 Y15.6200
G01 X38.9974 Y15.5267
G01 X38.9974 Y13.9475
G01 X39.0066 Y13.8542
G01 X39.0308 Y13.7744
G01 X39.0701 Y13.7010
G01 X39.1229 Y13.6366
G01 X39.1873 Y13.5837
G01 X39.2608 Y13.5444
G01 X39.3405 Y13.5203
G01 X39.4339 Y13.5111
G01 X41.0130 Y13.5111
G01 X41.1064 Y13.5203
G01 X41.1861 Y13.5444
G01 X41.2595 Y13.5837
G01 X41.3239 Y13.6366
G01 X41.3768 Y13.7010
G01 X41.4161 Y13.7744
G01 X41.4403 Y13.8542
G01 X41.4408 Y13.8579
G01 X41.4437 Y13.8783
G00 Z10.0000
G00 X39.3871 Y13.8602
G01 F76.20
G01 Z-0.1000
G01 F76.20
G01 X39.3958 Y13.8567
G01 X39.4048 Y13.8541
G01 X39.4141 Y13.8526
G01 X39.4234 Y13.8521
G01 X41.0234 Y13.8521
G01 X41.0328 Y13.8526
G01 X41.0421 Y13.8541
G01 X41.0511 Y13.8567
G01 X41.0598 Y13.8602
G01 X41.0683 Y13.8649
G01 X41.0763 Y13.8705
G01 X41.0835 Y13.8770
G01 X41.0900 Y13.8842
G01 X41.0956 Y13.8922
G01 X41.1003 Y13.9007
G01 X41.1038 Y13.9094
G01 X41.1064 Y13.9185
G01 X41.1079 Y13.9277
G01 X41.1084 Y13.9371
G01 X41.1084 Y15.5371
G01 X41.1079 Y15.5464
G01 X41.1064 Y15.5557
G01 X41.1038 Y15.5647
G01 X41.1003 Y15.5734
G01 X41.0956 Y15.5820
G01 X41.0900 Y15.5899
G01 X41.0835 Y15.5972
G01 X41.0763 Y15.6037
G01 X41.0683 Y15.6093
G01 X41.0598 Y15.6139
G01 X41.0511 Y15.6175
G01 X41.0421 Y15.6200
G01 X41.0328 Y15.6216
G01 X41.0234 Y15.6221
G01 X39.4234 Y15.6221
G01 X39.4141 Y15.6216
G01 X39.4048 Y15.6200
G01 X39.3958 Y15.6175
G01 X39.3871 Y15.6139
G01 X39.3786 Y15.6093
G01 X39.3706 Y15.6037
G01 X39.3633 Y15.5972
G01 X39.3569 Y15.5899
G01 X39.3513 Y15.5820
G01 X39.3466 Y15.5734
G01 X39.3431 Y15.5647
G01 X39.3405 Y15.5557
G01 X39.3390 Y15.5464
G01 X39.3384 Y15.5371
G01 X39.3384 Y13.9371
G01 X39.3390 Y13.9277
G01 X39.3405 Y13.9185
G01 X39.3431 Y13.9094
G01 X39.3466 Y13.9007
G01 X39.3513 Y13.8922
G01 X39.3569 Y13.8842
G01 X39.3633 Y13.8770
G01 X39.3706 Y13.8705
G01 X39.3786 Y13.8649
G01 X39.3871 Y13.8602
G01 X39.3958 Y13.8567
G00 Z10.0000
G00 X39.3217 Y13.7219
G01 F76.20
G01 Z-0.1000
G01 F76.20
G01 X39.3460 Y13.7120
G01 X39.3713 Y13.7049
G01 X39.3972 Y13.7005
G01 X39.4234 Y13.6991
G01 X41.0234 Y13.6991
G01 X41.0497 Y13.7005
G01 X41.0756 Y13.7049
G01 X41.1009 Y13.7120
G01 X41.1252 Y13.7219
G01 X41.1491 Y13.7350
G01 X41.1714 Y13.7507
G01 X41.1917 Y13.7688
G01 X41.2099 Y13.7891
G01 X41.2255 Y13.8114
G01 X41.2386 Y13.8353
G01 X41.2485 Y13.8597
G01 X41.2557 Y13.8849
G01 X41.2600 Y13.9108
G01 X41.2614 Y13.9371
G01 X41.2614 Y15.5371
G01 X41.2600 Y15.5633
G01 X41.2557 Y15.5892
G01 X41.2485 Y15.6145
G01 X41.2386 Y15.6388
G01 X41.2255 Y15.6628
G01 X41.2099 Y15.6850
G01 X41.1917 Y15.7054
G01 X41.1714 Y15.7235
G01 X41.1491 Y15.7392
G01 X41.1252 Y15.7522
G01 X41.1009 Y15.7621
G01 X41.0756 Y15.7693
G01 X41.0497 Y15.7736
G01 X41.0234 Y15.7751
G01 X39.4234 Y15.7751
G01 X39.3972 Y15.7736
G01 X39.3713 Y15.7693
G01 X39.3460 Y15.7621
G01 X39.3217 Y15.7522
G01 X39.2978 Y15.7392
G01 X39.2755 Y15.7235
G01 X39.2551 Y15.7054
G01 X39.2370 Y15.6850
G01 X39.2213 Y15.6628
G01 X39.2083 Y15.6388
G01 X39.1984 Y15.6145
G01 X39.1912 Y15.5892
G01 X39.1869 Y15.5633
G01 X39.1854 Y15.5371
G01 X39.1854 Y13.9371
G01 X39.1869 Y13.9108
G01 X39.1912 Y13.8849
G01 X39.1984 Y13.8597
G01 X39.2083 Y13.8353
G01 X39.2213 Y13.8114
G01 X39.2370 Y13.7891
G01 X39.2551 Y13.7688
G01 X39.2755 Y13.7507
G01 X39.2978 Y13.7350
G01 X39.3217 Y13.7219
G01 X39.3460 Y13.7120
G00 Z10.0000
G00 X43.2555 Y21.4445
G01 F76.20
G01 Z-0.1000
G01 F76.20
G01 X43.2555 Y21.4139
G01 X43.3124 Y21.4407
G01 X43.4806 Y21.5654
G01 X43.6212 Y21.7205
G01 X43.6802 Y21.8189
G01 X43.6506 Y21.8189
G01 X43.6349 Y21.7937
G01 X43.5830 Y21.7206
G01 X43.5664 Y21.6997
G01 X43.5066 Y21.6328
G01 X43.4877 Y21.6139
G01 X43.4208 Y21.5542
G01 X43.4204 Y21.5546
G01 X43.4000 Y21.5375
G01 X43.3241 Y21.4837
G01 X43.3042 Y21.4714
G01 X43.2555 Y21.4445
G01 X43.2555 Y21.4139
G00 Z10.0000
G00 X43.1025 Y21.5410
G01 F76.20
G01 Z-0.1000
G01 F76.20
G01 X43.1025 Y21.2126
G01 X43.1364 Y21.1940
G01 X43.1700 Y21.2042
G01 X43.3914 Y21.3088
G01 X43.5838 Y21.4515
G01 X43.7447 Y21.6289
G01 X43.8679 Y21.8344
G01 X43.9176 Y21.9731
G01 X43.8948 Y21.9719
G01 X43.5601 Y21.9719
G01 X43.5152 Y21.8903
G01 X43.4582 Y21.8091
G01 X43.3925 Y21.7348
G01 X43.3858 Y21.7280
G01 X43.3114 Y21.6623
G01 X43.2373 Y21.6097
G01 X43.1517 Y21.5619
G01 X43.1025 Y21.5410
G01 X43.1025 Y21.2126
G00 Z10.0000
G00 X43.1486 Y23.1537
G01 F76.20
G01 Z-0.1000
G01 F76.20
G01 X43.2302 Y23.1089
G01 X43.3114 Y23.0519
G01 X43.3858 Y22.9861
G01 X43.3925 Y22.9794
G01 X43.4582 Y22.9051
G01 X43.5101 Y22.8319
G01 X43.5152 Y22.8238
G01 X43.5601 Y22.7422
G01 X43.7353 Y22.7422
G01 X43.8692 Y22.8762
G01 X43.8679 Y22.8798
G01 X43.7447 Y23.0852
G01 X43.5838 Y23.2627
G01 X43.3914 Y23.4053
G01 X43.1700 Y23.5099
G01 X43.1486 Y23.5164
G01 X43.1486 Y23.1537
G01 X43.2302 Y23.1089
G00 Z10.0000
G00 X43.3016 Y23.2785
G01 F76.20
G01 Z-0.1000
G01 F76.20
G01 X43.3016 Y23.2442
G01 X43.3268 Y23.2286
G01 X43.4000 Y23.1766
G01 X43.4208 Y23.1600
G01 X43.4877 Y23.1002
G01 X43.5066 Y23.0814
G01 X43.5664 Y23.0145
G01 X43.5659 Y23.0141
G01 X43.5830 Y22.9936
G01 X43.6368 Y22.9177
G01 X43.6506 Y22.8952
G01 X43.6719 Y22.8952
G01 X43.6771 Y22.9004
G01 X43.6212 Y22.9936
G01 X43.4806 Y23.1487
G01 X43.3124 Y23.2734
G01 X43.3016 Y23.2785
G01 X43.3016 Y23.2442
G00 Z10.0000
G00 X41.4040 Y22.5108
G01 F76.20
G01 Z-0.1000
G01 F76.20
G01 X41.4088 Y22.4686
G01 X41.4144 Y22.3571
G01 X41.4088 Y22.2456
G01 X41.4080 Y22.2456
G01 X41.4040 Y22.2030
G01 X41.4329 Y22.2078
G01 X41.4762 Y22.2113
G01 X41.4999 Y22.2118
G01 X41.5477 Y22.2091
G01 X41.5477 Y22.2081
G01 X41.5828 Y22.2039
G01 X41.5781 Y22.2456
G01 X41.5724 Y22.3571
G01 X41.5781 Y22.4686
G01 X41.5788 Y22.4685
G01 X41.5828 Y22.5101
G01 X41.5477 Y22.5051
G01 X41.4999 Y22.5024
G01 X41.4762 Y22.5029
G01 X41.4329 Y22.5063
G01 X41.4040 Y22.5108
G01 X41.4088 Y22.4686
G00 Z10.0000
G00 X36.6050 Y23.2032
G01 F76.20
G01 Z-0.1000
G01 F76.20
G01 X36.5637 Y23.1904
G01 X36.5399 Y23.1844
G01 X36.5022 Y23.1770
G01 X36.4780 Y23.1734
G01 X36.4398 Y23.1696
G01 X36.4153 Y23.1684
G01 X35.4961 Y23.1679
G01 X35.4699 Y23.1687
G01 X35.4726 Y23.1445
G01 X35.4740 Y23.1089
G01 X35.4726 Y23.0733
G01 X35.4719 Y23.0734
G01 X35.4696 Y23.0491
G01 X35.4961 Y23.0499
G01 X36.3961 Y23.0499
G01 X36.4302 Y23.0487
G01 X36.6581 Y23.0487
G01 X36.6380 Y23.0908
G01 X36.6327 Y23.1041
G01 X36.6184 Y23.1458
G01 X36.6145 Y23.1596
G01 X36.6050 Y23.2032
G01 X36.5637 Y23.1904
G00 Z10.0000
G00 X35.1625 Y22.4376
G01 F76.20
G01 Z-0.1000
G01 F76.20
G01 X35.1611 Y22.4089
G01 X35.1611 Y21.7589
G01 X35.1624 Y21.7302
G01 X35.1668 Y21.6977
G01 X35.1768 Y21.6577
G01 X35.1883 Y21.6269
G01 X35.1988 Y21.6047
G01 X35.2199 Y21.5694
G01 X35.2398 Y21.5432
G01 X35.2622 Y21.5192
G01 X35.2868 Y21.4974
G01 X35.3066 Y21.4828
G01 X35.3419 Y21.4616
G01 X35.3641 Y21.4511
G01 X35.3949 Y21.4397
G01 X35.4348 Y21.4296
G01 X35.4674 Y21.4252
G01 X35.4961 Y21.4239
G01 X36.4003 Y21.4240
G01 X36.4331 Y21.4260
G01 X36.4655 Y21.4313
G01 X36.4973 Y21.4397
G01 X36.5281 Y21.4511
G01 X36.5576 Y21.4655
G01 X36.5850 Y21.4824
G01 X36.6118 Y21.5027
G01 X36.6358 Y21.5251
G01 X36.6576 Y21.5497
G01 X36.6769 Y21.5763
G01 X36.6934 Y21.6047
G01 X36.7071 Y21.6346
G01 X36.7178 Y21.6657
G01 X36.7237 Y21.6895
G01 X36.7298 Y21.7302
G01 X36.7311 Y21.7589
G01 X36.7311 Y21.9719
G01 X39.4268 Y21.9719
G01 X39.4717 Y21.8903
G01 X39.4767 Y21.8823
G01 X39.5287 Y21.8091
G01 X39.5944 Y21.7348
G01 X39.6011 Y21.7280
G01 X39.6755 Y21.6623
G01 X39.7486 Y21.6104
G01 X39.8352 Y21.5619
G01 X39.9267 Y21.5234
G01 X39.9357 Y21.5203
G01 X40.0312 Y21.4933
G01 X40.1196 Y21.4783
G01 X40.2187 Y21.4722
G01 X40.2282 Y21.4722
G01 X40.3272 Y21.4783
G01 X40.4157 Y21.4933
G01 X40.5112 Y21.5203
G01 X40.6031 Y21.5578
G01 X40.6902 Y21.6053
G01 X40.7714 Y21.6623
G01 X40.7789 Y21.6682
G01 X40.8525 Y21.7348
G01 X40.9123 Y21.8016
G01 X40.9701 Y21.8823
G01 X40.9752 Y21.8903
G01 X41.0226 Y21.9770
G01 X41.0571 Y22.0603
G01 X41.0851 Y22.1555
G01 X41.0872 Y22.1648
G01 X41.1033 Y22.2627
G01 X41.1084 Y22.3571
G01 X41.1033 Y22.4514
G01 X41.0872 Y22.5493
G01 X41.0602 Y22.6448
G01 X41.0227 Y22.7367
G01 X41.0186 Y22.7453
G01 X40.9708 Y22.8309
G01 X40.9182 Y22.9051
G01 X40.8525 Y22.9794
G01 X40.8458 Y22.9861
G01 X40.7714 Y23.0519
G01 X40.6902 Y23.1089
G01 X40.6035 Y23.1562
G01 X40.5202 Y23.1907
G01 X40.4250 Y23.2187
G01 X40.4157 Y23.2208
G01 X40.3178 Y23.2369
G01 X40.2234 Y23.2421
G01 X40.1196 Y23.2358
G01 X40.0312 Y23.2208
G01 X39.9357 Y23.1939
G01 X39.8438 Y23.1564
G01 X39.8352 Y23.1522
G01 X39.7496 Y23.1045
G01 X39.6680 Y23.0459
G01 X39.5944 Y22.9794
G01 X39.5346 Y22.9125
G01 X39.4767 Y22.8319
G01 X39.4717 Y22.8238
G01 X39.4268 Y22.7422
G01 X36.4278 Y22.7422
G01 X36.3961 Y22.7439
G01 X35.4961 Y22.7439
G01 X35.4674 Y22.7426
G01 X35.4348 Y22.7382
G01 X35.4029 Y22.7306
G01 X35.3641 Y22.7167
G01 X35.3345 Y22.7023
G01 X35.3071 Y22.6855
G01 X35.2804 Y22.6652
G01 X35.2563 Y22.6428
G01 X35.2346 Y22.6182
G01 X35.2199 Y22.5984
G01 X35.2027 Y22.5705
G01 X35.1883 Y22.5409
G01 X35.1768 Y22.5101
G01 X35.1684 Y22.4783
G01 X35.1632 Y22.4459
G01 X35.1625 Y22.4376
G01 X35.1611 Y22.4089
G00 Z10.0000
G00 X35.0100 Y22.4451
G01 F76.20
G01 Z-0.1000
G01 F76.20
G01 X35.0081 Y22.4089
G01 X35.0084 Y21.7472
G01 X35.0096 Y21.7227
G01 X35.0119 Y21.6995
G01 X35.0155 Y21.6752
G01 X35.0200 Y21.6523
G01 X35.0260 Y21.6285
G01 X35.0328 Y21.6062
G01 X35.0410 Y21.5831
G01 X35.0500 Y21.5615
G01 X35.0605 Y21.5393
G01 X35.0715 Y21.5187
G01 X35.0841 Y21.4977
G01 X35.0959 Y21.4798
G01 X35.1117 Y21.4585
G01 X35.1265 Y21.4405
G01 X35.1430 Y21.4223
G01 X35.1595 Y21.4058
G01 X35.1776 Y21.3893
G01 X35.1957 Y21.3745
G01 X35.2154 Y21.3599
G01 X35.2348 Y21.3469
G01 X35.2559 Y21.3343
G01 X35.2765 Y21.3233
G01 X35.2986 Y21.3128
G01 X35.3202 Y21.3039
G01 X35.3433 Y21.2956
G01 X35.3657 Y21.2888
G01 X35.3895 Y21.2829
G01 X35.4125 Y21.2791
G01 X35.4124 Y21.2783
G01 X35.4367 Y21.2747
G01 X35.4599 Y21.2724
G01 X35.4961 Y21.2709
G01 X36.4078 Y21.2712
G01 X36.4323 Y21.2724
G01 X36.4555 Y21.2747
G01 X36.4798 Y21.2783
G01 X36.5027 Y21.2829
G01 X36.5265 Y21.2888
G01 X36.5488 Y21.2956
G01 X36.5719 Y21.3039
G01 X36.5935 Y21.3128
G01 X36.6157 Y21.3233
G01 X36.6363 Y21.3343
G01 X36.6573 Y21.3469
G01 X36.6752 Y21.3587
G01 X36.6965 Y21.3745
G01 X36.7145 Y21.3893
G01 X36.7327 Y21.4058
G01 X36.7492 Y21.4223
G01 X36.7657 Y21.4405
G01 X36.7805 Y21.4585
G01 X36.7951 Y21.4783
G01 X36.8081 Y21.4977
G01 X36.8207 Y21.5187
G01 X36.8317 Y21.5393
G01 X36.8422 Y21.5615
G01 X36.8511 Y21.5831
G01 X36.8594 Y21.6062
G01 X36.8662 Y21.6285
G01 X36.8721 Y21.6523
G01 X36.8759 Y21.6753
G01 X36.8767 Y21.6752
G01 X36.8803 Y21.6995
G01 X36.8826 Y21.7227
G01 X36.8841 Y21.7589
G01 X36.8841 Y21.8189
G01 X39.3363 Y21.8189
G01 X39.3501 Y21.7965
G01 X39.4039 Y21.7206
G01 X39.4209 Y21.7001
G01 X39.4205 Y21.6997
G01 X39.4803 Y21.6328
G01 X39.4992 Y21.6139
G01 X39.5661 Y21.5542
G01 X39.5869 Y21.5375
G01 X39.6601 Y21.4856
G01 X39.6827 Y21.4714
G01 X39.7612 Y21.4280
G01 X39.7840 Y21.4170
G01 X39.8681 Y21.3821
G01 X39.8933 Y21.3733
G01 X39.9795 Y21.3484
G01 X40.0003 Y21.3435
G01 X40.0940 Y21.3275
G01 X40.1205 Y21.3245
G01 X40.2101 Y21.3195
G01 X40.2368 Y21.3195
G01 X40.3264 Y21.3245
G01 X40.3529 Y21.3275
G01 X40.4413 Y21.3425
G01 X40.4673 Y21.3484
G01 X40.5536 Y21.3733
G01 X40.5787 Y21.3821
G01 X40.6616 Y21.4164
G01 X40.6857 Y21.4280
G01 X40.7642 Y21.4714
G01 X40.7841 Y21.4837
G01 X40.8600 Y21.5375
G01 X40.8804 Y21.5546
G01 X40.8808 Y21.5542
G01 X40.9477 Y21.6139
G01 X40.9666 Y21.6328
G01 X41.0264 Y21.6997
G01 X41.0430 Y21.7206
G01 X41.0949 Y21.7937
G01 X41.1091 Y21.8163
G01 X41.1525 Y21.8948
G01 X41.1636 Y21.9176
G01 X41.1984 Y22.0018
G01 X41.2072 Y22.0270
G01 X41.2321 Y22.1132
G01 X41.2380 Y22.1392
G01 X41.2530 Y22.2276
G01 X41.2560 Y22.2542
G01 X41.2614 Y22.3571
G01 X41.2560 Y22.4600
G01 X41.2530 Y22.4865
G01 X41.2380 Y22.5750
G01 X41.2321 Y22.6010
G01 X41.2072 Y22.6872
G01 X41.1984 Y22.7124
G01 X41.1641 Y22.7953
G01 X41.1525 Y22.8193
G01 X41.1091 Y22.8978
G01 X41.0968 Y22.9177
G01 X41.0430 Y22.9936
G01 X41.0259 Y23.0141
G01 X41.0264 Y23.0145
G01 X40.9666 Y23.0814
G01 X40.9477 Y23.1002
G01 X40.8808 Y23.1600
G01 X40.8600 Y23.1766
G01 X40.7868 Y23.2286
G01 X40.7642 Y23.2428
G01 X40.6857 Y23.2862
G01 X40.6629 Y23.2972
G01 X40.5787 Y23.3321
G01 X40.5536 Y23.3409
G01 X40.4673 Y23.3657
G01 X40.4413 Y23.3717
G01 X40.3529 Y23.3867
G01 X40.3264 Y23.3897
G01 X40.2234 Y23.3951
G01 X40.1205 Y23.3897
G01 X40.0940 Y23.3867
G01 X40.0056 Y23.3717
G01 X39.9795 Y23.3657
G01 X39.8933 Y23.3409
G01 X39.8681 Y23.3321
G01 X39.7853 Y23.2977
G01 X39.7612 Y23.2862
G01 X39.6827 Y23.2428
G01 X39.6628 Y23.2305
G01 X39.5869 Y23.1766
G01 X39.5664 Y23.1596
G01 X39.5661 Y23.1600
G01 X39.4992 Y23.1002
G01 X39.4803 Y23.0814
G01 X39.4205 Y23.0145
G01 X39.4039 Y22.9936
G01 X39.3520 Y22.9204
G01 X39.3363 Y22.8952
G01 X36.4323 Y22.8952
G01 X36.3961 Y22.8969
G01 X35.4961 Y22.8969
G01 X35.4599 Y22.8954
G01 X35.4367 Y22.8931
G01 X35.4124 Y22.8895
G01 X35.3895 Y22.8850
G01 X35.3657 Y22.8790
G01 X35.3433 Y22.8722
G01 X35.3202 Y22.8640
G01 X35.2986 Y22.8550
G01 X35.2765 Y22.8445
G01 X35.2559 Y22.8335
G01 X35.2348 Y22.8209
G01 X35.2170 Y22.8091
G01 X35.1957 Y22.7933
G01 X35.1776 Y22.7785
G01 X35.1595 Y22.7620
G01 X35.1430 Y22.7455
G01 X35.1265 Y22.7274
G01 X35.1117 Y22.7093
G01 X35.0970 Y22.6896
G01 X35.0841 Y22.6702
G01 X35.0715 Y22.6491
G01 X35.0605 Y22.6285
G01 X35.0500 Y22.6064
G01 X35.0410 Y22.5848
G01 X35.0328 Y22.5617
G01 X35.0260 Y22.5393
G01 X35.0200 Y22.5155
G01 X35.0162 Y22.4925
G01 X35.0155 Y22.4926
G01 X35.0119 Y22.4683
G01 X35.0100 Y22.4451
G01 X35.0081 Y22.4089
G00 Z10.0000
G00 X30.6096 Y23.4428
G01 F76.20
G01 Z-0.1000
G01 F76.20
G01 X30.3938 Y23.4428
G01 X30.4048 Y23.4382
G01 X30.4422 Y23.4201
G01 X30.5207 Y23.3767
G01 X30.5578 Y23.3533
G01 X30.5695 Y23.3451
G01 X30.5874 Y23.3961
G01 X30.5936 Y23.4106
G01 X30.6096 Y23.4428
G01 X30.3938 Y23.4428
G00 Z10.0000
G00 X29.4181 Y23.4428
G01 F76.20
G01 Z-0.1000
G01 F76.20
G01 X27.8538 Y23.4428
G01 X27.8648 Y23.4382
G01 X27.9022 Y23.4201
G01 X27.9807 Y23.3767
G01 X28.0178 Y23.3533
G01 X28.0910 Y23.3014
G01 X28.1253 Y23.2741
G01 X28.1922 Y23.2143
G01 X28.2232 Y23.1833
G01 X28.2830 Y23.1164
G01 X28.2823 Y23.1158
G01 X28.3103 Y23.0821
G01 X28.3654 Y23.0045
G01 X28.3856 Y22.9718
G01 X28.4289 Y22.8933
G01 X28.4480 Y22.8538
G01 X28.4823 Y22.7709
G01 X28.4968 Y22.7295
G01 X28.5216 Y22.6433
G01 X28.5314 Y22.6006
G01 X28.5464 Y22.5121
G01 X28.5513 Y22.4686
G01 X28.5563 Y22.3790
G01 X28.5570 Y22.3571
G01 X28.5563 Y22.3352
G01 X28.5513 Y22.2456
G01 X28.5506 Y22.2456
G01 X28.5465 Y22.2030
G01 X28.5754 Y22.2078
G01 X28.6187 Y22.2113
G01 X28.6425 Y22.2118
G01 X28.6903 Y22.2091
G01 X28.6902 Y22.2081
G01 X28.7253 Y22.2039
G01 X28.7206 Y22.2456
G01 X28.7156 Y22.3352
G01 X28.7150 Y22.3571
G01 X28.7156 Y22.3790
G01 X28.7206 Y22.4686
G01 X28.7214 Y22.4685
G01 X28.7255 Y22.5121
G01 X28.7421 Y22.6092
G01 X28.7503 Y22.6433
G01 X28.7751 Y22.7295
G01 X28.7896 Y22.7709
G01 X28.8248 Y22.8559
G01 X28.8430 Y22.8933
G01 X28.8864 Y22.9718
G01 X28.9097 Y23.0090
G01 X28.9616 Y23.0821
G01 X28.9889 Y23.1164
G01 X29.0487 Y23.1833
G01 X29.0797 Y23.2143
G01 X29.1466 Y23.2741
G01 X29.1472 Y23.2734
G01 X29.1809 Y23.3014
G01 X29.2585 Y23.3565
G01 X29.2912 Y23.3767
G01 X29.3697 Y23.4201
G01 X29.4181 Y23.4428
G01 X27.8538 Y23.4428
G00 Z10.0000
G00 X30.2450 Y21.5410
G01 F76.20
G01 Z-0.1000
G01 F76.20
G01 X30.2450 Y21.2126
G01 X30.2789 Y21.1940
G01 X30.3125 Y21.2042
G01 X30.5339 Y21.3088
G01 X30.7263 Y21.4515
G01 X30.8872 Y21.6289
G01 X31.0104 Y21.8344
G01 X31.0661 Y21.9899
G01 X31.0508 Y22.0180
G01 X30.7221 Y22.0180
G01 X30.7011 Y21.9689
G01 X30.6527 Y21.8823
G01 X30.5948 Y21.8016
G01 X30.5350 Y21.7348
G01 X30.4614 Y21.6682
G01 X30.3798 Y21.6097
G01 X30.2942 Y21.5619
G01 X30.2450 Y21.5410
G01 X30.2450 Y21.2126
G00 Z10.0000
G00 X30.3980 Y21.4445
G01 F76.20
G01 Z-0.1000
G01 F76.20
G01 X30.3980 Y21.4139
G01 X30.4549 Y21.4407
G01 X30.6231 Y21.5654
G01 X30.7638 Y21.7205
G01 X30.8504 Y21.8650
G01 X30.8186 Y21.8650
G01 X30.7916 Y21.8163
G01 X30.7774 Y21.7937
G01 X30.7255 Y21.7206
G01 X30.7089 Y21.6997
G01 X30.6491 Y21.6328
G01 X30.6302 Y21.6139
G01 X30.5633 Y21.5542
G01 X30.5630 Y21.5546
G01 X30.5425 Y21.5375
G01 X30.4666 Y21.4837
G01 X30.4467 Y21.4714
G01 X30.3980 Y21.4445
G01 X30.3980 Y21.4139
G00 Z10.0000
G00 X30.3980 Y15.6803
G01 F76.20
G01 Z-0.1000
G01 F76.20
G01 X30.3980 Y15.6497
G01 X30.4467 Y15.6228
G01 X30.4693 Y15.6086
G01 X30.5425 Y15.5566
G01 X30.5633 Y15.5400
G01 X30.6302 Y15.4802
G01 X30.6491 Y15.4614
G01 X30.7089 Y15.3945
G01 X30.7085 Y15.3941
G01 X30.7255 Y15.3736
G01 X30.7793 Y15.2977
G01 X30.7916 Y15.2778
G01 X30.8186 Y15.2291
G01 X30.8504 Y15.2291
G01 X30.7638 Y15.3736
G01 X30.6231 Y15.5287
G01 X30.4549 Y15.6534
G01 X30.3980 Y15.6803
G01 X30.3980 Y15.6497
G00 Z10.0000
G00 X30.2450 Y15.5532
G01 F76.20
G01 Z-0.1000
G01 F76.20
G01 X30.2942 Y15.5322
G01 X30.3808 Y15.4838
G01 X30.4614 Y15.4259
G01 X30.5283 Y15.3661
G01 X30.5948 Y15.2925
G01 X30.6533 Y15.2109
G01 X30.7011 Y15.1253
G01 X30.7221 Y15.0761
G01 X31.0508 Y15.0761
G01 X31.0661 Y15.1042
G01 X31.0104 Y15.2598
G01 X30.8872 Y15.4652
G01 X30.7263 Y15.6427
G01 X30.5339 Y15.7853
G01 X30.3125 Y15.8899
G01 X30.2789 Y15.9001
G01 X30.2450 Y15.8815
G01 X30.2450 Y15.5532
G01 X30.2942 Y15.5322
G00 Z10.0000
G00 X30.2450 Y13.9210
G01 F76.20
G01 Z-0.1000
G01 F76.20
G01 X30.2450 Y13.5926
G01 X30.2789 Y13.5740
G01 X30.3125 Y13.5842
G01 X30.5339 Y13.6888
G01 X30.7263 Y13.8315
G01 X30.8872 Y14.0089
G01 X31.0104 Y14.2144
G01 X31.0661 Y14.3699
G01 X31.0508 Y14.3980
G01 X30.7221 Y14.3980
G01 X30.7011 Y14.3489
G01 X30.6527 Y14.2623
G01 X30.5948 Y14.1816
G01 X30.5350 Y14.1148
G01 X30.4614 Y14.0482
G01 X30.3798 Y13.9897
G01 X30.2942 Y13.9419
G01 X30.2450 Y13.9210
G01 X30.2450 Y13.5926
G00 Z10.0000
G00 X30.3980 Y13.8245
G01 F76.20
G01 Z-0.1000
G01 F76.20
G01 X30.3980 Y13.7939
G01 X30.4549 Y13.8207
G01 X30.6231 Y13.9454
G01 X30.7638 Y14.1005
G01 X30.8504 Y14.2450
G01 X30.8186 Y14.2450
G01 X30.7916 Y14.1963
G01 X30.7774 Y14.1737
G01 X30.7255 Y14.1006
G01 X30.7089 Y14.0797
G01 X30.6491 Y14.0128
G01 X30.6302 Y13.9939
G01 X30.5633 Y13.9342
G01 X30.5630 Y13.9346
G01 X30.5425 Y13.9175
G01 X30.4666 Y13.8637
G01 X30.4467 Y13.8514
G01 X30.3980 Y13.8245
G01 X30.3980 Y13.7939
G00 Z10.0000
G00 X28.5833 Y13.8579
G01 F76.20
G01 Z-0.1000
G01 F76.20
G01 X28.5862 Y13.8783
G01 X28.5914 Y13.8990
G01 X28.5996 Y13.9212
G01 X28.6098 Y13.9417
G01 X28.6223 Y13.9613
G01 X28.6370 Y13.9794
G01 X28.6535 Y13.9957
G01 X28.6729 Y14.0111
G01 X28.6914 Y14.0226
G01 X28.7124 Y14.0327
G01 X28.7343 Y14.0405
G01 X28.7570 Y14.0459
G01 X28.7801 Y14.0487
G01 X28.8034 Y14.0489
G01 X28.8286 Y14.0464
G01 X28.8493 Y14.0419
G01 X28.8718 Y14.0344
G01 X28.8926 Y14.0249
G01 X28.9126 Y14.0130
G01 X28.9311 Y13.9990
G01 X28.9513 Y13.9796
G01 X29.0856 Y13.8315
G01 X29.2780 Y13.6888
G01 X29.4994 Y13.5842
G01 X29.5330 Y13.5740
G01 X29.5669 Y13.5926
G01 X29.5669 Y13.9210
G01 X29.5177 Y13.9419
G01 X29.4392 Y13.9853
G01 X29.4311 Y13.9904
G01 X29.3505 Y14.0482
G01 X29.2836 Y14.1080
G01 X29.2171 Y14.1816
G01 X29.1586 Y14.2632
G01 X29.1108 Y14.3489
G01 X29.1067 Y14.3574
G01 X29.0692 Y14.4493
G01 X29.0422 Y14.5448
G01 X29.0272 Y14.6333
G01 X29.0210 Y14.7371
G01 X29.0272 Y14.8409
G01 X29.0426 Y14.9312
G01 X29.0692 Y15.0248
G01 X29.1068 Y15.1172
G01 X29.1542 Y15.2038
G01 X29.1593 Y15.2119
G01 X29.2171 Y15.2925
G01 X29.2769 Y15.3594
G01 X29.3505 Y15.4259
G01 X29.3580 Y15.4319
G01 X29.4392 Y15.4889
G01 X29.5177 Y15.5322
G01 X29.5669 Y15.5532
G01 X29.5669 Y15.8815
G01 X29.5330 Y15.9001
G01 X29.4994 Y15.8899
G01 X29.2780 Y15.7853
G01 X29.0856 Y15.6427
G01 X28.9513 Y15.4945
G01 X28.9381 Y15.4814
G01 X28.9202 Y15.4665
G01 X28.9005 Y15.4536
G01 X28.8800 Y15.4432
G01 X28.8714 Y15.4396
G01 X28.8493 Y15.4323
G01 X28.8357 Y15.4291
G01 X28.8265 Y15.4275
G01 X28.8034 Y15.4252
G01 X28.7801 Y15.4255
G01 X28.7570 Y15.4283
G01 X28.7343 Y15.4336
G01 X28.7124 Y15.4414
G01 X28.6914 Y15.4516
G01 X28.6717 Y15.4640
G01 X28.6535 Y15.4784
G01 X28.6417 Y15.4896
G01 X28.6280 Y15.5055
G01 X28.6223 Y15.5129
G01 X28.6098 Y15.5325
G01 X28.5994 Y15.5533
G01 X28.5943 Y15.5663
G01 X28.5878 Y15.5887
G01 X28.5828 Y15.6200
G01 X28.5586 Y15.6997
G01 X28.5193 Y15.7732
G01 X28.4665 Y15.8376
G01 X28.4021 Y15.8904
G01 X28.3286 Y15.9297
G01 X28.2489 Y15.9539
G01 X28.1555 Y15.9631
G01 X26.5764 Y15.9631
G01 X26.4830 Y15.9539
G01 X26.4033 Y15.9297
G01 X26.3299 Y15.8904
G01 X26.2655 Y15.8376
G01 X26.2126 Y15.7732
G01 X26.1733 Y15.6997
G01 X26.1491 Y15.6200
G01 X26.1400 Y15.5267
G01 X26.1400 Y13.9475
G01 X26.1491 Y13.8542
G01 X26.1733 Y13.7744
G01 X26.2126 Y13.7010
G01 X26.2655 Y13.6366
G01 X26.3299 Y13.5837
G01 X26.4033 Y13.5444
G01 X26.4830 Y13.5203
G01 X26.5764 Y13.5111
G01 X28.1555 Y13.5111
G01 X28.2489 Y13.5203
G01 X28.3286 Y13.5444
G01 X28.4021 Y13.5837
G01 X28.4665 Y13.6366
G01 X28.5193 Y13.7010
G01 X28.5586 Y13.7744
G01 X28.5828 Y13.8542
G01 X28.5833 Y13.8579
G01 X28.5862 Y13.8783
G00 Z10.0000
G00 X28.4325 Y13.8859
G01 F76.20
G01 Z-0.1000
G01 F76.20
G01 X28.4355 Y13.9051
G01 X28.4400 Y13.9253
G01 X28.4518 Y13.9636
G01 X28.4574 Y13.9777
G01 X28.4742 Y14.0127
G01 X28.4954 Y14.0467
G01 X28.5112 Y14.0675
G01 X28.5336 Y14.0927
G01 X28.5483 Y14.1068
G01 X28.5682 Y14.1237
G01 X28.5825 Y14.1345
G01 X28.6010 Y14.1467
G01 X28.6361 Y14.1661
G01 X28.6731 Y14.1814
G01 X28.6863 Y14.1858
G01 X28.7252 Y14.1955
G01 X28.7649 Y14.2009
G01 X28.7910 Y14.2021
G01 X28.8310 Y14.2002
G01 X28.8507 Y14.1978
G01 X28.8706 Y14.1940
G01 X28.9093 Y14.1835
G01 X28.9236 Y14.1784
G01 X28.9591 Y14.1627
G01 X28.9938 Y14.1427
G01 X29.0261 Y14.1190
G01 X29.0556 Y14.0918
G01 X29.1888 Y13.9454
G01 X29.3570 Y13.8207
G01 X29.4139 Y13.7939
G01 X29.4139 Y13.8245
G01 X29.3652 Y13.8514
G01 X29.3426 Y13.8656
G01 X29.2694 Y13.9175
G01 X29.2486 Y13.9342
G01 X29.1817 Y13.9939
G01 X29.1628 Y14.0128
G01 X29.1030 Y14.0797
G01 X29.1035 Y14.0801
G01 X29.0864 Y14.1006
G01 X29.0326 Y14.1765
G01 X29.0203 Y14.1963
G01 X28.9769 Y14.2748
G01 X28.9653 Y14.2989
G01 X28.9310 Y14.3818
G01 X28.9222 Y14.4070
G01 X28.8973 Y14.4932
G01 X28.8914 Y14.5192
G01 X28.8764 Y14.6076
G01 X28.8734 Y14.6342
G01 X28.8680 Y14.7371
G01 X28.8734 Y14.8400
G01 X28.8764 Y14.8665
G01 X28.8923 Y14.9602
G01 X28.8973 Y14.9810
G01 X28.9222 Y15.0672
G01 X28.9310 Y15.0924
G01 X28.9658 Y15.1765
G01 X28.9769 Y15.1993
G01 X29.0203 Y15.2778
G01 X29.0345 Y15.3004
G01 X29.0864 Y15.3736
G01 X29.1030 Y15.3945
G01 X29.1628 Y15.4614
G01 X29.1817 Y15.4802
G01 X29.2486 Y15.5400
G01 X29.2490 Y15.5396
G01 X29.2694 Y15.5566
G01 X29.3453 Y15.6105
G01 X29.3652 Y15.6228
G01 X29.4139 Y15.6497
G01 X29.4139 Y15.6803
G01 X29.3570 Y15.6534
G01 X29.1888 Y15.5287
G01 X29.0556 Y15.3823
G01 X29.0261 Y15.3552
G01 X28.9938 Y15.3315
G01 X28.9813 Y15.3237
G01 X28.9465 Y15.3054
G01 X28.9224 Y15.2953
G01 X28.8842 Y15.2833
G01 X28.8449 Y15.2756
G01 X28.8310 Y15.2739
G01 X28.8049 Y15.2722
G01 X28.7885 Y15.2721
G01 X28.7510 Y15.2746
G01 X28.7511 Y15.2753
G01 X28.7252 Y15.2786
G01 X28.6863 Y15.2884
G01 X28.6714 Y15.2933
G01 X28.6357 Y15.3083
G01 X28.6010 Y15.3274
G01 X28.5793 Y15.3420
G01 X28.5483 Y15.3674
G01 X28.5336 Y15.3814
G01 X28.5202 Y15.3960
G01 X28.4954 Y15.4275
G01 X28.4865 Y15.4407
G01 X28.4678 Y15.4738
G01 X28.4569 Y15.4976
G01 X28.4437 Y15.5354
G01 X28.4400 Y15.5489
G01 X28.4325 Y15.5882
G01 X28.4166 Y15.6409
G01 X28.3915 Y15.6878
G01 X28.3578 Y15.7289
G01 X28.3167 Y15.7626
G01 X28.2698 Y15.7877
G01 X28.2189 Y15.8031
G01 X28.1480 Y15.8101
G01 X26.5839 Y15.8101
G01 X26.5130 Y15.8031
G01 X26.4622 Y15.7877
G01 X26.4153 Y15.7626
G01 X26.3742 Y15.7289
G01 X26.3404 Y15.6878
G01 X26.3154 Y15.6409
G01 X26.2999 Y15.5900
G01 X26.2930 Y15.5191
G01 X26.2930 Y13.9550
G01 X26.2999 Y13.8842
G01 X26.3154 Y13.8333
G01 X26.3404 Y13.7864
G01 X26.3742 Y13.7453
G01 X26.4153 Y13.7116
G01 X26.4622 Y13.6865
G01 X26.5130 Y13.6710
G01 X26.5839 Y13.6641
G01 X28.1480 Y13.6641
G01 X28.2189 Y13.6710
G01 X28.2698 Y13.6865
G01 X28.3167 Y13.7116
G01 X28.3578 Y13.7453
G01 X28.3915 Y13.7864
G01 X28.4166 Y13.8333
G01 X28.4325 Y13.8859
G01 X28.4355 Y13.9051
G00 Z10.0000
G00 X28.5570 Y14.2971
G01 F76.20
G01 Z-0.1000
G01 F76.20
G01 X28.5851 Y14.3110
G01 X28.6251 Y14.3267
G01 X28.6383 Y14.3311
G01 X28.6797 Y14.3423
G01 X28.6934 Y14.3452
G01 X28.7358 Y14.3518
G01 X28.7787 Y14.3546
G01 X28.7751 Y14.3646
G01 X28.7503 Y14.4508
G01 X28.7405 Y14.4936
G01 X28.7255 Y14.5820
G01 X28.7206 Y14.6256
G01 X28.7150 Y14.7371
G01 X28.7206 Y14.8486
G01 X28.7214 Y14.8485
G01 X28.7255 Y14.8921
G01 X28.7421 Y14.9892
G01 X28.7503 Y15.0233
G01 X28.7751 Y15.1095
G01 X28.7786 Y15.1196
G01 X28.7358 Y15.1224
G01 X28.7359 Y15.1234
G01 X28.6934 Y15.1290
G01 X28.6797 Y15.1319
G01 X28.6383 Y15.1431
G01 X28.6223 Y15.1484
G01 X28.5851 Y15.1632
G01 X28.5570 Y15.1771
G01 X28.5570 Y14.2971
G01 X28.5851 Y14.3110
G00 Z10.0000
G00 X26.5296 Y13.8602
G01 F76.20
G01 Z-0.1000
G01 F76.20
G01 X26.5383 Y13.8567
G01 X26.5473 Y13.8541
G01 X26.5566 Y13.8526
G01 X26.5660 Y13.8521
G01 X28.1660 Y13.8521
G01 X28.1753 Y13.8526
G01 X28.1846 Y13.8541
G01 X28.1936 Y13.8567
G01 X28.2023 Y13.8602
G01 X28.2108 Y13.8649
G01 X28.2188 Y13.8705
G01 X28.2261 Y13.8770
G01 X28.2325 Y13.8842
G01 X28.2381 Y13.8922
G01 X28.2428 Y13.9007
G01 X28.2463 Y13.9094
G01 X28.2489 Y13.9185
G01 X28.2504 Y13.9277
G01 X28.2510 Y13.9371
G01 X28.2510 Y15.5371
G01 X28.2504 Y15.5464
G01 X28.2489 Y15.5557
G01 X28.2463 Y15.5647
G01 X28.2428 Y15.5734
G01 X28.2381 Y15.5820
G01 X28.2325 Y15.5899
G01 X28.2261 Y15.5972
G01 X28.2188 Y15.6037
G01 X28.2108 Y15.6093
G01 X28.2023 Y15.6139
G01 X28.1936 Y15.6175
G01 X28.1846 Y15.6200
G01 X28.1753 Y15.6216
G01 X28.1660 Y15.6221
G01 X26.5660 Y15.6221
G01 X26.5566 Y15.6216
G01 X26.5473 Y15.6200
G01 X26.5383 Y15.6175
G01 X26.5296 Y15.6139
G01 X26.5211 Y15.6093
G01 X26.5131 Y15.6037
G01 X26.5059 Y15.5972
G01 X26.4994 Y15.5899
G01 X26.4938 Y15.5820
G01 X26.4891 Y15.5734
G01 X26.4856 Y15.5647
G01 X26.4830 Y15.5557
G01 X26.4815 Y15.5464
G01 X26.4810 Y15.5371
G01 X26.4810 Y13.9371
G01 X26.4815 Y13.9277
G01 X26.4830 Y13.9185
G01 X26.4856 Y13.9094
G01 X26.4891 Y13.9007
G01 X26.4938 Y13.8922
G01 X26.4994 Y13.8842
G01 X26.5059 Y13.8770
G01 X26.5131 Y13.8705
G01 X26.5211 Y13.8649
G01 X26.5296 Y13.8602
G01 X26.5383 Y13.8567
G00 Z10.0000
G00 X26.4642 Y13.7219
G01 F76.20
G01 Z-0.1000
G01 F76.20
G01 X26.4885 Y13.7120
G01 X26.5138 Y13.7049
G01 X26.5397 Y13.7005
G01 X26.5660 Y13.6991
G01 X28.1660 Y13.6991
G01 X28.1922 Y13.7005
G01 X28.2181 Y13.7049
G01 X28.2434 Y13.7120
G01 X28.2677 Y13.7219
G01 X28.2916 Y13.7350
G01 X28.3139 Y13.7507
G01 X28.3343 Y13.7688
G01 X28.3524 Y13.7891
G01 X28.3681 Y13.8114
G01 X28.3811 Y13.8353
G01 X28.3910 Y13.8597
G01 X28.3982 Y13.8849
G01 X28.4025 Y13.9108
G01 X28.4040 Y13.9371
G01 X28.4040 Y15.5371
G01 X28.4025 Y15.5633
G01 X28.3982 Y15.5892
G01 X28.3910 Y15.6145
G01 X28.3811 Y15.6388
G01 X28.3681 Y15.6628
G01 X28.3524 Y15.6850
G01 X28.3343 Y15.7054
G01 X28.3139 Y15.7235
G01 X28.2916 Y15.7392
G01 X28.2677 Y15.7522
G01 X28.2434 Y15.7621
G01 X28.2181 Y15.7693
G01 X28.1922 Y15.7736
G01 X28.1660 Y15.7751
G01 X26.5660 Y15.7751
G01 X26.5397 Y15.7736
G01 X26.5138 Y15.7693
G01 X26.4885 Y15.7621
G01 X26.4642 Y15.7522
G01 X26.4403 Y15.7392
G01 X26.4180 Y15.7235
G01 X26.3977 Y15.7054
G01 X26.3795 Y15.6850
G01 X26.3639 Y15.6628
G01 X26.3508 Y15.6388
G01 X26.3409 Y15.6145
G01 X26.3337 Y15.5892
G01 X26.3294 Y15.5633
G01 X26.3280 Y15.5371
G01 X26.3280 Y13.9371
G01 X26.3294 Y13.9108
G01 X26.3337 Y13.8849
G01 X26.3409 Y13.8597
G01 X26.3508 Y13.8353
G01 X26.3639 Y13.8114
G01 X26.3795 Y13.7891
G01 X26.3977 Y13.7688
G01 X26.4180 Y13.7507
G01 X26.4403 Y13.7350
G01 X26.4642 Y13.7219
G01 X26.4885 Y13.7120
G00 Z10.0000
G00 X18.5667 Y13.8245
G01 F76.20
G01 Z-0.1000
G01 F76.20
G01 X18.5667 Y13.7939
G01 X18.6236 Y13.8207
G01 X18.7918 Y13.9454
G01 X18.9324 Y14.1005
G01 X19.0191 Y14.2450
G01 X18.9872 Y14.2450
G01 X18.9603 Y14.1963
G01 X18.9461 Y14.1737
G01 X18.8942 Y14.1006
G01 X18.8776 Y14.0797
G01 X18.8178 Y14.0128
G01 X18.7989 Y13.9939
G01 X18.7320 Y13.9342
G01 X18.7316 Y13.9346
G01 X18.7112 Y13.9175
G01 X18.6353 Y13.8637
G01 X18.6154 Y13.8514
G01 X18.5667 Y13.8245
G01 X18.5667 Y13.7939
G00 Z10.0000
G00 X18.4137 Y13.9210
G01 F76.20
G01 Z-0.1000
G01 F76.20
G01 X18.4137 Y13.5926
G01 X18.4476 Y13.5740
G01 X18.4812 Y13.5842
G01 X18.7026 Y13.6888
G01 X18.8950 Y13.8315
G01 X19.0559 Y14.0089
G01 X19.1791 Y14.2144
G01 X19.2348 Y14.3699
G01 X19.2195 Y14.3980
G01 X18.8908 Y14.3980
G01 X18.8698 Y14.3489
G01 X18.8213 Y14.2623
G01 X18.7635 Y14.1816
G01 X18.7037 Y14.1148
G01 X18.6301 Y14.0482
G01 X18.5485 Y13.9897
G01 X18.4629 Y13.9419
G01 X18.4137 Y13.9210
G01 X18.4137 Y13.5926
G00 Z10.0000
G00 X18.4137 Y15.5532
G01 F76.20
G01 Z-0.1000
G01 F76.20
G01 X18.4629 Y15.5322
G01 X18.5495 Y15.4838
G01 X18.6301 Y15.4259
G01 X18.6970 Y15.3661
G01 X18.7635 Y15.2925
G01 X18.8220 Y15.2109
G01 X18.8698 Y15.1253
G01 X18.8908 Y15.0761
G01 X19.2195 Y15.0761
G01 X19.2348 Y15.1042
G01 X19.1791 Y15.2598
G01 X19.0559 Y15.4652
G01 X18.8950 Y15.6427
G01 X18.7026 Y15.7853
G01 X18.4812 Y15.8899
G01 X18.4476 Y15.9001
G01 X18.4137 Y15.8815
G01 X18.4137 Y15.5532
G01 X18.4629 Y15.5322
G00 Z10.0000
G00 X18.5667 Y15.6803
G01 F76.20
G01 Z-0.1000
G01 F76.20
G01 X18.5667 Y15.6497
G01 X18.6154 Y15.6228
G01 X18.6380 Y15.6086
G01 X18.7112 Y15.5566
G01 X18.7320 Y15.5400
G01 X18.7989 Y15.4802
G01 X18.8178 Y15.4614
G01 X18.8776 Y15.3945
G01 X18.8771 Y15.3941
G01 X18.8942 Y15.3736
G01 X18.9480 Y15.2977
G01 X18.9603 Y15.2778
G01 X18.9872 Y15.2291
G01 X19.0191 Y15.2291
G01 X18.9324 Y15.3736
G01 X18.7918 Y15.5287
G01 X18.6236 Y15.6534
G01 X18.5667 Y15.6803
G01 X18.5667 Y15.6497
G00 Z10.0000
G00 X16.7256 Y14.2971
G01 F76.20
G01 Z-0.1000
G01 F76.20
G01 X16.7538 Y14.3110
G01 X16.7937 Y14.3267
G01 X16.8070 Y14.3311
G01 X16.8484 Y14.3423
G01 X16.8621 Y14.3452
G01 X16.9045 Y14.3518
G01 X16.9474 Y14.3546
G01 X16.9438 Y14.3646
G01 X16.9190 Y14.4508
G01 X16.9092 Y14.4936
G01 X16.8942 Y14.5820
G01 X16.8893 Y14.6256
G01 X16.8836 Y14.7371
G01 X16.8893 Y14.8486
G01 X16.8900 Y14.8485
G01 X16.8942 Y14.8921
G01 X16.9108 Y14.9892
G01 X16.9190 Y15.0233
G01 X16.9438 Y15.1095
G01 X16.9473 Y15.1196
G01 X16.9045 Y15.1224
G01 X16.9046 Y15.1234
G01 X16.8621 Y15.1290
G01 X16.8484 Y15.1319
G01 X16.8070 Y15.1431
G01 X16.7910 Y15.1484
G01 X16.7538 Y15.1632
G01 X16.7256 Y15.1771
G01 X16.7256 Y14.2971
G01 X16.7538 Y14.3110
G00 Z10.0000
G00 X16.6012 Y13.8859
G01 F76.20
G01 Z-0.1000
G01 F76.20
G01 X16.6042 Y13.9051
G01 X16.6087 Y13.9253
G01 X16.6205 Y13.9636
G01 X16.6261 Y13.9777
G01 X16.6429 Y14.0127
G01 X16.6641 Y14.0467
G01 X16.6798 Y14.0675
G01 X16.7022 Y14.0927
G01 X16.7169 Y14.1068
G01 X16.7369 Y14.1237
G01 X16.7512 Y14.1345
G01 X16.7696 Y14.1467
G01 X16.8047 Y14.1661
G01 X16.8417 Y14.1814
G01 X16.8550 Y14.1858
G01 X16.8939 Y14.1955
G01 X16.9336 Y14.2009
G01 X16.9597 Y14.2021
G01 X16.9997 Y14.2002
G01 X17.0194 Y14.1978
G01 X17.0393 Y14.1940
G01 X17.0779 Y14.1835
G01 X17.0923 Y14.1784
G01 X17.1278 Y14.1627
G01 X17.1625 Y14.1427
G01 X17.1948 Y14.1190
G01 X17.2243 Y14.0918
G01 X17.3575 Y13.9454
G01 X17.5257 Y13.8207
G01 X17.5826 Y13.7939
G01 X17.5826 Y13.8245
G01 X17.5339 Y13.8514
G01 X17.5113 Y13.8656
G01 X17.4381 Y13.9175
G01 X17.4173 Y13.9342
G01 X17.3504 Y13.9939
G01 X17.3315 Y14.0128
G01 X17.2717 Y14.0797
G01 X17.2721 Y14.0801
G01 X17.2551 Y14.1006
G01 X17.2013 Y14.1765
G01 X17.1890 Y14.1963
G01 X17.1456 Y14.2748
G01 X17.1340 Y14.2989
G01 X17.0997 Y14.3818
G01 X17.0908 Y14.4070
G01 X17.0660 Y14.4932
G01 X17.0601 Y14.5192
G01 X17.0450 Y14.6076
G01 X17.0420 Y14.6342
G01 X17.0366 Y14.7371
G01 X17.0420 Y14.8400
G01 X17.0450 Y14.8665
G01 X17.0610 Y14.9602
G01 X17.0660 Y14.9810
G01 X17.0908 Y15.0672
G01 X17.0997 Y15.0924
G01 X17.1345 Y15.1765
G01 X17.1456 Y15.1993
G01 X17.1890 Y15.2778
G01 X17.2032 Y15.3004
G01 X17.2551 Y15.3736
G01 X17.2717 Y15.3945
G01 X17.3315 Y15.4614
G01 X17.3504 Y15.4802
G01 X17.4173 Y15.5400
G01 X17.4176 Y15.5396
G01 X17.4381 Y15.5566
G01 X17.5140 Y15.6105
G01 X17.5339 Y15.6228
G01 X17.5826 Y15.6497
G01 X17.5826 Y15.6803
G01 X17.5257 Y15.6534
G01 X17.3575 Y15.5287
G01 X17.2243 Y15.3823
G01 X17.1948 Y15.3552
G01 X17.1625 Y15.3315
G01 X17.1500 Y15.3237
G01 X17.1152 Y15.3054
G01 X17.0911 Y15.2953
G01 X17.0529 Y15.2833
G01 X17.0135 Y15.2756
G01 X16.9997 Y15.2739
G01 X16.9736 Y15.2722
G01 X16.9572 Y15.2721
G01 X16.9197 Y15.2746
G01 X16.9197 Y15.2753
G01 X16.8939 Y15.2786
G01 X16.8550 Y15.2884
G01 X16.8401 Y15.2933
G01 X16.8044 Y15.3083
G01 X16.7696 Y15.3274
G01 X16.7480 Y15.3420
G01 X16.7169 Y15.3674
G01 X16.7022 Y15.3814
G01 X16.6889 Y15.3960
G01 X16.6641 Y15.4275
G01 X16.6552 Y15.4407
G01 X16.6364 Y15.4738
G01 X16.6256 Y15.4976
G01 X16.6124 Y15.5354
G01 X16.6087 Y15.5489
G01 X16.6012 Y15.5882
G01 X16.5852 Y15.6409
G01 X16.5602 Y15.6878
G01 X16.5264 Y15.7289
G01 X16.4853 Y15.7626
G01 X16.4384 Y15.7877
G01 X16.3876 Y15.8031
G01 X16.3167 Y15.8101
G01 X14.7526 Y15.8101
G01 X14.6817 Y15.8031
G01 X14.6308 Y15.7877
G01 X14.5839 Y15.7626
G01 X14.5428 Y15.7289
G01 X14.5091 Y15.6878
G01 X14.4840 Y15.6409
G01 X14.4686 Y15.5900
G01 X14.4616 Y15.5191
G01 X14.4616 Y13.9550
G01 X14.4686 Y13.8842
G01 X14.4840 Y13.8333
G01 X14.5091 Y13.7864
G01 X14.5428 Y13.7453
G01 X14.5839 Y13.7116
G01 X14.6308 Y13.6865
G01 X14.6817 Y13.6710
G01 X14.7526 Y13.6641
G01 X16.3167 Y13.6641
G01 X16.3876 Y13.6710
G01 X16.4384 Y13.6865
G01 X16.4853 Y13.7116
G01 X16.5264 Y13.7453
G01 X16.5602 Y13.7864
G01 X16.5852 Y13.8333
G01 X16.6012 Y13.8859
G01 X16.6042 Y13.9051
G00 Z10.0000
G00 X16.7520 Y13.8579
G01 F76.20
G01 Z-0.1000
G01 F76.20
G01 X16.7549 Y13.8783
G01 X16.7601 Y13.8990
G01 X16.7683 Y13.9212
G01 X16.7784 Y13.9417
G01 X16.7910 Y13.9613
G01 X16.8056 Y13.9794
G01 X16.8222 Y13.9957
G01 X16.8416 Y14.0111
G01 X16.8601 Y14.0226
G01 X16.8811 Y14.0327
G01 X16.9030 Y14.0405
G01 X16.9257 Y14.0459
G01 X16.9488 Y14.0487
G01 X16.9720 Y14.0489
G01 X16.9973 Y14.0464
G01 X17.0180 Y14.0419
G01 X17.0405 Y14.0344
G01 X17.0613 Y14.0249
G01 X17.0813 Y14.0130
G01 X17.0998 Y13.9990
G01 X17.1200 Y13.9796
G01 X17.2543 Y13.8315
G01 X17.4467 Y13.6888
G01 X17.6681 Y13.5842
G01 X17.7017 Y13.5740
G01 X17.7356 Y13.5926
G01 X17.7356 Y13.9210
G01 X17.6864 Y13.9419
G01 X17.6079 Y13.9853
G01 X17.5998 Y13.9904
G01 X17.5192 Y14.0482
G01 X17.4523 Y14.1080
G01 X17.3858 Y14.1816
G01 X17.3273 Y14.2632
G01 X17.2795 Y14.3489
G01 X17.2753 Y14.3574
G01 X17.2379 Y14.4493
G01 X17.2109 Y14.5448
G01 X17.1959 Y14.6333
G01 X17.1896 Y14.7371
G01 X17.1959 Y14.8409
G01 X17.2112 Y14.9312
G01 X17.2379 Y15.0248
G01 X17.2755 Y15.1172
G01 X17.3229 Y15.2038
G01 X17.3279 Y15.2119
G01 X17.3858 Y15.2925
G01 X17.4456 Y15.3594
G01 X17.5192 Y15.4259
G01 X17.5267 Y15.4319
G01 X17.6079 Y15.4889
G01 X17.6864 Y15.5322
G01 X17.7356 Y15.5532
G01 X17.7356 Y15.8815
G01 X17.7017 Y15.9001
G01 X17.6681 Y15.8899
G01 X17.4467 Y15.7853
G01 X17.2543 Y15.6427
G01 X17.1200 Y15.4945
G01 X17.1068 Y15.4814
G01 X17.0889 Y15.4665
G01 X17.0692 Y15.4536
G01 X17.0487 Y15.4432
G01 X17.0401 Y15.4396
G01 X17.0180 Y15.4323
G01 X17.0044 Y15.4291
G01 X16.9952 Y15.4275
G01 X16.9720 Y15.4252
G01 X16.9488 Y15.4255
G01 X16.9257 Y15.4283
G01 X16.9030 Y15.4336
G01 X16.8811 Y15.4414
G01 X16.8601 Y15.4516
G01 X16.8404 Y15.4640
G01 X16.8222 Y15.4784
G01 X16.8104 Y15.4896
G01 X16.7966 Y15.5055
G01 X16.7910 Y15.5129
G01 X16.7784 Y15.5325
G01 X16.7681 Y15.5533
G01 X16.7630 Y15.5663
G01 X16.7565 Y15.5887
G01 X16.7515 Y15.6200
G01 X16.7273 Y15.6997
G01 X16.6880 Y15.7732
G01 X16.6351 Y15.8376
G01 X16.5707 Y15.8904
G01 X16.4973 Y15.9297
G01 X16.4176 Y15.9539
G01 X16.3242 Y15.9631
G01 X14.7451 Y15.9631
G01 X14.6517 Y15.9539
G01 X14.5720 Y15.9297
G01 X14.4985 Y15.8904
G01 X14.4341 Y15.8376
G01 X14.3813 Y15.7732
G01 X14.3420 Y15.6997
G01 X14.3178 Y15.6200
G01 X14.3086 Y15.5267
G01 X14.3086 Y13.9475
G01 X14.3178 Y13.8542
G01 X14.3420 Y13.7744
G01 X14.3813 Y13.7010
G01 X14.4341 Y13.6366
G01 X14.4985 Y13.5837
G01 X14.5720 Y13.5444
G01 X14.6517 Y13.5203
G01 X14.7451 Y13.5111
G01 X16.3242 Y13.5111
G01 X16.4176 Y13.5203
G01 X16.4973 Y13.5444
G01 X16.5707 Y13.5837
G01 X16.6351 Y13.6366
G01 X16.6880 Y13.7010
G01 X16.7273 Y13.7744
G01 X16.7515 Y13.8542
G01 X16.7520 Y13.8579
G01 X16.7549 Y13.8783
G00 Z10.0000
G00 X14.6983 Y13.8602
G01 F76.20
G01 Z-0.1000
G01 F76.20
G01 X14.7070 Y13.8567
G01 X14.7160 Y13.8541
G01 X14.7253 Y13.8526
G01 X14.7346 Y13.8521
G01 X16.3346 Y13.8521
G01 X16.3440 Y13.8526
G01 X16.3533 Y13.8541
G01 X16.3623 Y13.8567
G01 X16.3710 Y13.8602
G01 X16.3795 Y13.8649
G01 X16.3875 Y13.8705
G01 X16.3947 Y13.8770
G01 X16.4012 Y13.8842
G01 X16.4068 Y13.8922
G01 X16.4115 Y13.9007
G01 X16.4150 Y13.9094
G01 X16.4176 Y13.9185
G01 X16.4191 Y13.9277
G01 X16.4196 Y13.9371
G01 X16.4196 Y15.5371
G01 X16.4191 Y15.5464
G01 X16.4176 Y15.5557
G01 X16.4150 Y15.5647
G01 X16.4115 Y15.5734
G01 X16.4068 Y15.5820
G01 X16.4012 Y15.5899
G01 X16.3947 Y15.5972
G01 X16.3875 Y15.6037
G01 X16.3795 Y15.6093
G01 X16.3710 Y15.6139
G01 X16.3623 Y15.6175
G01 X16.3533 Y15.6200
G01 X16.3440 Y15.6216
G01 X16.3346 Y15.6221
G01 X14.7346 Y15.6221
G01 X14.7253 Y15.6216
G01 X14.7160 Y15.6200
G01 X14.7070 Y15.6175
G01 X14.6983 Y15.6139
G01 X14.6898 Y15.6093
G01 X14.6818 Y15.6037
G01 X14.6745 Y15.5972
G01 X14.6681 Y15.5899
G01 X14.6625 Y15.5820
G01 X14.6578 Y15.5734
G01 X14.6543 Y15.5647
G01 X14.6517 Y15.5557
G01 X14.6502 Y15.5464
G01 X14.6496 Y15.5371
G01 X14.6496 Y13.9371
G01 X14.6502 Y13.9277
G01 X14.6517 Y13.9185
G01 X14.6543 Y13.9094
G01 X14.6578 Y13.9007
G01 X14.6625 Y13.8922
G01 X14.6681 Y13.8842
G01 X14.6745 Y13.8770
G01 X14.6818 Y13.8705
G01 X14.6898 Y13.8649
G01 X14.6983 Y13.8602
G01 X14.7070 Y13.8567
G00 Z10.0000
G00 X14.6329 Y13.7219
G01 F76.20
G01 Z-0.1000
G01 F76.20
G01 X14.6572 Y13.7120
G01 X14.6825 Y13.7049
G01 X14.7084 Y13.7005
G01 X14.7346 Y13.6991
G01 X16.3346 Y13.6991
G01 X16.3609 Y13.7005
G01 X16.3868 Y13.7049
G01 X16.4121 Y13.7120
G01 X16.4364 Y13.7219
G01 X16.4603 Y13.7350
G01 X16.4826 Y13.7507
G01 X16.5029 Y13.7688
G01 X16.5211 Y13.7891
G01 X16.5367 Y13.8114
G01 X16.5498 Y13.8353
G01 X16.5597 Y13.8597
G01 X16.5669 Y13.8849
G01 X16.5712 Y13.9108
G01 X16.5726 Y13.9371
G01 X16.5726 Y15.5371
G01 X16.5712 Y15.5633
G01 X16.5669 Y15.5892
G01 X16.5597 Y15.6145
G01 X16.5498 Y15.6388
G01 X16.5367 Y15.6628
G01 X16.5211 Y15.6850
G01 X16.5029 Y15.7054
G01 X16.4826 Y15.7235
