(G-CODE GENERATED BY FLATCAM v8.912 - www.flatcam.org - Version Date: 2019/03/17)

(Name: Board-Edge_Cuts.gbr_cutout_cnc)
(Type: G-code from Geometry)
(Units: MM)

(Created on Monday, 25 March 2019 at 16:05)

(TOOL DIAMETER: 0.8 mm)
(Feedrate: 76.2 mm/min)
(Feedrate_Z: 76.2 mm/min)
(Feedrate rapids 1000.0 mm/min)

(Z_Cut: -2.2 mm)
(Z_Move: 10.0 mm)
(Z Toolchange: 25.4 mm)
(X,Y Toolchange: 0.0000, 0.0000 mm)
(Z Start: None mm)
(Z End: 100.0 mm)
(Steps per circle: 64)
(Postprocessor Geometry: default)

(X range:   -0.6396 ...   97.2305  mm)
(Y range:   -0.6166 ...  115.2874  mm)

(Spindle Speed: 18000 RPM)
G94 ( Millimeters per minute feed rate. )
G21 ( Units == Millimeters. )
G90 ( Absolute coordinates. )
G64 P0.01000 ( set maximum deviation from commanded toolpath )



G21
G90
G94

G01 F76.20
G00 Z10.0000

M03 S18000
G00 X47.8454 Y-0.6166
G01 F76.20
G01 Z-2.2000
G01 F76.20
G01 X-0.0396 Y-0.6166
G01 X-0.0984 Y-0.6138
G01 X-0.1566 Y-0.6051
G01 X-0.2138 Y-0.5908
G01 X-0.2692 Y-0.5710
G01 X-0.3224 Y-0.5458
G01 X-0.3729 Y-0.5155
G01 X-0.4202 Y-0.4805
G01 X-0.4639 Y-0.4409
G01 X-0.5034 Y-0.3973
G01 X-0.5385 Y-0.3500
G01 X-0.5687 Y-0.2995
G01 X-0.5939 Y-0.2463
G01 X-0.6138 Y-0.1908
G01 X-0.6281 Y-0.1337
G01 X-0.6367 Y-0.0755
G01 X-0.6396 Y-0.0166
G01 X-0.6396 Y56.8854
G00 Z10.0000
G00 X-0.6396 Y58.1854
G01 F76.20
G01 Z-2.2000
G01 F76.20
G01 X-0.6396 Y114.6874
G01 X-0.6367 Y114.7462
G01 X-0.6281 Y114.8045
G01 X-0.6138 Y114.8616
G01 X-0.5939 Y114.9170
G01 X-0.5687 Y114.9703
G01 X-0.5385 Y115.0208
G01 X-0.5034 Y115.0681
G01 X-0.4639 Y115.1117
G01 X-0.4202 Y115.1512
G01 X-0.3729 Y115.1863
G01 X-0.3224 Y115.2166
G01 X-0.2692 Y115.2418
G01 X-0.2138 Y115.2616
G01 X-0.1566 Y115.2759
G01 X-0.0984 Y115.2845
G01 X-0.0396 Y115.2874
G01 X47.8454 Y115.2874
G00 Z10.0000
G00 X49.1454 Y115.2874
G01 F76.20
G01 Z-2.2000
G01 F76.20
G01 X96.6305 Y115.2874
G01 X96.6893 Y115.2845
G01 X96.7475 Y115.2759
G01 X96.8047 Y115.2616
G01 X96.8601 Y115.2418
G01 X96.9133 Y115.2166
G01 X96.9638 Y115.1863
G01 X97.0111 Y115.1512
G01 X97.0547 Y115.1117
G01 X97.0943 Y115.0681
G01 X97.1294 Y115.0208
G01 X97.1596 Y114.9703
G01 X97.1848 Y114.9170
G01 X97.2046 Y114.8616
G01 X97.2190 Y114.8045
G01 X97.2276 Y114.7462
G01 X97.2305 Y114.6874
G01 X97.2305 Y58.1854
G00 Z10.0000
G00 X97.2305 Y56.8854
G01 F76.20
G01 Z-2.2000
G01 F76.20
G01 X97.2305 Y-0.0166
G01 X97.2276 Y-0.0755
G01 X97.2190 Y-0.1337
G01 X97.2046 Y-0.1908
G01 X97.1848 Y-0.2463
G01 X97.1596 Y-0.2995
G01 X97.1294 Y-0.3500
G01 X97.0943 Y-0.3973
G01 X97.0547 Y-0.4409
G01 X97.0111 Y-0.4805
G01 X96.9638 Y-0.5155
G01 X96.9133 Y-0.5458
G01 X96.8601 Y-0.5710
G01 X96.8047 Y-0.5908
G01 X96.7475 Y-0.6051
G01 X96.6893 Y-0.6138
G01 X96.6305 Y-0.6166
G00 Z10.0000
G00 X96.6305 Y-0.6166
G01 F76.20
G01 Z-2.2000
G01 F76.20
G01 X49.1454 Y-0.6166
G00 Z10.0000
M05
G00 Z10.0000
G00 Z100.00
G00 X0.0 Y0.0

G04 P0 ( dwell for no time -- G64 should not smooth over this point )
G00 Z10.000 ( retract )

M5 ( Spindle off. )
M9 ( Coolant off. )
M2 ( Program end. )