(G-CODE GENERATED BY FLATCAM v8.912 - www.flatcam.org - Version Date: 2019/03/17)

(Name: Board-B_Cu.gbr_iso_cnc)
(Type: G-code from Geometry)
(Units: MM)

(Created on Monday, 25 March 2019 at 16:05)

(TOOL DIAMETER: 0.17 mm)
(Feedrate: 76.2 mm/min)
(Feedrate_Z: 76.2 mm/min)
(Feedrate rapids 1000.0 mm/min)

(Z_Cut: -0.1 mm)
(Z_Move: 10.0 mm)
(Z Toolchange: 25.4 mm)
(X,Y Toolchange: 0.0000, 0.0000 mm)
(Z Start: None mm)
(Z End: 100.0 mm)
(Steps per circle: 64)
(Postprocessor Geometry: default)

(X range:    0.2274 ...   96.3635  mm)
(Y range:    0.2503 ...  114.4205  mm)

(Spindle Speed: 18000 RPM)
G94 ( Millimeters per minute feed rate. )
G21 ( Units == Millimeters. )
G90 ( Absolute coordinates. )
G64 P0.01000 ( set maximum deviation from commanded toolpath )



G21
G90
G94

G01 F76.20
G00 Z10.0000

M03 S18000
G00 X6.9764 Y7.2635
G01 F76.20
G01 Z-0.1000
G01 F76.20
G01 X6.9104 Y7.5952
G01 X6.7810 Y7.9077
G01 X6.5931 Y8.1889
G01 X6.3539 Y8.4280
G01 X6.0727 Y8.6159
G01 X5.7603 Y8.7453
G01 X5.4285 Y8.8113
G01 X5.0903 Y8.8113
G01 X4.7586 Y8.7453
G01 X4.4462 Y8.6159
G01 X4.1650 Y8.4280
G01 X3.9258 Y8.1889
G01 X3.7379 Y7.9077
G01 X3.6085 Y7.5952
G01 X3.5425 Y7.2635
G01 X3.5425 Y6.9253
G01 X3.6085 Y6.5936
G01 X3.7379 Y6.2811
G01 X3.9258 Y5.9999
G01 X4.1650 Y5.7608
G01 X4.4462 Y5.5729
G01 X4.7586 Y5.4434
G01 X5.0903 Y5.3775
G01 X5.4285 Y5.3775
G01 X5.7603 Y5.4434
G01 X6.0727 Y5.5729
G01 X6.3539 Y5.7608
G01 X6.5931 Y5.9999
G01 X6.7810 Y6.2811
G01 X6.9104 Y6.5936
G01 X6.9764 Y6.9253
G01 X6.9764 Y7.2635
G01 X6.9104 Y7.5952
G00 Z10.0000
G00 X7.1294 Y7.2786
G01 F76.20
G01 Z-0.1000
G01 F76.20
G01 X7.0575 Y7.6398
G01 X6.9166 Y7.9801
G01 X6.7119 Y8.2864
G01 X6.4515 Y8.5469
G01 X6.1452 Y8.7515
G01 X5.8049 Y8.8925
G01 X5.4436 Y8.9643
G01 X5.0753 Y8.9643
G01 X4.7140 Y8.8925
G01 X4.3737 Y8.7515
G01 X4.0674 Y8.5469
G01 X3.8070 Y8.2864
G01 X3.6023 Y7.9801
G01 X3.4614 Y7.6398
G01 X3.3895 Y7.2786
G01 X3.3895 Y6.9102
G01 X3.4614 Y6.5489
G01 X3.6023 Y6.2086
G01 X3.8070 Y5.9024
G01 X4.0674 Y5.6419
G01 X4.3737 Y5.4373
G01 X4.7140 Y5.2963
G01 X5.0753 Y5.2245
G01 X5.4436 Y5.2245
G01 X5.8049 Y5.2963
G01 X6.1452 Y5.4373
G01 X6.4515 Y5.6419
G01 X6.7119 Y5.9024
G01 X6.9166 Y6.2086
G01 X7.0575 Y6.5489
G01 X7.1294 Y6.9102
G01 X7.1294 Y7.2786
G01 X7.0575 Y7.6398
G00 Z10.0000
G00 X7.2824 Y7.2936
G01 F76.20
G01 Z-0.1000
G01 F76.20
G01 X7.2046 Y7.6845
G01 X7.0521 Y8.0526
G01 X6.8308 Y8.3839
G01 X6.5490 Y8.6657
G01 X6.2177 Y8.8871
G01 X5.8495 Y9.0396
G01 X5.4587 Y9.1173
G01 X5.0602 Y9.1173
G01 X4.6694 Y9.0396
G01 X4.3012 Y8.8871
G01 X3.9699 Y8.6657
G01 X3.6881 Y8.3839
G01 X3.4667 Y8.0526
G01 X3.3142 Y7.6845
G01 X3.2365 Y7.2936
G01 X3.2365 Y6.8951
G01 X3.3142 Y6.5043
G01 X3.4667 Y6.1362
G01 X3.6881 Y5.8048
G01 X3.9699 Y5.5231
G01 X4.3012 Y5.3017
G01 X4.6694 Y5.1492
G01 X5.0602 Y5.0715
G01 X5.4587 Y5.0715
G01 X5.8495 Y5.1492
G01 X6.2177 Y5.3017
G01 X6.5490 Y5.5231
G01 X6.8308 Y5.8048
G01 X7.0521 Y6.1362
G01 X7.2046 Y6.5043
G01 X7.2824 Y6.8951
G01 X7.2824 Y7.2936
G01 X7.2046 Y7.6845
G00 Z10.0000
G00 X11.4800 Y11.4481
G01 F76.20
G01 Z-0.1000
G01 F76.20
G01 X11.4842 Y11.4045
G01 X11.5218 Y11.1833
G01 X11.5315 Y11.1406
G01 X11.5936 Y10.9251
G01 X11.6081 Y10.8837
G01 X11.6948 Y10.6744
G01 X11.7129 Y10.6370
G01 X11.8214 Y10.4407
G01 X11.8448 Y10.4036
G01 X11.9745 Y10.2206
G01 X12.0019 Y10.1864
G01 X12.1513 Y10.0191
G01 X12.1823 Y9.9881
G01 X12.3496 Y9.8387
G01 X12.3502 Y9.8394
G01 X12.3838 Y9.8113
G01 X12.5712 Y9.6784
G01 X12.6039 Y9.6582
G01 X12.8002 Y9.5497
G01 X12.8397 Y9.5307
G01 X13.0469 Y9.4449
G01 X13.0883 Y9.4304
G01 X13.3038 Y9.3683
G01 X13.3465 Y9.3585
G01 X13.5677 Y9.3210
G01 X13.6112 Y9.3161
G01 X13.8352 Y9.3035
G01 X13.8571 Y9.3029
G01 X13.8790 Y9.3035
G01 X14.1029 Y9.3161
G01 X14.1029 Y9.3168
G01 X14.1465 Y9.3210
G01 X14.3763 Y9.3601
G01 X14.4104 Y9.3683
G01 X14.6259 Y9.4304
G01 X14.6673 Y9.4449
G01 X14.8766 Y9.5316
G01 X14.9140 Y9.5497
G01 X15.1103 Y9.6582
G01 X15.1474 Y9.6815
G01 X15.3303 Y9.8113
G01 X15.3646 Y9.8387
G01 X15.5318 Y9.9881
G01 X15.5628 Y10.0191
G01 X15.7123 Y10.1864
G01 X15.7116 Y10.1870
G01 X15.7396 Y10.2206
G01 X15.8725 Y10.4080
G01 X15.8927 Y10.4407
G01 X16.0012 Y10.6370
G01 X16.0203 Y10.6765
G01 X16.1061 Y10.8837
G01 X16.1206 Y10.9251
G01 X16.1827 Y11.1406
G01 X16.1924 Y11.1833
G01 X16.2300 Y11.4045
G01 X16.2349 Y11.4480
G01 X16.2475 Y11.6720
G01 X16.2481 Y11.6939
G01 X16.2475 Y11.7158
G01 X16.2349 Y11.9397
G01 X16.2341 Y11.9397
G01 X16.2300 Y11.9833
G01 X16.1908 Y12.2131
G01 X16.1827 Y12.2472
G01 X16.1206 Y12.4627
G01 X16.1061 Y12.5041
G01 X16.0194 Y12.7134
G01 X16.0012 Y12.7508
G01 X15.8927 Y12.9471
G01 X15.8694 Y12.9842
G01 X15.7396 Y13.1671
G01 X15.7123 Y13.2014
G01 X15.5628 Y13.3686
G01 X15.5318 Y13.3996
G01 X15.3646 Y13.5491
G01 X15.3640 Y13.5484
G01 X15.3303 Y13.5764
G01 X15.1429 Y13.7093
G01 X15.1103 Y13.7295
G01 X14.9140 Y13.8380
G01 X14.8745 Y13.8571
G01 X14.6673 Y13.9429
G01 X14.6259 Y13.9574
G01 X14.4104 Y14.0195
G01 X14.3676 Y14.0292
G01 X14.1465 Y14.0668
G01 X14.1029 Y14.0717
G01 X13.8790 Y14.0843
G01 X13.8571 Y14.0849
G01 X13.8352 Y14.0843
G01 X13.6112 Y14.0717
G01 X13.6113 Y14.0709
G01 X13.5677 Y14.0668
G01 X13.3379 Y14.0276
G01 X13.3038 Y14.0195
G01 X13.0883 Y13.9574
G01 X13.0469 Y13.9429
G01 X12.8376 Y13.8562
G01 X12.8002 Y13.8380
G01 X12.6039 Y13.7295
G01 X12.5668 Y13.7062
G01 X12.3838 Y13.5764
G01 X12.3496 Y13.5491
G01 X12.1823 Y13.3996
G01 X12.1513 Y13.3686
G01 X12.0019 Y13.2014
G01 X12.0026 Y13.2008
G01 X11.9745 Y13.1671
G01 X11.8416 Y12.9797
G01 X11.8214 Y12.9471
G01 X11.7129 Y12.7508
G01 X11.6939 Y12.7113
G01 X11.6081 Y12.5041
G01 X11.5936 Y12.4627
G01 X11.5315 Y12.2472
G01 X11.5218 Y12.2044
G01 X11.4842 Y11.9833
G01 X11.4793 Y11.9397
G01 X11.4667 Y11.7158
G01 X11.4661 Y11.6939
G01 X11.4667 Y11.6720
G01 X11.4793 Y11.4480
G01 X11.4800 Y11.4481
G01 X11.4842 Y11.4045
G00 Z10.0000
G00 X11.6325 Y11.4566
G01 F76.20
G01 Z-0.1000
G01 F76.20
G01 X11.6350 Y11.4301
G01 X11.6726 Y11.2090
G01 X11.6785 Y11.1830
G01 X11.7406 Y10.9674
G01 X11.7494 Y10.9422
G01 X11.8358 Y10.7338
G01 X11.8468 Y10.7110
G01 X11.9553 Y10.5147
G01 X11.9695 Y10.4921
G01 X12.0993 Y10.3092
G01 X12.1160 Y10.2883
G01 X12.2654 Y10.1211
G01 X12.2843 Y10.1022
G01 X12.4515 Y9.9528
G01 X12.4519 Y9.9532
G01 X12.4724 Y9.9361
G01 X12.6580 Y9.8044
G01 X12.6779 Y9.7921
G01 X12.8742 Y9.6836
G01 X12.8982 Y9.6721
G01 X13.1054 Y9.5862
G01 X13.1306 Y9.5774
G01 X13.3462 Y9.5153
G01 X13.3722 Y9.5094
G01 X13.5933 Y9.4718
G01 X13.6198 Y9.4688
G01 X13.8571 Y9.4559
G01 X14.0944 Y9.4688
G01 X14.1209 Y9.4718
G01 X14.3473 Y9.5103
G01 X14.3680 Y9.5153
G01 X14.5835 Y9.5774
G01 X14.6087 Y9.5862
G01 X14.8172 Y9.6726
G01 X14.8400 Y9.6836
G01 X15.0363 Y9.7921
G01 X15.0589 Y9.8063
G01 X15.2418 Y9.9361
G01 X15.2627 Y9.9528
G01 X15.4299 Y10.1022
G01 X15.4488 Y10.1211
G01 X15.5982 Y10.2883
G01 X15.5978 Y10.2887
G01 X15.6149 Y10.3092
G01 X15.7465 Y10.4948
G01 X15.7588 Y10.5147
G01 X15.8673 Y10.7110
G01 X15.8789 Y10.7350
G01 X15.9647 Y10.9422
G01 X15.9735 Y10.9674
G01 X16.0356 Y11.1830
G01 X16.0416 Y11.2090
G01 X16.0791 Y11.4301
G01 X16.0821 Y11.4566
G01 X16.0951 Y11.6939
G01 X16.0821 Y11.9312
G01 X16.0791 Y11.9577
G01 X16.0406 Y12.1841
G01 X16.0356 Y12.2048
G01 X15.9735 Y12.4203
G01 X15.9647 Y12.4455
G01 X15.8784 Y12.6540
G01 X15.8673 Y12.6768
G01 X15.7588 Y12.8731
G01 X15.7446 Y12.8957
G01 X15.6149 Y13.0786
G01 X15.5982 Y13.0995
G01 X15.4488 Y13.2667
G01 X15.4299 Y13.2856
G01 X15.2627 Y13.4350
G01 X15.2623 Y13.4346
G01 X15.2418 Y13.4516
G01 X15.0561 Y13.5833
G01 X15.0363 Y13.5956
G01 X14.8400 Y13.7041
G01 X14.8159 Y13.7157
G01 X14.6087 Y13.8015
G01 X14.5835 Y13.8103
G01 X14.3680 Y13.8724
G01 X14.3420 Y13.8784
G01 X14.1209 Y13.9159
G01 X14.0944 Y13.9189
G01 X13.8571 Y13.9319
G01 X13.6198 Y13.9189
G01 X13.5933 Y13.9159
G01 X13.3669 Y13.8774
G01 X13.3462 Y13.8724
G01 X13.1306 Y13.8103
G01 X13.1054 Y13.8015
G01 X12.8970 Y13.7152
G01 X12.8742 Y13.7041
G01 X12.6779 Y13.5956
G01 X12.6553 Y13.5814
G01 X12.4724 Y13.4516
G01 X12.4515 Y13.4350
G01 X12.2843 Y13.2856
G01 X12.2654 Y13.2667
G01 X12.1160 Y13.0995
G01 X12.1164 Y13.0991
G01 X12.0993 Y13.0786
G01 X11.9676 Y12.8929
G01 X11.9553 Y12.8731
G01 X11.8468 Y12.6768
G01 X11.8353 Y12.6527
G01 X11.7494 Y12.4455
G01 X11.7406 Y12.4203
G01 X11.6785 Y12.2048
G01 X11.6726 Y12.1788
G01 X11.6350 Y11.9577
G01 X11.6320 Y11.9312
G01 X11.6191 Y11.6939
G01 X11.6325 Y11.4566
G01 X11.6350 Y11.4301
G00 Z10.0000
G00 X11.7850 Y11.4652
G01 F76.20
G01 Z-0.1000
G01 F76.20
G01 X11.7859 Y11.4557
G01 X11.8234 Y11.2346
G01 X11.8256 Y11.2253
G01 X11.8876 Y11.0098
G01 X11.8908 Y11.0008
G01 X11.9766 Y10.7936
G01 X11.9808 Y10.7850
G01 X12.0892 Y10.5887
G01 X12.0943 Y10.5806
G01 X12.2241 Y10.3977
G01 X12.2300 Y10.3903
G01 X12.3795 Y10.2230
G01 X12.3862 Y10.2163
G01 X12.5535 Y10.0668
G01 X12.5609 Y10.0609
G01 X12.7448 Y9.9304
G01 X12.9482 Y9.8175
G01 X12.9568 Y9.8134
G01 X13.1640 Y9.7276
G01 X13.1730 Y9.7244
G01 X13.3885 Y9.6623
G01 X13.3978 Y9.6602
G01 X13.6189 Y9.6227
G01 X13.6284 Y9.6216
G01 X13.8571 Y9.6089
G01 X14.0858 Y9.6216
G01 X14.0953 Y9.6227
G01 X14.3182 Y9.6606
G01 X14.5412 Y9.7244
G01 X14.5502 Y9.7276
G01 X14.7574 Y9.8134
G01 X14.7660 Y9.8175
G01 X14.9623 Y9.9260
G01 X14.9703 Y9.9311
G01 X15.1533 Y10.0609
G01 X15.1607 Y10.0668
G01 X15.3279 Y10.2163
G01 X15.3347 Y10.2230
G01 X15.4841 Y10.3903
G01 X15.4901 Y10.3977
G01 X15.6205 Y10.5816
G01 X15.7334 Y10.7850
G01 X15.7376 Y10.7936
G01 X15.8234 Y11.0008
G01 X15.8265 Y11.0098
G01 X15.8886 Y11.2253
G01 X15.8907 Y11.2346
G01 X15.9283 Y11.4557
G01 X15.9294 Y11.4652
G01 X15.9421 Y11.6939
G01 X15.9294 Y11.9226
G01 X15.9283 Y11.9320
G01 X15.8904 Y12.1550
G01 X15.8265 Y12.3780
G01 X15.8234 Y12.3870
G01 X15.7376 Y12.5942
G01 X15.7334 Y12.6028
G01 X15.6249 Y12.7991
G01 X15.6199 Y12.8071
G01 X15.4901 Y12.9900
G01 X15.4841 Y12.9975
G01 X15.3347 Y13.1647
G01 X15.3279 Y13.1715
G01 X15.1607 Y13.3209
G01 X15.1533 Y13.3269
G01 X14.9694 Y13.4573
G01 X14.7660 Y13.5702
G01 X14.7574 Y13.5743
G01 X14.5502 Y13.6602
G01 X14.5412 Y13.6633
G01 X14.3257 Y13.7254
G01 X14.3164 Y13.7275
G01 X14.0953 Y13.7651
G01 X14.0858 Y13.7662
G01 X13.8571 Y13.7789
G01 X13.6284 Y13.7662
G01 X13.6189 Y13.7651
G01 X13.3959 Y13.7272
G01 X13.1730 Y13.6633
G01 X13.1640 Y13.6602
G01 X12.9568 Y13.5743
G01 X12.9482 Y13.5702
G01 X12.7519 Y13.4617
G01 X12.7438 Y13.4567
G01 X12.5609 Y13.3269
G01 X12.5535 Y13.3209
G01 X12.3862 Y13.1715
G01 X12.3795 Y13.1647
G01 X12.2300 Y12.9975
G01 X12.2241 Y12.9900
G01 X12.0936 Y12.8062
G01 X11.9808 Y12.6028
G01 X11.9766 Y12.5942
G01 X11.8908 Y12.3870
G01 X11.8876 Y12.3780
G01 X11.8256 Y12.1625
G01 X11.8234 Y12.1532
G01 X11.7859 Y11.9320
G01 X11.7848 Y11.9226
G01 X11.7721 Y11.6939
G01 X11.7850 Y11.4652
G01 X11.7859 Y11.4557
G00 Z10.0000
G00 X5.3000 Y14.9775
G01 F76.20
G01 Z-0.1000
G01 F76.20
G01 X5.3239 Y14.9905
G01 X5.3462 Y15.0062
G01 X5.3665 Y15.0243
G01 X5.3847 Y15.0447
G01 X5.4004 Y15.0670
G01 X5.4134 Y15.0909
G01 X5.4233 Y15.1152
G01 X5.4305 Y15.1405
G01 X5.4348 Y15.1664
G01 X5.4362 Y15.1926
G01 X5.4362 Y16.8926
G01 X5.4348 Y16.9189
G01 X5.4305 Y16.9448
G01 X5.4233 Y16.9701
G01 X5.4134 Y16.9944
G01 X5.4004 Y17.0183
G01 X5.3847 Y17.0406
G01 X5.3665 Y17.0609
G01 X5.3462 Y17.0791
G01 X5.3239 Y17.0948
G01 X5.3000 Y17.1078
G01 X5.2757 Y17.1177
G01 X5.2504 Y17.1249
G01 X5.2245 Y17.1292
G01 X5.1982 Y17.1306
G01 X3.4982 Y17.1306
G01 X3.4720 Y17.1292
G01 X3.4461 Y17.1249
G01 X3.4208 Y17.1177
G01 X3.3965 Y17.1078
G01 X3.3726 Y17.0948
G01 X3.3503 Y17.0791
G01 X3.3300 Y17.0609
G01 X3.3118 Y17.0406
G01 X3.2961 Y17.0183
G01 X3.2831 Y16.9944
G01 X3.2732 Y16.9701
G01 X3.2660 Y16.9448
G01 X3.2617 Y16.9189
G01 X3.2602 Y16.8926
G01 X3.2602 Y15.1926
G01 X3.2617 Y15.1664
G01 X3.2660 Y15.1405
G01 X3.2732 Y15.1152
G01 X3.2831 Y15.0909
G01 X3.2961 Y15.0670
G01 X3.3118 Y15.0447
G01 X3.3300 Y15.0243
G01 X3.3503 Y15.0062
G01 X3.3726 Y14.9905
G01 X3.3965 Y14.9775
G01 X3.4208 Y14.9676
G01 X3.4461 Y14.9604
G01 X3.4720 Y14.9561
G01 X3.4982 Y14.9546
G01 X5.1982 Y14.9546
G01 X5.2245 Y14.9561
G01 X5.2504 Y14.9604
G01 X5.2757 Y14.9676
G01 X5.3000 Y14.9775
G01 X5.3239 Y14.9905
G00 Z10.0000
G00 X5.2346 Y15.1158
G01 F76.20
G01 Z-0.1000
G01 F76.20
G01 X5.2431 Y15.1205
G01 X5.2511 Y15.1261
G01 X5.2583 Y15.1325
G01 X5.2648 Y15.1398
G01 X5.2704 Y15.1478
G01 X5.2751 Y15.1563
G01 X5.2786 Y15.1650
G01 X5.2812 Y15.1740
G01 X5.2827 Y15.1833
G01 X5.2832 Y15.1926
G01 X5.2832 Y16.8926
G01 X5.2827 Y16.9020
G01 X5.2812 Y16.9113
G01 X5.2786 Y16.9203
G01 X5.2751 Y16.9290
G01 X5.2704 Y16.9375
G01 X5.2648 Y16.9455
G01 X5.2583 Y16.9527
G01 X5.2511 Y16.9592
G01 X5.2431 Y16.9648
G01 X5.2346 Y16.9695
G01 X5.2259 Y16.9730
G01 X5.2169 Y16.9756
G01 X5.2076 Y16.9771
G01 X5.1982 Y16.9776
G01 X3.4982 Y16.9776
G01 X3.4889 Y16.9771
G01 X3.4796 Y16.9756
G01 X3.4706 Y16.9730
G01 X3.4619 Y16.9695
G01 X3.4534 Y16.9648
G01 X3.4454 Y16.9592
G01 X3.4381 Y16.9527
G01 X3.4317 Y16.9455
G01 X3.4261 Y16.9375
G01 X3.4214 Y16.9290
G01 X3.4179 Y16.9203
G01 X3.4153 Y16.9113
G01 X3.4138 Y16.9020
G01 X3.4132 Y16.8926
G01 X3.4132 Y15.1926
G01 X3.4138 Y15.1833
G01 X3.4153 Y15.1740
G01 X3.4179 Y15.1650
G01 X3.4214 Y15.1563
G01 X3.4261 Y15.1478
G01 X3.4317 Y15.1398
G01 X3.4381 Y15.1325
G01 X3.4454 Y15.1261
G01 X3.4534 Y15.1205
G01 X3.4619 Y15.1158
G01 X3.4706 Y15.1123
G01 X3.4796 Y15.1097
G01 X3.4889 Y15.1082
G01 X3.4982 Y15.1076
G01 X5.1982 Y15.1076
G01 X5.2076 Y15.1082
G01 X5.2169 Y15.1097
G01 X5.2259 Y15.1123
G01 X5.2346 Y15.1158
G01 X5.2431 Y15.1205
G00 Z10.0000
G00 X5.4713 Y16.8747
G01 F76.20
G01 Z-0.1000
G01 F76.20
G01 X5.4643 Y16.9456
G01 X5.4488 Y16.9964
G01 X5.4238 Y17.0433
G01 X5.3900 Y17.0844
G01 X5.3489 Y17.1182
G01 X5.3020 Y17.1432
G01 X5.2512 Y17.1587
G01 X5.1803 Y17.1656
G01 X3.5162 Y17.1656
G01 X3.4453 Y17.1587
G01 X3.3944 Y17.1432
G01 X3.3476 Y17.1182
G01 X3.3064 Y17.0844
G01 X3.2727 Y17.0433
G01 X3.2476 Y16.9964
G01 X3.2322 Y16.9456
G01 X3.2252 Y16.8747
G01 X3.2252 Y15.2106
G01 X3.2322 Y15.1397
G01 X3.2476 Y15.0888
G01 X3.2727 Y15.0419
G01 X3.3064 Y15.0008
G01 X3.3476 Y14.9671
G01 X3.3944 Y14.9420
G01 X3.4453 Y14.9266
G01 X3.5162 Y14.9196
G01 X5.1803 Y14.9196
G01 X5.2512 Y14.9266
G01 X5.3020 Y14.9420
G01 X5.3489 Y14.9671
G01 X5.3900 Y15.0008
G01 X5.4238 Y15.0419
G01 X5.4488 Y15.0888
G01 X5.4643 Y15.1397
G01 X5.4713 Y15.2106
G01 X5.4713 Y16.8747
G01 X5.4643 Y16.9456
G00 Z10.0000
G00 X5.6243 Y16.8822
G01 F76.20
G01 Z-0.1000
G01 F76.20
G01 X5.6151 Y16.9756
G01 X5.5909 Y17.0553
G01 X5.5516 Y17.1287
G01 X5.4988 Y17.1931
G01 X5.4344 Y17.2460
G01 X5.3609 Y17.2853
G01 X5.2812 Y17.3095
G01 X5.1878 Y17.3186
G01 X3.5087 Y17.3186
G01 X3.4153 Y17.3095
G01 X3.3356 Y17.2853
G01 X3.2621 Y17.2460
G01 X3.1977 Y17.1931
G01 X3.1449 Y17.1287
G01 X3.1056 Y17.0553
G01 X3.0814 Y16.9756
G01 X3.0722 Y16.8822
G01 X3.0722 Y15.2031
G01 X3.0814 Y15.1097
G01 X3.1056 Y15.0300
G01 X3.1449 Y14.9565
G01 X3.1977 Y14.8921
G01 X3.2621 Y14.8393
G01 X3.3356 Y14.8000
G01 X3.4153 Y14.7758
G01 X3.5087 Y14.7666
G01 X5.1878 Y14.7666
G01 X5.2812 Y14.7758
G01 X5.3609 Y14.8000
G01 X5.4344 Y14.8393
G01 X5.4988 Y14.8921
G01 X5.5516 Y14.9565
G01 X5.5909 Y15.0300
G01 X5.6151 Y15.1097
G01 X5.6243 Y15.2031
G01 X5.6243 Y16.8822
G01 X5.6151 Y16.9756
G00 Z10.0000
G00 X1.8418 Y24.0866
G01 F76.20
G01 Z-0.1000
G01 F76.20
G01 X1.8427 Y24.0771
G01 X1.8505 Y24.0346
G01 X1.8630 Y23.9933
G01 X1.8760 Y23.9617
G01 X1.8963 Y23.9241
G01 X1.9013 Y23.9160
G01 X1.9208 Y23.8886
G01 X1.9492 Y23.8560
G01 X2.7856 Y23.0195
G01 X2.8216 Y22.9878
G01 X2.8571 Y22.9633
G01 X2.8952 Y22.9428
G01 X2.9353 Y22.9268
G01 X2.9676 Y22.9175
G01 X3.0101 Y22.9097
G01 X3.0532 Y22.9068
G01 X3.9215 Y22.9066
G01 X3.9215 Y21.7918
G01 X3.9220 Y21.7824
G01 X3.9235 Y21.7732
G01 X3.9261 Y21.7641
G01 X3.9296 Y21.7555
G01 X3.9343 Y21.7469
G01 X3.9399 Y21.7390
G01 X3.9464 Y21.7317
G01 X3.9536 Y21.7252
G01 X3.9616 Y21.7196
G01 X3.9701 Y21.7150
G01 X3.9788 Y21.7114
G01 X3.9879 Y21.7089
G01 X3.9971 Y21.7073
G01 X4.0065 Y21.7068
G01 X5.1213 Y21.7068
G01 X5.1213 Y21.1918
G01 X5.1244 Y21.1440
G01 X5.1304 Y21.1089
G01 X5.1415 Y21.0691
G01 X5.1577 Y21.0286
G01 X5.1779 Y20.9910
G01 X5.1830 Y20.9829
G01 X5.2084 Y20.9480
G01 X5.2341 Y20.9195
G01 X9.7137 Y16.4399
G01 X9.7137 Y7.1069
G01 X9.7157 Y7.0685
G01 X9.7227 Y7.0240
G01 X9.7370 Y6.9753
G01 X9.7540 Y6.9356
G01 X9.7753 Y6.8980
G01 X9.7948 Y6.8706
G01 X9.8265 Y6.8346
G01 X12.3665 Y4.2946
G01 X12.4025 Y4.2629
G01 X12.4380 Y4.2384
G01 X12.4760 Y4.2180
G01 X12.5161 Y4.2019
G01 X12.5485 Y4.1926
G01 X12.5910 Y4.1849
G01 X12.6388 Y4.1818
G01 X34.3860 Y4.1819
G01 X34.4290 Y4.1849
G01 X34.4641 Y4.1908
G01 X34.5129 Y4.2051
G01 X34.5444 Y4.2182
G01 X34.5820 Y4.2384
G01 X34.5901 Y4.2435
G01 X34.6250 Y4.2689
G01 X34.6535 Y4.2946
G01 X35.6391 Y5.2801
G01 X35.6707 Y5.3161
G01 X35.6953 Y5.3516
G01 X35.7157 Y5.3897
G01 X35.7317 Y5.4298
G01 X35.7410 Y5.4621
G01 X35.7488 Y5.5046
G01 X35.7519 Y5.5524
G01 X35.7519 Y12.8270
G01 X35.7499 Y12.8654
G01 X35.7428 Y12.9099
G01 X35.7286 Y12.9587
G01 X35.7115 Y12.9983
G01 X35.6902 Y13.0359
G01 X35.6707 Y13.0633
G01 X35.6391 Y13.0993
G01 X34.2471 Y14.4913
G01 X34.2186 Y14.5170
G01 X34.1837 Y14.5424
G01 X34.1756 Y14.5475
G01 X34.1376 Y14.5679
G01 X34.0975 Y14.5839
G01 X34.0651 Y14.5932
G01 X34.0558 Y14.5953
G01 X34.0132 Y14.6020
G01 X33.9748 Y14.6041
G01 X29.6568 Y14.6041
G01 X29.6184 Y14.6020
G01 X29.5739 Y14.5950
G01 X29.5341 Y14.5839
G01 X29.4936 Y14.5677
G01 X29.4560 Y14.5475
G01 X29.4479 Y14.5424
G01 X29.4130 Y14.5170
G01 X29.3845 Y14.4913
G01 X28.8547 Y13.9615
G01 X28.8231 Y13.9255
G01 X28.8029 Y13.8971
G01 X28.7823 Y13.8605
G01 X28.7652 Y13.8209
G01 X28.7528 Y13.7795
G01 X28.7450 Y13.7370
G01 X28.7421 Y13.6940
G01 X28.7419 Y12.7905
G01 X28.6603 Y12.7457
G01 X28.6523 Y12.7406
G01 X28.5717 Y12.6827
G01 X28.5048 Y12.6229
G01 X28.4382 Y12.5493
G01 X28.3797 Y12.4677
G01 X28.3319 Y12.3821
G01 X28.3278 Y12.3735
G01 X28.2903 Y12.2816
G01 X28.2633 Y12.1861
G01 X28.2483 Y12.0977
G01 X28.2421 Y11.9939
G01 X28.2483 Y11.8901
G01 X28.2637 Y11.7997
G01 X28.2903 Y11.7061
G01 X28.3280 Y11.6138
G01 X28.3753 Y11.5271
G01 X28.3804 Y11.5191
G01 X28.4382 Y11.4384
G01 X28.4980 Y11.3716
G01 X28.5048 Y11.3648
G01 X28.5791 Y11.2991
G01 X28.6532 Y11.2465
G01 X28.7389 Y11.1987
G01 X28.8303 Y11.1602
G01 X28.9255 Y11.1323
G01 X28.9348 Y11.1301
G01 X29.0327 Y11.1140
G01 X29.1271 Y11.1089
G01 X29.2214 Y11.1140
G01 X29.2309 Y11.1151
G01 X29.3286 Y11.1323
G01 X29.4238 Y11.1602
G01 X29.5072 Y11.1948
G01 X29.5938 Y11.2421
G01 X29.6019 Y11.2472
G01 X29.6825 Y11.3050
G01 X29.7494 Y11.3648
G01 X29.8159 Y11.4384
G01 X29.8745 Y11.5200
G01 X29.9223 Y11.6057
G01 X29.9607 Y11.6971
G01 X29.9887 Y11.7923
G01 X29.9908 Y11.8016
G01 X30.0069 Y11.8995
G01 X30.0121 Y11.9939
G01 X30.0059 Y12.0977
G01 X29.9905 Y12.1880
G01 X29.9639 Y12.2816
G01 X29.9607 Y12.2906
G01 X29.9262 Y12.3740
G01 X29.8789 Y12.4606
G01 X29.8219 Y12.5419
G01 X29.7561 Y12.6162
G01 X29.6825 Y12.6827
G01 X29.6009 Y12.7413
G01 X29.5122 Y12.7905
G01 X29.5122 Y13.5297
G01 X29.8163 Y13.8338
G01 X33.8153 Y13.8338
G01 X34.9816 Y12.6675
G01 X34.9816 Y5.7120
G01 X34.2217 Y4.9521
G01 X12.7983 Y4.9521
G01 X10.4840 Y7.2665
G01 X10.4840 Y16.5995
G01 X10.4809 Y16.6473
G01 X10.4749 Y16.6824
G01 X10.4638 Y16.7221
G01 X10.4476 Y16.7627
G01 X10.4273 Y16.8003
G01 X10.4028 Y16.8358
G01 X10.3711 Y16.8718
G01 X5.8916 Y21.3513
G01 X5.8916 Y21.7068
G01 X7.0065 Y21.7068
G01 X7.0159 Y21.7073
G01 X7.0251 Y21.7089
G01 X7.0341 Y21.7114
G01 X7.0428 Y21.7150
G01 X7.0514 Y21.7196
G01 X7.0593 Y21.7252
G01 X7.0666 Y21.7317
G01 X7.0731 Y21.7390
G01 X7.0787 Y21.7469
G01 X7.0833 Y21.7555
G01 X7.0869 Y21.7641
G01 X7.0894 Y21.7732
G01 X7.0910 Y21.7824
G01 X7.0915 Y21.7918
G01 X7.0915 Y24.7918
G01 X7.0910 Y24.8012
G01 X7.0894 Y24.8104
G01 X7.0869 Y24.8195
G01 X7.0833 Y24.8281
G01 X7.0787 Y24.8367
G01 X7.0731 Y24.8446
G01 X7.0666 Y24.8519
G01 X7.0593 Y24.8584
G01 X7.0514 Y24.8640
G01 X7.0428 Y24.8686
G01 X7.0341 Y24.8722
G01 X7.0251 Y24.8747
G01 X7.0159 Y24.8763
G01 X7.0065 Y24.8768
G01 X4.0065 Y24.8768
G01 X3.9971 Y24.8763
G01 X3.9879 Y24.8747
G01 X3.9788 Y24.8722
G01 X3.9701 Y24.8686
G01 X3.9616 Y24.8640
G01 X3.9536 Y24.8584
G01 X3.9464 Y24.8519
G01 X3.9399 Y24.8446
G01 X3.9343 Y24.8367
G01 X3.9296 Y24.8281
G01 X3.9261 Y24.8195
G01 X3.9235 Y24.8104
G01 X3.9220 Y24.8012
G01 X3.9215 Y24.7918
G01 X3.9215 Y23.6770
G01 X3.2175 Y23.6770
G01 X2.6100 Y24.2845
G01 X2.6100 Y33.3634
G01 X10.7663 Y41.5198
G01 X15.1788 Y41.5198
G01 X15.2172 Y41.5218
G01 X15.2598 Y41.5285
G01 X15.2691 Y41.5306
G01 X15.3105 Y41.5431
G01 X15.3420 Y41.5562
G01 X15.3796 Y41.5764
G01 X15.3877 Y41.5815
G01 X15.4226 Y41.6069
G01 X15.4511 Y41.6326
G01 X16.4671 Y42.6486
G01 X16.4929 Y42.6771
G01 X16.5190 Y42.7130
G01 X16.5396 Y42.7496
G01 X16.5438 Y42.7582
G01 X16.5598 Y42.7983
G01 X16.5712 Y42.8399
G01 X16.5779 Y42.8825
G01 X16.5800 Y42.9209
G01 X16.5800 Y43.6483
G01 X16.6615 Y43.6931
G01 X16.7428 Y43.7501
G01 X16.8171 Y43.8159
G01 X16.8836 Y43.8895
G01 X16.8896 Y43.8969
G01 X16.9466 Y43.9782
G01 X16.9941 Y44.0653
G01 X17.0316 Y44.1572
G01 X17.0585 Y44.2527
G01 X17.0736 Y44.3411
G01 X17.0798 Y44.4449
G01 X17.0746 Y44.5393
G01 X17.0585 Y44.6372
G01 X17.0564 Y44.6465
G01 X17.0284 Y44.7417
G01 X16.9939 Y44.8250
G01 X16.9466 Y44.9117
G01 X16.9415 Y44.9197
G01 X16.8836 Y45.0004
G01 X16.8239 Y45.0672
G01 X16.7502 Y45.1338
G01 X16.7428 Y45.1397
G01 X16.6615 Y45.1967
G01 X16.5744 Y45.2442
G01 X16.4826 Y45.2817
G01 X16.3871 Y45.3087
G01 X16.2986 Y45.3237
G01 X16.1996 Y45.3298
G01 X16.1900 Y45.3298
G01 X16.0910 Y45.3237
G01 X16.0007 Y45.3083
G01 X15.9070 Y45.2817
G01 X15.8147 Y45.2440
G01 X15.7281 Y45.1967
G01 X15.6468 Y45.1397
G01 X15.5725 Y45.0740
G01 X15.5657 Y45.0672
G01 X15.5000 Y44.9929
G01 X15.4430 Y44.9117
G01 X15.3955 Y44.8246
G01 X15.3580 Y44.7327
G01 X15.3311 Y44.6372
G01 X15.3160 Y44.5487
G01 X15.3099 Y44.4497
G01 X15.3099 Y44.4402
G01 X15.3160 Y44.3411
G01 X15.3314 Y44.2508
G01 X15.3580 Y44.1572
G01 X15.3957 Y44.0648
G01 X15.4430 Y43.9782
G01 X15.5000 Y43.8969
G01 X15.5657 Y43.8226
G01 X15.6394 Y43.7561
G01 X15.7210 Y43.6975
G01 X15.8097 Y43.6483
G01 X15.8097 Y43.0805
G01 X15.0193 Y42.2901
G01 X10.6068 Y42.2901
G01 X10.5590 Y42.2870
G01 X10.5239 Y42.2810
G01 X10.4841 Y42.2699
G01 X10.4751 Y42.2668
G01 X10.4355 Y42.2497
G01 X10.3979 Y42.2284
G01 X10.3705 Y42.2089
G01 X10.3345 Y42.1773
G01 X1.9525 Y33.7953
G01 X1.9268 Y33.7667
G01 X1.9013 Y33.7318
G01 X1.8800 Y33.6943
G01 X1.8758 Y33.6857
G01 X1.8598 Y33.6456
G01 X1.8484 Y33.6039
G01 X1.8427 Y33.5708
G01 X1.8397 Y33.5229
G01 X1.8397 Y24.1249
G01 X1.8418 Y24.0866
G01 X1.8427 Y24.0771
G00 Z10.0000
G00 X1.6894 Y24.0780
G01 F76.20
G01 Z-0.1000
G01 F76.20
G01 X1.6919 Y24.0514
G01 X1.6985 Y24.0130
G01 X1.7035 Y23.9922
G01 X1.7128 Y23.9599
G01 X1.7216 Y23.9347
G01 X1.7350 Y23.9023
G01 X1.7461 Y23.8796
G01 X1.7624 Y23.8501
G01 X1.7766 Y23.8275
G01 X1.7960 Y23.8001
G01 X1.8127 Y23.7792
G01 X1.8443 Y23.7444
G01 X2.6774 Y22.9113
G01 X2.7122 Y22.8797
G01 X2.7126 Y22.8801
G01 X2.7331 Y22.8630
G01 X2.7632 Y22.8416
G01 X2.7831 Y22.8294
G01 X2.8126 Y22.8131
G01 X2.8366 Y22.8015
G01 X2.8677 Y22.7886
G01 X2.8929 Y22.7798
G01 X2.9252 Y22.7705
G01 X2.9513 Y22.7645
G01 X2.9845 Y22.7589
G01 X3.0110 Y22.7559
G01 X3.0579 Y22.7536
G01 X3.7685 Y22.7536
G01 X3.7685 Y21.7918
G01 X3.7699 Y21.7656
G01 X3.7743 Y21.7397
G01 X3.7814 Y21.7144
G01 X3.7913 Y21.6900
G01 X3.8044 Y21.6661
G01 X3.8201 Y21.6438
G01 X3.8382 Y21.6235
G01 X3.8585 Y21.6054
G01 X3.8808 Y21.5897
G01 X3.9047 Y21.5767
G01 X3.9291 Y21.5667
G01 X3.9543 Y21.5596
G01 X3.9803 Y21.5553
G01 X4.0065 Y21.5538
G01 X4.9683 Y21.5538
G01 X4.9683 Y21.1918
G01 X4.9706 Y21.1448
G01 X4.9736 Y21.1183
G01 X4.9792 Y21.0851
G01 X4.9852 Y21.0591
G01 X4.9945 Y21.0268
G01 X5.0033 Y21.0016
G01 X5.0167 Y20.9692
G01 X5.0278 Y20.9464
G01 X5.0440 Y20.9170
G01 X5.0582 Y20.8944
G01 X5.0777 Y20.8669
G01 X5.0944 Y20.8461
G01 X5.1260 Y20.8113
G01 X9.5607 Y16.3766
G01 X9.5607 Y7.1069
G01 X9.5629 Y7.0600
G01 X9.5659 Y7.0334
G01 X9.5725 Y6.9950
G01 X9.5775 Y6.9742
G01 X9.5868 Y6.9419
G01 X9.5956 Y6.9167
G01 X9.6090 Y6.8843
G01 X9.6201 Y6.8616
G01 X9.6364 Y6.8321
G01 X9.6506 Y6.8095
G01 X9.6700 Y6.7821
G01 X9.6867 Y6.7612
G01 X9.7183 Y6.7264
G01 X12.2583 Y4.1864
G01 X12.2931 Y4.1548
G01 X12.2934 Y4.1552
G01 X12.3139 Y4.1381
G01 X12.3441 Y4.1168
G01 X12.3640 Y4.1045
G01 X12.3934 Y4.0882
G01 X12.4175 Y4.0766
G01 X12.4486 Y4.0637
G01 X12.4738 Y4.0549
G01 X12.5061 Y4.0456
G01 X12.5321 Y4.0397
G01 X12.5653 Y4.0340
G01 X12.5919 Y4.0310
G01 X12.6388 Y4.0288
G01 X34.3945 Y4.0291
G01 X34.4282 Y4.0310
G01 X34.4547 Y4.0340
G01 X34.4931 Y4.0406
G01 X34.5139 Y4.0456
G01 X34.5462 Y4.0549
G01 X34.5714 Y4.0637
G01 X34.6038 Y4.0771
G01 X34.6266 Y4.0882
G01 X34.6560 Y4.1045
G01 X34.6786 Y4.1187
G01 X34.7061 Y4.1381
G01 X34.7269 Y4.1548
G01 X34.7617 Y4.1864
G01 X35.7473 Y5.1719
G01 X35.7789 Y5.2067
G01 X35.7784 Y5.2071
G01 X35.7955 Y5.2276
G01 X35.8169 Y5.2578
G01 X35.8292 Y5.2776
G01 X35.8455 Y5.3071
G01 X35.8570 Y5.3311
G01 X35.8699 Y5.3622
G01 X35.8787 Y5.3874
G01 X35.8880 Y5.4198
G01 X35.8940 Y5.4458
G01 X35.8996 Y5.4790
G01 X35.9026 Y5.5055
G01 X35.9049 Y5.5524
G01 X35.9049 Y12.8270
G01 X35.9026 Y12.8740
G01 X35.8996 Y12.9005
G01 X35.8930 Y12.9389
G01 X35.8880 Y12.9597
G01 X35.8787 Y12.9920
G01 X35.8699 Y13.0172
G01 X35.8565 Y13.0496
G01 X35.8455 Y13.0724
G01 X35.8292 Y13.1018
G01 X35.8150 Y13.1244
G01 X35.7955 Y13.1519
G01 X35.7789 Y13.1727
G01 X35.7564 Y13.1978
G01 X34.3553 Y14.5994
G01 X34.3205 Y14.6310
G01 X34.3202 Y14.6306
G01 X34.2997 Y14.6477
G01 X34.2695 Y14.6691
G01 X34.2496 Y14.6814
G01 X34.2202 Y14.6976
G01 X34.1961 Y14.7092
G01 X34.1650 Y14.7221
G01 X34.1398 Y14.7309
G01 X34.1075 Y14.7402
G01 X34.0815 Y14.7462
G01 X34.0483 Y14.7518
G01 X34.0218 Y14.7548
G01 X33.9748 Y14.7571
G01 X29.6568 Y14.7571
G01 X29.6099 Y14.7548
G01 X29.5833 Y14.7518
G01 X29.5449 Y14.7452
G01 X29.5241 Y14.7402
G01 X29.4918 Y14.7309
G01 X29.4666 Y14.7221
G01 X29.4342 Y14.7087
G01 X29.4114 Y14.6976
G01 X29.3820 Y14.6814
G01 X29.3594 Y14.6672
G01 X29.3319 Y14.6477
G01 X29.3111 Y14.6310
G01 X29.2763 Y14.5994
G01 X28.7374 Y14.0600
G01 X28.7150 Y14.0349
G01 X28.7154 Y14.0346
G01 X28.6983 Y14.0141
G01 X28.6769 Y13.9839
G01 X28.6646 Y13.9640
G01 X28.6484 Y13.9346
G01 X28.6368 Y13.9105
G01 X28.6239 Y13.8794
G01 X28.6151 Y13.8542
G01 X28.6058 Y13.8219
G01 X28.5998 Y13.7959
G01 X28.5942 Y13.7627
G01 X28.5912 Y13.7362
G01 X28.5889 Y13.6892
G01 X28.5889 Y12.8810
G01 X28.5637 Y12.8654
G01 X28.4906 Y12.8134
G01 X28.4697 Y12.7968
G01 X28.4028 Y12.7370
G01 X28.3839 Y12.7182
G01 X28.3242 Y12.6513
G01 X28.3246 Y12.6509
G01 X28.3075 Y12.6304
G01 X28.2537 Y12.5545
G01 X28.2414 Y12.5346
G01 X28.1980 Y12.4561
G01 X28.1864 Y12.4321
G01 X28.1521 Y12.3492
G01 X28.1433 Y12.3240
G01 X28.1184 Y12.2378
G01 X28.1125 Y12.2118
G01 X28.0975 Y12.1233
G01 X28.0945 Y12.0968
G01 X28.0891 Y11.9939
G01 X28.0945 Y11.8910
G01 X28.0975 Y11.8644
G01 X28.1135 Y11.7707
G01 X28.1184 Y11.7500
G01 X28.1433 Y11.6638
G01 X28.1521 Y11.6386
G01 X28.1870 Y11.5544
G01 X28.1980 Y11.5316
G01 X28.2414 Y11.4531
G01 X28.2556 Y11.4305
G01 X28.3075 Y11.3574
G01 X28.3242 Y11.3365
G01 X28.3839 Y11.2696
G01 X28.4028 Y11.2507
G01 X28.4697 Y11.1910
G01 X28.4701 Y11.1914
G01 X28.4906 Y11.1743
G01 X28.5665 Y11.1205
G01 X28.5863 Y11.1082
G01 X28.6649 Y11.0648
G01 X28.6889 Y11.0532
G01 X28.7718 Y11.0189
G01 X28.7970 Y11.0101
G01 X28.8832 Y10.9852
G01 X28.9092 Y10.9793
G01 X28.9976 Y10.9643
G01 X29.0242 Y10.9613
G01 X29.1271 Y10.9559
G01 X29.2300 Y10.9613
G01 X29.2565 Y10.9643
G01 X29.3502 Y10.9803
G01 X29.3710 Y10.9852
G01 X29.4572 Y11.0101
G01 X29.4824 Y11.0189
G01 X29.5665 Y11.0538
G01 X29.5893 Y11.0648
G01 X29.6678 Y11.1082
G01 X29.6904 Y11.1224
G01 X29.7636 Y11.1743
G01 X29.7845 Y11.1910
G01 X29.8514 Y11.2507
G01 X29.8702 Y11.2696
G01 X29.9300 Y11.3365
G01 X29.9296 Y11.3369
G01 X29.9467 Y11.3574
G01 X30.0005 Y11.4333
G01 X30.0128 Y11.4531
G01 X30.0562 Y11.5316
G01 X30.0677 Y11.5557
G01 X30.1021 Y11.6386
G01 X30.1109 Y11.6638
G01 X30.1357 Y11.7500
G01 X30.1417 Y11.7760
G01 X30.1567 Y11.8644
G01 X30.1597 Y11.8910
G01 X30.1651 Y11.9939
G01 X30.1597 Y12.0968
G01 X30.1567 Y12.1233
G01 X30.1407 Y12.2170
G01 X30.1357 Y12.2378
G01 X30.1109 Y12.3240
G01 X30.1021 Y12.3492
G01 X30.0672 Y12.4333
G01 X30.0562 Y12.4561
G01 X30.0128 Y12.5346
G01 X29.9986 Y12.5572
G01 X29.9467 Y12.6304
G01 X29.9300 Y12.6513
G01 X29.8702 Y12.7182
G01 X29.8514 Y12.7370
G01 X29.7845 Y12.7968
G01 X29.7841 Y12.7964
G01 X29.7636 Y12.8134
G01 X29.6877 Y12.8673
G01 X29.6652 Y12.8810
G01 X29.6652 Y13.4663
G01 X29.8797 Y13.6808
G01 X33.7519 Y13.6808
G01 X34.8286 Y12.6041
G01 X34.8286 Y5.7753
G01 X34.1583 Y5.1051
G01 X12.8617 Y5.1051
G01 X10.6370 Y7.3298
G01 X10.6370 Y16.5995
G01 X10.6347 Y16.6464
G01 X10.6317 Y16.6730
G01 X10.6251 Y16.7114
G01 X10.6201 Y16.7322
G01 X10.6108 Y16.7645
G01 X10.6020 Y16.7897
G01 X10.5886 Y16.8221
G01 X10.5775 Y16.8448
G01 X10.5613 Y16.8743
G01 X10.5471 Y16.8969
G01 X10.5276 Y16.9243
G01 X10.5109 Y16.9452
G01 X10.4793 Y16.9800
G01 X6.0446 Y21.4147
G01 X6.0446 Y21.5538
G01 X7.0065 Y21.5538
G01 X7.0327 Y21.5553
G01 X7.0586 Y21.5596
G01 X7.0839 Y21.5667
G01 X7.1082 Y21.5767
G01 X7.1322 Y21.5897
G01 X7.1544 Y21.6054
G01 X7.1748 Y21.6235
G01 X7.1929 Y21.6438
G01 X7.2086 Y21.6661
G01 X7.2216 Y21.6900
G01 X7.2315 Y21.7144
G01 X7.2387 Y21.7397
G01 X7.2430 Y21.7656
G01 X7.2445 Y21.7918
G01 X7.2445 Y24.7918
G01 X7.2430 Y24.8180
G01 X7.2387 Y24.8439
G01 X7.2315 Y24.8692
G01 X7.2216 Y24.8936
G01 X7.2086 Y24.9175
G01 X7.1929 Y24.9398
G01 X7.1748 Y24.9601
G01 X7.1544 Y24.9782
G01 X7.1322 Y24.9939
G01 X7.1082 Y25.0069
G01 X7.0839 Y25.0169
G01 X7.0586 Y25.0240
G01 X7.0327 Y25.0283
G01 X7.0065 Y25.0298
G01 X4.0065 Y25.0298
G01 X3.9803 Y25.0283
G01 X3.9543 Y25.0240
G01 X3.9291 Y25.0169
G01 X3.9047 Y25.0069
G01 X3.8808 Y24.9939
G01 X3.8585 Y24.9782
G01 X3.8382 Y24.9601
G01 X3.8201 Y24.9398
G01 X3.8044 Y24.9175
G01 X3.7913 Y24.8936
G01 X3.7814 Y24.8692
G01 X3.7743 Y24.8439
G01 X3.7699 Y24.8180
G01 X3.7685 Y24.7918
G01 X3.7685 Y23.8300
G01 X3.2808 Y23.8300
G01 X2.7630 Y24.3478
G01 X2.7630 Y33.3000
G01 X10.8297 Y41.3668
G01 X15.1788 Y41.3668
G01 X15.2258 Y41.3690
G01 X15.2523 Y41.3720
G01 X15.2907 Y41.3786
G01 X15.3115 Y41.3836
G01 X15.3438 Y41.3929
G01 X15.3690 Y41.4017
G01 X15.4014 Y41.4151
G01 X15.4242 Y41.4262
G01 X15.4536 Y41.4425
G01 X15.4762 Y41.4567
G01 X15.5037 Y41.4761
G01 X15.5245 Y41.4928
G01 X15.5593 Y41.5244
G01 X16.5753 Y42.5404
G01 X16.6069 Y42.5752
G01 X16.6065 Y42.5756
G01 X16.6236 Y42.5961
G01 X16.6450 Y42.6262
G01 X16.6573 Y42.6461
G01 X16.6735 Y42.6756
G01 X16.6851 Y42.6996
G01 X16.6980 Y42.7307
G01 X16.7068 Y42.7559
G01 X16.7161 Y42.7882
G01 X16.7221 Y42.8143
G01 X16.7277 Y42.8474
G01 X16.7307 Y42.8740
G01 X16.7330 Y42.9209
G01 X16.7330 Y43.5578
G01 X16.7582 Y43.5734
G01 X16.8313 Y43.6254
G01 X16.8522 Y43.6420
G01 X16.9191 Y43.7018
G01 X16.9380 Y43.7206
G01 X16.9977 Y43.7875
G01 X16.9973 Y43.7879
G01 X17.0144 Y43.8084
G01 X17.0682 Y43.8843
G01 X17.0805 Y43.9042
G01 X17.1239 Y43.9827
G01 X17.1355 Y44.0067
G01 X17.1698 Y44.0896
G01 X17.1786 Y44.1148
G01 X17.2034 Y44.2010
G01 X17.2094 Y44.2270
G01 X17.2244 Y44.3155
G01 X17.2274 Y44.3420
G01 X17.2328 Y44.4449
G01 X17.2274 Y44.5478
G01 X17.2244 Y44.5744
G01 X17.2094 Y44.6628
G01 X17.2034 Y44.6888
G01 X17.1786 Y44.7750
G01 X17.1698 Y44.8002
G01 X17.1349 Y44.8844
G01 X17.1239 Y44.9072
G01 X17.0805 Y44.9857
G01 X17.0663 Y45.0083
G01 X17.0144 Y45.0814
G01 X16.9977 Y45.1023
G01 X16.9380 Y45.1692
G01 X16.9191 Y45.1881
G01 X16.8522 Y45.2478
G01 X16.8518 Y45.2474
G01 X16.8313 Y45.2645
G01 X16.7554 Y45.3183
G01 X16.7356 Y45.3306
G01 X16.6570 Y45.3740
G01 X16.6330 Y45.3856
G01 X16.5501 Y45.4199
G01 X16.5249 Y45.4287
G01 X16.4387 Y45.4536
G01 X16.4127 Y45.4595
G01 X16.3242 Y45.4745
G01 X16.2977 Y45.4775
G01 X16.1948 Y45.4829
G01 X16.0919 Y45.4775
G01 X16.0654 Y45.4745
G01 X15.9717 Y45.4585
G01 X15.9509 Y45.4536
G01 X15.8647 Y45.4287
G01 X15.8395 Y45.4199
G01 X15.7553 Y45.3850
G01 X15.7326 Y45.3740
G01 X15.6541 Y45.3306
G01 X15.6315 Y45.3164
G01 X15.5583 Y45.2645
G01 X15.5374 Y45.2478
G01 X15.4705 Y45.1881
G01 X15.4517 Y45.1692
G01 X15.3919 Y45.1023
G01 X15.3923 Y45.1019
G01 X15.3752 Y45.0814
G01 X15.3214 Y45.0055
G01 X15.3091 Y44.9857
G01 X15.2657 Y44.9072
G01 X15.2541 Y44.8831
G01 X15.2198 Y44.8002
G01 X15.2110 Y44.7750
G01 X15.1862 Y44.6888
G01 X15.1802 Y44.6628
G01 X15.1652 Y44.5744
G01 X15.1622 Y44.5478
G01 X15.1572 Y44.4583
G01 X15.1572 Y44.4316
G01 X15.1622 Y44.3420
G01 X15.1652 Y44.3155
G01 X15.1812 Y44.2218
G01 X15.1862 Y44.2010
G01 X15.2110 Y44.1148
G01 X15.2198 Y44.0896
G01 X15.2547 Y44.0055
G01 X15.2657 Y43.9827
G01 X15.3091 Y43.9042
G01 X15.3233 Y43.8816
G01 X15.3752 Y43.8084
G01 X15.3919 Y43.7875
G01 X15.4517 Y43.7206
G01 X15.4705 Y43.7018
G01 X15.5374 Y43.6420
G01 X15.5378 Y43.6424
G01 X15.5583 Y43.6254
G01 X15.6315 Y43.5734
G01 X15.6567 Y43.5578
G01 X15.6567 Y43.1438
G01 X14.9559 Y42.4431
G01 X10.6068 Y42.4431
G01 X10.5599 Y42.4408
G01 X10.5333 Y42.4378
G01 X10.4949 Y42.4312
G01 X10.4741 Y42.4262
G01 X10.4418 Y42.4169
G01 X10.4166 Y42.4081
G01 X10.3842 Y42.3947
G01 X10.3614 Y42.3836
G01 X10.3320 Y42.3674
G01 X10.3094 Y42.3532
G01 X10.2819 Y42.3337
G01 X10.2611 Y42.3170
G01 X10.2263 Y42.2854
G01 X1.8443 Y33.9034
G01 X1.8127 Y33.8687
G01 X1.8131 Y33.8683
G01 X1.7960 Y33.8478
G01 X1.7766 Y33.8203
G01 X1.7624 Y33.7977
G01 X1.7461 Y33.7683
G01 X1.7345 Y33.7442
G01 X1.7216 Y33.7131
G01 X1.7128 Y33.6879
G01 X1.7035 Y33.6556
G01 X1.6975 Y33.6296
G01 X1.6919 Y33.5964
G01 X1.6889 Y33.5699
G01 X1.6867 Y33.5229
G01 X1.6867 Y24.1249
G01 X1.6894 Y24.0780
G01 X1.6919 Y24.0514
G00 Z10.0000
G00 X3.7787 Y28.1905
G01 F76.20
G01 Z-0.1000
G01 F76.20
G01 X3.7813 Y28.1640
G01 X3.8104 Y27.9929
G01 X3.8154 Y27.9721
G01 X3.8620 Y27.8105
G01 X3.8708 Y27.7853
G01 X3.9357 Y27.6286
G01 X3.9467 Y27.6058
G01 X4.0281 Y27.4586
G01 X4.0423 Y27.4360
G01 X4.1396 Y27.2988
G01 X4.1563 Y27.2780
G01 X4.2684 Y27.1525
G01 X4.2872 Y27.1337
G01 X4.4127 Y27.0216
G01 X4.4130 Y27.0220
G01 X4.4335 Y27.0049
G01 X4.5707 Y26.9076
G01 X4.5933 Y26.8934
G01 X4.7405 Y26.8120
G01 X4.7646 Y26.8005
G01 X4.9200 Y26.7361
G01 X4.9452 Y26.7273
G01 X5.1068 Y26.6807
G01 X5.1328 Y26.6748
G01 X5.2987 Y26.6466
G01 X5.3252 Y26.6436
G01 X5.5065 Y26.6338
G01 X5.6878 Y26.6436
G01 X5.7143 Y26.6466
G01 X5.8801 Y26.6748
G01 X5.9062 Y26.6807
G01 X6.0678 Y26.7273
G01 X6.0930 Y26.7361
G01 X6.2497 Y26.8010
G01 X6.2724 Y26.8120
G01 X6.4197 Y26.8934
G01 X6.4423 Y26.9076
G01 X6.5794 Y27.0049
G01 X6.6003 Y27.0216
G01 X6.7257 Y27.1337
G01 X6.7446 Y27.1525
G01 X6.8567 Y27.2780
G01 X6.8563 Y27.2784
G01 X6.8733 Y27.2988
G01 X6.9726 Y27.4388
G01 X6.9849 Y27.4586
G01 X7.0662 Y27.6058
G01 X7.0778 Y27.6299
G01 X7.1422 Y27.7853
G01 X7.1510 Y27.8105
G01 X7.1577 Y27.8336
G01 X7.4049 Y27.8336
G01 X8.6717 Y26.5669
G01 X8.6717 Y21.2039
G01 X8.6739 Y21.1570
G01 X8.6769 Y21.1304
G01 X8.6835 Y21.0920
G01 X8.6885 Y21.0712
G01 X8.6978 Y21.0389
G01 X8.7066 Y21.0137
G01 X8.7200 Y20.9813
G01 X8.7311 Y20.9586
G01 X8.7474 Y20.9291
G01 X8.7616 Y20.9065
G01 X8.7810 Y20.8791
G01 X8.7977 Y20.8582
G01 X8.8293 Y20.8234
G01 X16.4187 Y13.2340
G01 X16.4187 Y8.7833
G01 X16.4209 Y8.7364
G01 X16.4239 Y8.7098
G01 X16.4305 Y8.6714
G01 X16.4355 Y8.6506
G01 X16.4448 Y8.6183
G01 X16.4536 Y8.5931
G01 X16.4670 Y8.5607
G01 X16.4781 Y8.5380
G01 X16.4944 Y8.5085
G01 X16.5086 Y8.4859
G01 X16.5280 Y8.4585
G01 X16.5447 Y8.4376
G01 X16.5763 Y8.4028
G01 X19.0147 Y5.9644
G01 X19.0495 Y5.9328
G01 X19.0498 Y5.9332
G01 X19.0703 Y5.9161
G01 X19.1005 Y5.8948
G01 X19.1204 Y5.8825
G01 X19.1498 Y5.8662
G01 X19.1739 Y5.8546
G01 X19.2050 Y5.8417
G01 X19.2302 Y5.8329
G01 X19.2625 Y5.8236
G01 X19.2885 Y5.8177
G01 X19.3217 Y5.8120
G01 X19.3483 Y5.8090
G01 X19.3952 Y5.8068
G01 X33.2738 Y5.8068
G01 X33.3207 Y5.8090
G01 X33.3472 Y5.8120
G01 X33.3804 Y5.8177
G01 X33.4064 Y5.8236
G01 X33.4388 Y5.8329
G01 X33.4640 Y5.8417
G01 X33.4951 Y5.8546
G01 X33.5191 Y5.8662
G01 X33.5486 Y5.8825
G01 X33.5712 Y5.8967
G01 X33.5986 Y5.9161
G01 X33.6195 Y5.9328
G01 X33.6543 Y5.9644
G01 X34.5789 Y6.8890
G01 X34.6105 Y6.9237
G01 X34.6100 Y6.9241
G01 X34.6271 Y6.9446
G01 X34.6485 Y6.9748
G01 X34.6608 Y6.9947
G01 X34.6771 Y7.0241
G01 X34.6886 Y7.0482
G01 X34.7015 Y7.0793
G01 X34.7103 Y7.1045
G01 X34.7196 Y7.1368
G01 X34.7256 Y7.1628
G01 X34.7312 Y7.1960
G01 X34.7342 Y7.2225
G01 X34.7365 Y7.2695
G01 X34.7365 Y11.0744
G01 X34.7342 Y11.1214
G01 X34.7312 Y11.1479
G01 X34.7246 Y11.1863
G01 X34.7196 Y11.2071
G01 X34.7103 Y11.2394
G01 X34.7015 Y11.2646
G01 X34.6881 Y11.2970
G01 X34.6771 Y11.3198
G01 X34.6608 Y11.3492
G01 X34.6466 Y11.3718
G01 X34.6271 Y11.3993
G01 X34.6105 Y11.4201
G01 X34.5789 Y11.4549
G01 X33.8619 Y12.1719
G01 X33.8376 Y12.2070
G01 X33.8210 Y12.2279
G01 X33.7894 Y12.2626
G01 X33.6679 Y12.3836
G01 X33.6428 Y12.4060
G01 X33.6424 Y12.4056
G01 X33.6219 Y12.4227
G01 X33.5918 Y12.4440
G01 X33.5719 Y12.4563
G01 X33.5424 Y12.4726
G01 X33.5184 Y12.4842
G01 X33.4873 Y12.4971
G01 X33.4621 Y12.5059
G01 X33.4298 Y12.5152
G01 X33.4037 Y12.5211
G01 X33.3706 Y12.5268
G01 X33.3440 Y12.5298
G01 X33.2971 Y12.5320
G01 X32.9351 Y12.5320
G01 X32.9351 Y12.7939
G01 X32.9336 Y12.8201
G01 X32.9293 Y12.8460
G01 X32.9221 Y12.8713
G01 X32.9122 Y12.8956
G01 X32.8992 Y12.9196
G01 X32.8835 Y12.9418
G01 X32.8654 Y12.9622
G01 X32.8450 Y12.9803
G01 X32.8228 Y12.9960
G01 X32.7988 Y13.0090
G01 X32.7745 Y13.0189
G01 X32.7492 Y13.0261
G01 X32.7233 Y13.0304
G01 X32.6971 Y13.0319
G01 X31.0971 Y13.0319
G01 X31.0709 Y13.0304
G01 X31.0449 Y13.0261
G01 X31.0197 Y13.0189
G01 X30.9953 Y13.0090
G01 X30.9714 Y12.9960
G01 X30.9491 Y12.9803
G01 X30.9288 Y12.9622
G01 X30.9107 Y12.9418
G01 X30.8950 Y12.9196
G01 X30.8819 Y12.8956
G01 X30.8720 Y12.8713
G01 X30.8649 Y12.8460
G01 X30.8605 Y12.8201
G01 X30.8591 Y12.7939
G01 X30.8591 Y11.1939
G01 X30.8605 Y11.1676
G01 X30.8649 Y11.1417
G01 X30.8720 Y11.1165
G01 X30.8819 Y11.0921
G01 X30.8950 Y11.0682
G01 X30.9107 Y11.0459
G01 X30.9288 Y11.0256
G01 X30.9491 Y11.0075
G01 X30.9714 Y10.9918
G01 X30.9953 Y10.9787
G01 X31.0197 Y10.9688
G01 X31.0449 Y10.9617
G01 X31.0709 Y10.9573
G01 X31.0971 Y10.9559
G01 X32.6971 Y10.9559
G01 X32.7233 Y10.9573
G01 X32.7492 Y10.9617
G01 X32.7745 Y10.9688
G01 X32.7988 Y10.9787
G01 X32.8228 Y10.9918
G01 X32.8450 Y11.0075
G01 X32.8654 Y11.0256
G01 X32.8835 Y11.0459
G01 X32.8992 Y11.0682
G01 X32.9122 Y11.0921
G01 X32.9221 Y11.1165
G01 X32.9293 Y11.1417
G01 X32.9336 Y11.1676
G01 X32.9351 Y11.1939
G01 X32.9351 Y11.4557
G01 X33.0559 Y11.4557
G01 X33.6602 Y10.8515
G01 X33.6602 Y7.4924
G01 X33.0509 Y6.8831
G01 X19.6181 Y6.8831
G01 X17.4950 Y9.0062
G01 X17.4950 Y13.4569
G01 X17.4927 Y13.5039
G01 X17.4897 Y13.5304
G01 X17.4831 Y13.5688
G01 X17.4781 Y13.5896
G01 X17.4688 Y13.6219
G01 X17.4600 Y13.6471
G01 X17.4466 Y13.6795
G01 X17.4355 Y13.7023
G01 X17.4193 Y13.7317
G01 X17.4051 Y13.7543
G01 X17.3856 Y13.7818
G01 X17.3689 Y13.8027
G01 X17.3373 Y13.8374
G01 X9.7480 Y21.4268
G01 X9.7480 Y26.7898
G01 X9.7457 Y26.8368
G01 X9.7427 Y26.8633
G01 X9.7361 Y26.9017
G01 X9.7311 Y26.9225
G01 X9.7218 Y26.9548
G01 X9.7130 Y26.9800
G01 X9.6996 Y27.0124
G01 X9.6885 Y27.0352
G01 X9.6723 Y27.0646
G01 X9.6581 Y27.0872
G01 X9.6386 Y27.1147
G01 X9.6219 Y27.1355
G01 X9.5903 Y27.1703
G01 X8.0083 Y28.7523
G01 X7.9735 Y28.7839
G01 X7.9732 Y28.7835
G01 X7.9527 Y28.8006
G01 X7.9225 Y28.8220
G01 X7.9026 Y28.8342
G01 X7.8732 Y28.8505
G01 X7.8491 Y28.8621
G01 X7.8180 Y28.8750
G01 X7.7928 Y28.8838
G01 X7.7605 Y28.8931
G01 X7.7345 Y28.8991
G01 X7.7013 Y28.9047
G01 X7.6748 Y28.9077
G01 X7.6278 Y28.9100
G01 X7.1577 Y28.9100
G01 X7.1510 Y28.9331
G01 X7.1422 Y28.9583
G01 X7.0773 Y29.1150
G01 X7.0662 Y29.1378
G01 X6.9849 Y29.2850
G01 X6.9707 Y29.3076
G01 X6.8733 Y29.4448
G01 X6.8567 Y29.4656
G01 X6.7446 Y29.5911
G01 X6.7257 Y29.6099
G01 X6.6003 Y29.7220
G01 X6.5999 Y29.7216
G01 X6.5794 Y29.7387
G01 X6.4395 Y29.8379
G01 X6.4197 Y29.8502
G01 X6.2724 Y29.9316
G01 X6.2484 Y29.9431
G01 X6.0930 Y30.0075
G01 X6.0678 Y30.0163
G01 X6.0446 Y30.0230
G01 X6.0446 Y33.2797
G01 X12.3537 Y39.5888
G01 X18.7348 Y39.5888
G01 X18.7818 Y39.5910
G01 X18.8083 Y39.5940
G01 X18.8467 Y39.6006
G01 X18.8675 Y39.6056
G01 X18.8998 Y39.6149
G01 X18.9250 Y39.6237
G01 X18.9574 Y39.6371
G01 X18.9802 Y39.6482
G01 X19.0096 Y39.6645
G01 X19.0322 Y39.6787
G01 X19.0597 Y39.6981
G01 X19.0805 Y39.7148
G01 X19.1153 Y39.7464
G01 X20.8933 Y41.5244
G01 X20.9249 Y41.5592
G01 X20.9245 Y41.5596
G01 X20.9416 Y41.5801
G01 X20.9630 Y41.6102
G01 X20.9753 Y41.6301
G01 X20.9915 Y41.6596
G01 X21.0031 Y41.6836
G01 X21.0160 Y41.7147
G01 X21.0248 Y41.7399
G01 X21.0341 Y41.7722
G01 X21.0401 Y41.7983
G01 X21.0457 Y41.8314
G01 X21.0487 Y41.8580
G01 X21.0510 Y41.9049
G01 X21.0510 Y45.4920
G01 X22.0057 Y46.4468
G01 X22.9277 Y46.4468
G01 X22.9433 Y46.4216
G01 X22.9952 Y46.3484
G01 X23.0119 Y46.3275
G01 X23.0717 Y46.2606
G01 X23.0905 Y46.2418
G01 X23.1574 Y46.1820
G01 X23.1578 Y46.1824
G01 X23.1783 Y46.1654
G01 X23.2542 Y46.1115
G01 X23.2741 Y46.0992
G01 X23.3526 Y46.0558
G01 X23.3766 Y46.0443
G01 X23.4595 Y46.0099
G01 X23.4847 Y46.0011
G01 X23.5709 Y45.9763
G01 X23.5969 Y45.9703
G01 X23.6854 Y45.9553
G01 X23.7119 Y45.9523
G01 X23.8148 Y45.9469
G01 X23.9177 Y45.9523
G01 X23.9442 Y45.9553
G01 X24.0380 Y45.9713
G01 X24.0587 Y45.9763
G01 X24.1449 Y46.0011
G01 X24.1701 Y46.0099
G01 X24.2543 Y46.0448
G01 X24.2770 Y46.0558
G01 X24.3556 Y46.0992
G01 X24.3782 Y46.1134
G01 X24.4513 Y46.1654
G01 X24.4722 Y46.1820
G01 X24.5391 Y46.2418
G01 X24.5580 Y46.2606
G01 X24.6177 Y46.3275
G01 X24.6173 Y46.3279
G01 X24.6344 Y46.3484
G01 X24.6882 Y46.4243
G01 X24.7005 Y46.4442
G01 X24.7439 Y46.5227
G01 X24.7555 Y46.5467
G01 X24.7898 Y46.6296
G01 X24.7986 Y46.6548
G01 X24.8234 Y46.7410
G01 X24.8294 Y46.7670
G01 X24.8444 Y46.8555
G01 X24.8474 Y46.8820
G01 X24.8524 Y46.9716
G01 X24.8524 Y46.9983
G01 X24.8474 Y47.0878
G01 X24.8444 Y47.1144
G01 X24.8284 Y47.2081
G01 X24.8234 Y47.2288
G01 X24.7986 Y47.3150
G01 X24.7898 Y47.3402
G01 X24.7549 Y47.4244
G01 X24.7439 Y47.4472
G01 X24.7005 Y47.5257
G01 X24.6863 Y47.5483
G01 X24.6344 Y47.6214
G01 X24.6177 Y47.6423
G01 X24.5580 Y47.7092
G01 X24.5391 Y47.7281
G01 X24.4722 Y47.7878
G01 X24.4718 Y47.7874
G01 X24.4513 Y47.8045
G01 X24.3754 Y47.8583
G01 X24.3556 Y47.8706
G01 X24.2770 Y47.9140
G01 X24.2530 Y47.9256
G01 X24.1701 Y47.9599
G01 X24.1449 Y47.9687
G01 X24.0587 Y47.9936
G01 X24.0327 Y47.9995
G01 X23.9442 Y48.0145
G01 X23.9177 Y48.0175
G01 X23.8281 Y48.0225
G01 X23.8015 Y48.0225
G01 X23.7119 Y48.0175
G01 X23.6854 Y48.0145
G01 X23.5917 Y47.9985
G01 X23.5709 Y47.9936
G01 X23.4847 Y47.9687
G01 X23.4595 Y47.9599
G01 X23.3753 Y47.9250
G01 X23.3526 Y47.9140
G01 X23.2741 Y47.8706
G01 X23.2515 Y47.8564
G01 X23.1783 Y47.8045
G01 X23.1574 Y47.7878
G01 X23.0905 Y47.7281
G01 X23.0717 Y47.7092
G01 X23.0119 Y47.6423
G01 X23.0123 Y47.6419
G01 X22.9952 Y47.6214
G01 X22.9414 Y47.5455
G01 X22.9277 Y47.5231
G01 X21.7695 Y47.5227
G01 X21.7359 Y47.5208
G01 X21.7093 Y47.5178
G01 X21.6709 Y47.5112
G01 X21.6501 Y47.5062
G01 X21.6178 Y47.4969
G01 X21.5926 Y47.4881
G01 X21.5602 Y47.4747
G01 X21.5374 Y47.4636
G01 X21.5080 Y47.4474
G01 X21.4854 Y47.4332
G01 X21.4579 Y47.4137
G01 X21.4371 Y47.3970
G01 X21.4023 Y47.3654
G01 X20.1323 Y46.0954
G01 X20.1007 Y46.0607
G01 X20.1011 Y46.0603
G01 X20.0840 Y46.0398
G01 X20.0627 Y46.0096
G01 X20.0504 Y45.9897
G01 X20.0341 Y45.9603
G01 X20.0225 Y45.9362
G01 X20.0096 Y45.9051
G01 X20.0008 Y45.8799
G01 X19.9915 Y45.8476
G01 X19.9855 Y45.8216
G01 X19.9799 Y45.7884
G01 X19.9769 Y45.7619
G01 X19.9750 Y45.7283
G01 X19.9747 Y42.1278
G01 X18.5119 Y40.6651
G01 X12.1308 Y40.6651
G01 X12.0839 Y40.6628
G01 X12.0573 Y40.6598
G01 X12.0189 Y40.6532
G01 X11.9981 Y40.6482
G01 X11.9658 Y40.6389
G01 X11.9406 Y40.6301
G01 X11.9082 Y40.6167
G01 X11.8854 Y40.6056
G01 X11.8560 Y40.5894
G01 X11.8334 Y40.5752
G01 X11.8059 Y40.5557
G01 X11.7851 Y40.5390
G01 X11.7503 Y40.5074
G01 X5.1260 Y33.8831
G01 X5.0944 Y33.8483
G01 X5.0948 Y33.8480
G01 X5.0777 Y33.8275
G01 X5.0563 Y33.7973
G01 X5.0440 Y33.7774
G01 X5.0278 Y33.7480
G01 X5.0162 Y33.7239
G01 X5.0033 Y33.6928
G01 X4.9945 Y33.6676
G01 X4.9852 Y33.6353
G01 X4.9792 Y33.6093
G01 X4.9736 Y33.5761
G01 X4.9706 Y33.5496
G01 X4.9683 Y33.5026
G01 X4.9683 Y30.0230
G01 X4.9452 Y30.0163
G01 X4.9200 Y30.0075
G01 X4.7633 Y29.9426
G01 X4.7405 Y29.9316
G01 X4.5933 Y29.8502
G01 X4.5707 Y29.8360
G01 X4.4335 Y29.7387
G01 X4.4127 Y29.7220
G01 X4.2872 Y29.6099
G01 X4.2684 Y29.5911
G01 X4.1563 Y29.4656
G01 X4.1567 Y29.4652
G01 X4.1396 Y29.4448
G01 X4.0404 Y29.3048
G01 X4.0281 Y29.2850
G01 X3.9467 Y29.1378
G01 X3.9351 Y29.1137
G01 X3.8708 Y28.9583
G01 X3.8620 Y28.9331
G01 X3.8154 Y28.7715
G01 X3.8095 Y28.7454
G01 X3.7813 Y28.5796
G01 X3.7783 Y28.5531
G01 X3.7685 Y28.3718
G01 X3.7787 Y28.1905
G01 X3.7813 Y28.1640
G00 Z10.0000
G00 X3.9312 Y28.1991
G01 F76.20
G01 Z-0.1000
G01 F76.20
G01 X3.9321 Y28.1896
G01 X3.9606 Y28.0219
G01 X4.0090 Y27.8529
G01 X4.0121 Y27.8439
G01 X4.0767 Y27.6880
G01 X4.0806 Y27.6799
G01 X4.1620 Y27.5326
G01 X4.1671 Y27.5246
G01 X4.2644 Y27.3874
G01 X4.2704 Y27.3799
G01 X4.3824 Y27.2545
G01 X4.3892 Y27.2478
G01 X4.5146 Y27.1357
G01 X4.5221 Y27.1297
G01 X4.6592 Y27.0324
G01 X4.6673 Y27.0273
G01 X4.8145 Y26.9460
G01 X4.8231 Y26.9418
G01 X4.9785 Y26.8774
G01 X4.9875 Y26.8743
G01 X5.1492 Y26.8277
G01 X5.1585 Y26.8256
G01 X5.3243 Y26.7974
G01 X5.3338 Y26.7964
G01 X5.5065 Y26.7868
G01 X5.6792 Y26.7964
G01 X5.6887 Y26.7974
G01 X5.8545 Y26.8256
G01 X5.8638 Y26.8277
G01 X6.0254 Y26.8743
G01 X6.0344 Y26.8774
G01 X6.1903 Y26.9420
G01 X6.3456 Y27.0273
G01 X6.3537 Y27.0324
G01 X6.4909 Y27.1297
G01 X6.4984 Y27.1357
G01 X6.6238 Y27.2478
G01 X6.6305 Y27.2545
G01 X6.7426 Y27.3799
G01 X6.7486 Y27.3874
G01 X6.8466 Y27.5255
G01 X6.9323 Y27.6799
G01 X6.9365 Y27.6884
G01 X7.0008 Y27.8439
G01 X7.0040 Y27.8529
G01 X7.0425 Y27.9866
G01 X7.4683 Y27.9866
G01 X8.8247 Y26.6303
G01 X8.8247 Y21.2039
G01 X8.8267 Y21.1655
G01 X8.8337 Y21.1210
G01 X8.8480 Y21.0723
G01 X8.8650 Y21.0326
G01 X8.8863 Y20.9950
G01 X8.9058 Y20.9676
G01 X8.9375 Y20.9316
G01 X16.5717 Y13.2974
G01 X16.5717 Y8.7833
G01 X16.5737 Y8.7449
G01 X16.5804 Y8.7023
G01 X16.5825 Y8.6930
G01 X16.5950 Y8.6517
G01 X16.6120 Y8.6120
G01 X16.6333 Y8.5744
G01 X16.6588 Y8.5395
G01 X16.6845 Y8.5110
G01 X19.1229 Y6.0726
G01 X19.1514 Y6.0469
G01 X19.1873 Y6.0208
G01 X19.2239 Y6.0001
G01 X19.2324 Y5.9960
G01 X19.2725 Y5.9799
G01 X19.3142 Y5.9685
G01 X19.3474 Y5.9629
G01 X19.3952 Y5.9598
G01 X33.2738 Y5.9598
G01 X33.3121 Y5.9618
G01 X33.3548 Y5.9685
G01 X33.3641 Y5.9706
G01 X33.4054 Y5.9831
G01 X33.4370 Y5.9962
G01 X33.4746 Y6.0164
G01 X33.4826 Y6.0215
G01 X33.5101 Y6.0409
G01 X33.5426 Y6.0693
G01 X34.4707 Y6.9971
G01 X34.4964 Y7.0257
G01 X34.5225 Y7.0616
G01 X34.5431 Y7.0981
G01 X34.5473 Y7.1067
G01 X34.5633 Y7.1468
G01 X34.5747 Y7.1885
G01 X34.5804 Y7.2216
G01 X34.5835 Y7.2695
G01 X34.5835 Y11.0744
G01 X34.5804 Y11.1222
G01 X34.5726 Y11.1647
G01 X34.5602 Y11.2061
G01 X34.5471 Y11.2376
G01 X34.5269 Y11.2752
G01 X34.5023 Y11.3107
G01 X34.4707 Y11.3467
G01 X33.7410 Y12.0764
G01 X33.7323 Y12.0910
G01 X33.7128 Y12.1184
G01 X33.6812 Y12.1545
G01 X33.5660 Y12.2695
G01 X33.5334 Y12.2979
G01 X33.5050 Y12.3180
G01 X33.4684 Y12.3387
G01 X33.4598 Y12.3428
G01 X33.4197 Y12.3589
G01 X33.3781 Y12.3703
G01 X33.3355 Y12.3770
G01 X33.2971 Y12.3790
G01 X32.7821 Y12.3790
G01 X32.7821 Y12.7939
G01 X32.7816 Y12.8032
G01 X32.7800 Y12.8125
G01 X32.7775 Y12.8215
G01 X32.7739 Y12.8302
G01 X32.7693 Y12.8388
G01 X32.7637 Y12.8467
G01 X32.7572 Y12.8540
G01 X32.7499 Y12.8605
G01 X32.7420 Y12.8661
G01 X32.7334 Y12.8707
G01 X32.7247 Y12.8743
G01 X32.7157 Y12.8768
G01 X32.7065 Y12.8784
G01 X32.6971 Y12.8789
G01 X31.0971 Y12.8789
G01 X31.0877 Y12.8784
G01 X31.0785 Y12.8768
G01 X31.0694 Y12.8743
G01 X31.0607 Y12.8707
G01 X31.0522 Y12.8661
G01 X31.0442 Y12.8605
G01 X31.0370 Y12.8540
G01 X31.0305 Y12.8467
G01 X31.0249 Y12.8388
G01 X31.0202 Y12.8302
G01 X31.0167 Y12.8215
G01 X31.0141 Y12.8125
G01 X31.0126 Y12.8032
G01 X31.0121 Y12.7939
G01 X31.0121 Y11.1939
G01 X31.0126 Y11.1845
G01 X31.0141 Y11.1753
G01 X31.0167 Y11.1662
G01 X31.0202 Y11.1575
G01 X31.0249 Y11.1490
G01 X31.0305 Y11.1410
G01 X31.0370 Y11.1338
G01 X31.0442 Y11.1273
G01 X31.0522 Y11.1217
G01 X31.0607 Y11.1170
G01 X31.0694 Y11.1135
G01 X31.0785 Y11.1109
G01 X31.0877 Y11.1094
G01 X31.0971 Y11.1089
G01 X32.6971 Y11.1089
G01 X32.7065 Y11.1094
G01 X32.7157 Y11.1109
G01 X32.7247 Y11.1135
G01 X32.7334 Y11.1170
G01 X32.7420 Y11.1217
G01 X32.7499 Y11.1273
G01 X32.7572 Y11.1338
G01 X32.7637 Y11.1410
G01 X32.7693 Y11.1490
G01 X32.7739 Y11.1575
G01 X32.7775 Y11.1662
G01 X32.7800 Y11.1753
G01 X32.7816 Y11.1845
G01 X32.7821 Y11.1939
G01 X32.7821 Y11.6087
G01 X33.1210 Y11.6087
G01 X33.1365 Y11.5915
G01 X33.8132 Y10.9149
G01 X33.8132 Y7.4290
G01 X33.1142 Y6.7301
G01 X19.5547 Y6.7301
G01 X17.3420 Y8.9429
G01 X17.3420 Y13.4569
G01 X17.3389 Y13.5048
G01 X17.3329 Y13.5398
G01 X17.3218 Y13.5796
G01 X17.3056 Y13.6201
G01 X17.2853 Y13.6577
G01 X17.2803 Y13.6658
G01 X17.2549 Y13.7007
G01 X17.2291 Y13.7293
G01 X9.5950 Y21.3635
G01 X9.5950 Y26.7898
G01 X9.5919 Y26.8376
G01 X9.5841 Y26.8801
G01 X9.5716 Y26.9215
G01 X9.5586 Y26.9530
G01 X9.5383 Y26.9906
G01 X9.5138 Y27.0261
G01 X9.4821 Y27.0621
G01 X7.9001 Y28.6441
G01 X7.8716 Y28.6698
G01 X7.8357 Y28.6959
G01 X7.7992 Y28.7166
G01 X7.7906 Y28.7208
G01 X7.7505 Y28.7368
G01 X7.7181 Y28.7461
G01 X7.7088 Y28.7482
G01 X7.6662 Y28.7549
G01 X7.6278 Y28.7570
G01 X7.0425 Y28.7570
G01 X7.0040 Y28.8907
G01 X7.0008 Y28.8997
G01 X6.9363 Y29.0556
G01 X6.8510 Y29.2110
G01 X6.8459 Y29.2190
G01 X6.7486 Y29.3562
G01 X6.7426 Y29.3637
G01 X6.6305 Y29.4891
G01 X6.6238 Y29.4958
G01 X6.4984 Y29.6079
G01 X6.4909 Y29.6139
G01 X6.3537 Y29.7112
G01 X6.3456 Y29.7163
G01 X6.1984 Y29.7976
G01 X6.1898 Y29.8018
G01 X6.0344 Y29.8662
G01 X6.0254 Y29.8693
G01 X5.8916 Y29.9078
G01 X5.8916 Y33.3431
G01 X12.2903 Y39.7418
G01 X18.7348 Y39.7418
G01 X18.7826 Y39.7449
G01 X18.8177 Y39.7508
G01 X18.8575 Y39.7619
G01 X18.8980 Y39.7782
G01 X18.9356 Y39.7984
G01 X18.9437 Y39.8035
G01 X18.9786 Y39.8289
G01 X19.0071 Y39.8546
G01 X20.7851 Y41.6326
G01 X20.8109 Y41.6611
G01 X20.8370 Y41.6970
G01 X20.8576 Y41.7336
G01 X20.8618 Y41.7422
G01 X20.8778 Y41.7823
G01 X20.8892 Y41.8239
G01 X20.8949 Y41.8571
G01 X20.8980 Y41.9049
G01 X20.8980 Y45.5554
G01 X21.9423 Y46.5998
G01 X23.0181 Y46.5998
G01 X23.0630 Y46.5182
G01 X23.0681 Y46.5101
G01 X23.1260 Y46.4295
G01 X23.1925 Y46.3559
G01 X23.2668 Y46.2901
G01 X23.3410 Y46.2375
G01 X23.4266 Y46.1898
G01 X23.5181 Y46.1513
G01 X23.6133 Y46.1233
G01 X23.7110 Y46.1062
G01 X23.8100 Y46.1001
G01 X23.8196 Y46.1001
G01 X23.9186 Y46.1062
G01 X24.0089 Y46.1215
G01 X24.1026 Y46.1481
G01 X24.1944 Y46.1856
G01 X24.2030 Y46.1898
G01 X24.2896 Y46.2382
G01 X24.3702 Y46.2961
G01 X24.4439 Y46.3626
G01 X24.5096 Y46.4369
G01 X24.5622 Y46.5111
G01 X24.6100 Y46.5967
G01 X24.6484 Y46.6882
G01 X24.6764 Y46.7834
G01 X24.6936 Y46.8811
G01 X24.6998 Y46.9849
G01 X24.6946 Y47.0793
G01 X24.6782 Y47.1791
G01 X24.6516 Y47.2727
G01 X24.6484 Y47.2817
G01 X24.6100 Y47.3731
G01 X24.5615 Y47.4597
G01 X24.5096 Y47.5329
G01 X24.4439 Y47.6072
G01 X24.3702 Y47.6738
G01 X24.2886 Y47.7323
G01 X24.2030 Y47.7801
G01 X24.1116 Y47.8186
G01 X24.1026 Y47.8217
G01 X24.0071 Y47.8487
G01 X23.9091 Y47.8648
G01 X23.8196 Y47.8698
G01 X23.8100 Y47.8698
G01 X23.7110 Y47.8637
G01 X23.6207 Y47.8483
G01 X23.5270 Y47.8217
G01 X23.5181 Y47.8186
G01 X23.4347 Y47.7840
G01 X23.3481 Y47.7367
G01 X23.2668 Y47.6797
G01 X23.1925 Y47.6140
G01 X23.1260 Y47.5404
G01 X23.0674 Y47.4588
G01 X23.0182 Y47.3701
G01 X21.7828 Y47.3701
G01 X21.7444 Y47.3680
G01 X21.6999 Y47.3610
G01 X21.6601 Y47.3499
G01 X21.6196 Y47.3337
G01 X21.5820 Y47.3135
G01 X21.5739 Y47.3084
G01 X21.5390 Y47.2830
G01 X21.5105 Y47.2573
G01 X20.2405 Y45.9873
G01 X20.2088 Y45.9512
G01 X20.1887 Y45.9228
G01 X20.1680 Y45.8863
G01 X20.1638 Y45.8777
G01 X20.1478 Y45.8376
G01 X20.1364 Y45.7959
G01 X20.1307 Y45.7628
G01 X20.1277 Y45.7149
G01 X20.1277 Y42.0645
G01 X18.5753 Y40.5121
G01 X12.1308 Y40.5121
G01 X12.0924 Y40.5100
G01 X12.0479 Y40.5030
G01 X12.0081 Y40.4919
G01 X11.9680 Y40.4759
G01 X11.9595 Y40.4717
G01 X11.9219 Y40.4504
G01 X11.8870 Y40.4250
G01 X11.8585 Y40.3993
G01 X5.2341 Y33.7749
G01 X5.2084 Y33.7464
G01 X5.1823 Y33.7105
G01 X5.1617 Y33.6739
G01 X5.1575 Y33.6654
G01 X5.1415 Y33.6253
G01 X5.1301 Y33.5836
G01 X5.1244 Y33.5504
G01 X5.1213 Y33.5026
G01 X5.1213 Y29.9078
G01 X4.9875 Y29.8693
G01 X4.9785 Y29.8662
G01 X4.8227 Y29.8016
G01 X4.8145 Y29.7976
G01 X4.6673 Y29.7163
G01 X4.6592 Y29.7112
G01 X4.5221 Y29.6139
G01 X4.5146 Y29.6079
G01 X4.3892 Y29.4958
G01 X4.3824 Y29.4891
G01 X4.2704 Y29.3637
G01 X4.2644 Y29.3562
G01 X4.1664 Y29.2181
G01 X4.0806 Y29.0637
G01 X4.0765 Y29.0552
G01 X4.0121 Y28.8997
G01 X4.0090 Y28.8907
G01 X3.9624 Y28.7291
G01 X3.9603 Y28.7198
G01 X3.9321 Y28.5540
G01 X3.9310 Y28.5445
G01 X3.9215 Y28.3718
G01 X3.9312 Y28.1991
G01 X3.9321 Y28.1896
G00 Z10.0000
G00 X1.6538 Y33.5011
G01 F76.20
G01 Z-0.1000
G01 F76.20
G01 X1.6549 Y33.4770
G01 X1.6549 Y24.1709
G01 X1.6540 Y24.1467
G01 X1.6521 Y24.1249
G01 X1.6631 Y24.0132
G01 X1.6957 Y23.9058
G01 X1.7486 Y23.8067
G01 X1.8198 Y23.7200
G01 X1.8366 Y23.7059
G01 X1.8543 Y23.6894
G01 X2.6224 Y22.9213
G01 X2.6389 Y22.9036
G01 X2.6530 Y22.8868
G01 X2.7398 Y22.8156
G01 X2.8388 Y22.7627
G01 X2.9462 Y22.7301
G01 X3.0579 Y22.7191
G01 X3.0797 Y22.7210
G01 X3.1039 Y22.7219
G01 X3.3684 Y22.7219
G01 X3.3960 Y22.7207
G01 X3.4225 Y22.7177
G01 X3.4366 Y22.7153
G01 X3.4626 Y22.7094
G01 X3.4763 Y22.7054
G01 X3.5015 Y22.6966
G01 X3.5146 Y22.6912
G01 X3.5387 Y22.6796
G01 X3.5511 Y22.6727
G01 X3.5737 Y22.6585
G01 X3.5854 Y22.6502
G01 X3.6058 Y22.6332
G01 X3.6062 Y22.6336
G01 X3.6168 Y22.6241
G01 X3.6357 Y22.6052
G01 X3.6452 Y22.5946
G01 X3.6619 Y22.5737
G01 X3.6701 Y22.5621
G01 X3.6843 Y22.5395
G01 X3.7022 Y22.5043
G01 X3.7082 Y22.4898
G01 X3.7170 Y22.4647
G01 X3.7260 Y22.4302
G01 X3.7293 Y22.4109
G01 X3.7323 Y22.3844
G01 X3.7335 Y22.3568
G01 X3.7335 Y21.8097
G01 X3.7405 Y21.7389
G01 X3.7559 Y21.6880
G01 X3.7810 Y21.6411
G01 X3.8147 Y21.6000
G01 X3.8558 Y21.5663
G01 X3.9027 Y21.5412
G01 X3.9536 Y21.5258
G01 X4.0244 Y21.5188
G01 X4.5707 Y21.5188
G01 X4.5985 Y21.5176
G01 X4.6253 Y21.5145
G01 X4.6395 Y21.5121
G01 X4.6658 Y21.5061
G01 X4.6796 Y21.5020
G01 X4.7050 Y21.4931
G01 X4.7182 Y21.4875
G01 X4.7425 Y21.4757
G01 X4.7748 Y21.4563
G01 X4.7894 Y21.4458
G01 X4.8101 Y21.4285
G01 X4.8104 Y21.4289
G01 X4.8211 Y21.4192
G01 X4.8400 Y21.4000
G01 X4.8495 Y21.3892
G01 X4.8661 Y21.3680
G01 X4.8743 Y21.3562
G01 X4.8884 Y21.3333
G01 X4.8953 Y21.3206
G01 X4.9060 Y21.2978
G01 X4.9120 Y21.2829
G01 X4.9206 Y21.2573
G01 X4.9244 Y21.2434
G01 X4.9301 Y21.2171
G01 X4.9340 Y21.1895
G01 X4.9448 Y21.0801
G01 X4.9774 Y20.9726
G01 X5.0303 Y20.8736
G01 X5.1015 Y20.7868
G01 X5.1183 Y20.7727
G01 X5.1360 Y20.7563
G01 X9.4219 Y16.4703
G01 X9.4406 Y16.4500
G01 X9.4572 Y16.4291
G01 X9.4655 Y16.4175
G01 X9.4797 Y16.3949
G01 X9.4866 Y16.3824
G01 X9.4976 Y16.3597
G01 X9.5036 Y16.3452
G01 X9.5124 Y16.3200
G01 X9.5164 Y16.3064
G01 X9.5214 Y16.2856
G01 X9.5247 Y16.2663
G01 X9.5277 Y16.2398
G01 X9.5289 Y16.2122
G01 X9.5289 Y7.1528
G01 X9.5280 Y7.1287
G01 X9.5261 Y7.1069
G01 X9.5371 Y6.9952
G01 X9.5697 Y6.8878
G01 X9.6226 Y6.7887
G01 X9.6938 Y6.7020
G01 X9.7106 Y6.6879
G01 X9.7283 Y6.6714
G01 X12.2033 Y4.1964
G01 X12.2197 Y4.1787
G01 X12.2338 Y4.1620
G01 X12.3206 Y4.0907
G01 X12.4196 Y4.0378
G01 X12.5271 Y4.0052
G01 X12.6388 Y3.9942
G01 X12.6606 Y3.9961
G01 X12.6847 Y3.9970
G01 X34.3353 Y3.9970
G01 X34.3594 Y3.9961
G01 X34.3812 Y3.9942
G01 X34.4929 Y4.0052
G01 X34.6004 Y4.0378
G01 X34.6994 Y4.0907
G01 X34.7862 Y4.1620
G01 X34.8003 Y4.1787
G01 X34.8167 Y4.1964
G01 X35.7372 Y5.1170
G01 X35.7549 Y5.1334
G01 X35.7717 Y5.1475
G01 X35.8429 Y5.2343
G01 X35.8958 Y5.3333
G01 X35.9284 Y5.4407
G01 X35.9394 Y5.5524
G01 X35.9376 Y5.5742
G01 X35.9367 Y5.5984
G01 X35.9367 Y11.0340
G01 X35.9379 Y11.0618
G01 X35.9409 Y11.0886
G01 X35.9433 Y11.1028
G01 X35.9494 Y11.1290
G01 X35.9534 Y11.1428
G01 X35.9624 Y11.1682
G01 X35.9679 Y11.1815
G01 X35.9797 Y11.2057
G01 X35.9991 Y11.2380
G01 X36.0096 Y11.2527
G01 X36.0269 Y11.2733
G01 X36.0266 Y11.2737
G01 X36.0362 Y11.2843
G01 X36.0554 Y11.3032
G01 X36.0662 Y11.3127
G01 X36.0874 Y11.3294
G01 X36.0992 Y11.3376
G01 X36.1222 Y11.3517
G01 X36.1348 Y11.3585
G01 X36.1592 Y11.3699
G01 X36.1726 Y11.3753
G01 X36.1981 Y11.3839
G01 X36.2325 Y11.3924
G01 X36.2526 Y11.3956
G01 X36.2794 Y11.3982
G01 X36.3036 Y11.3990
G01 X36.3351 Y11.3974
G01 X36.3618 Y11.3939
G01 X36.3759 Y11.3913
G01 X36.4021 Y11.3848
G01 X36.4158 Y11.3806
G01 X36.4411 Y11.3712
G01 X36.4543 Y11.3655
G01 X36.4783 Y11.3533
G01 X36.5099 Y11.3338
G01 X36.5248 Y11.3227
G01 X36.5455 Y11.3055
G01 X36.5619 Y11.2901
G01 X36.5747 Y11.2762
G01 X36.5840 Y11.2653
G01 X36.6003 Y11.2438
G01 X36.6083 Y11.2319
G01 X36.6221 Y11.2087
G01 X36.6287 Y11.1959
G01 X36.6391 Y11.1732
G01 X36.6450 Y11.1579
G01 X36.6532 Y11.1323
G01 X36.6568 Y11.1183
G01 X36.6592 Y11.1051
G01 X36.6598 Y11.1052
G01 X36.6744 Y11.0318
G01 X36.8455 Y10.6187
G01 X37.0939 Y10.2469
G01 X37.4101 Y9.9307
G01 X37.7819 Y9.6823
G01 X38.1950 Y9.5112
G01 X38.6335 Y9.4239
G01 X39.0807 Y9.4239
G01 X39.5192 Y9.5112
G01 X39.9323 Y9.6823
G01 X40.3041 Y9.9307
G01 X40.6203 Y10.2469
G01 X40.8687 Y10.6187
G01 X41.0398 Y11.0318
G01 X41.1270 Y11.4703
G01 X41.1270 Y11.9174
G01 X41.0398 Y12.3560
G01 X40.8687 Y12.7691
G01 X40.6203 Y13.1409
G01 X40.3041 Y13.4571
G01 X39.9323 Y13.7055
G01 X39.5192 Y13.8766
G01 X39.0807 Y13.9638
G01 X38.6335 Y13.9638
G01 X38.1950 Y13.8766
G01 X37.7819 Y13.7055
G01 X37.4101 Y13.4571
G01 X37.0939 Y13.1409
G01 X36.8455 Y12.7691
G01 X36.6744 Y12.3560
G01 X36.6568 Y12.2694
G01 X36.6532 Y12.2555
G01 X36.6450 Y12.2298
G01 X36.6398 Y12.2164
G01 X36.6287 Y12.1918
G01 X36.6221 Y12.1791
G01 X36.6097 Y12.1580
G01 X36.6003 Y12.1440
G01 X36.5840 Y12.1225
G01 X36.5747 Y12.1116
G01 X36.5619 Y12.0977
G01 X36.5455 Y12.0823
G01 X36.5248 Y12.0650
G01 X36.5133 Y12.0564
G01 X36.4908 Y12.0416
G01 X36.4555 Y12.0228
G01 X36.4411 Y12.0165
G01 X36.4158 Y12.0072
G01 X36.4021 Y12.0029
G01 X36.3759 Y11.9965
G01 X36.3618 Y11.9938
G01 X36.3350 Y11.9909
G01 X36.3351 Y11.9904
G01 X36.3207 Y11.9893
G01 X36.3036 Y11.9887
G01 X36.2794 Y11.9895
G01 X36.2526 Y11.9922
G01 X36.2384 Y11.9944
G01 X36.2120 Y12.0001
G01 X36.1981 Y12.0039
G01 X36.1726 Y12.0125
G01 X36.1592 Y12.0178
G01 X36.1348 Y12.0292
G01 X36.1018 Y12.0484
G01 X36.0874 Y12.0584
G01 X36.0662 Y12.0750
G01 X36.0554 Y12.0845
G01 X36.0362 Y12.1034
G01 X36.0266 Y12.1141
G01 X36.0096 Y12.1350
G01 X36.0012 Y12.1467
G01 X35.9868 Y12.1695
G01 X35.9685 Y12.2049
G01 X35.9624 Y12.2195
G01 X35.9534 Y12.2449
G01 X35.9443 Y12.2796
G01 X35.9409 Y12.2992
G01 X35.9379 Y12.3259
G01 X35.9370 Y12.3403
G01 X35.9367 Y12.7811
G01 X35.9376 Y12.8052
G01 X35.9394 Y12.8270
G01 X35.9284 Y12.9387
G01 X35.8958 Y13.0462
G01 X35.8429 Y13.1452
G01 X35.7717 Y13.2320
G01 X35.7549 Y13.2461
G01 X35.7372 Y13.2625
G01 X34.4103 Y14.5894
G01 X34.3939 Y14.6071
G01 X34.3798 Y14.6239
G01 X34.2930 Y14.6951
G01 X34.1940 Y14.7480
G01 X34.0865 Y14.7806
G01 X33.9748 Y14.7916
G01 X33.9530 Y14.7898
G01 X33.9289 Y14.7889
G01 X29.7027 Y14.7889
G01 X29.6786 Y14.7898
G01 X29.6568 Y14.7916
G01 X29.5451 Y14.7806
G01 X29.4376 Y14.7480
G01 X29.3386 Y14.6951
G01 X29.2518 Y14.6239
G01 X29.2377 Y14.6071
G01 X29.2213 Y14.5894
G01 X28.7566 Y14.1247
G01 X28.7389 Y14.1083
G01 X28.7221 Y14.0942
G01 X28.6509 Y14.0074
G01 X28.5980 Y13.9084
G01 X28.5654 Y13.8009
G01 X28.5544 Y13.6892
G01 X28.5562 Y13.6674
G01 X28.5571 Y13.6433
G01 X28.5568 Y13.0749
G01 X28.5560 Y13.0607
G01 X28.5530 Y13.0342
G01 X28.5506 Y13.0201
G01 X28.5447 Y12.9941
G01 X28.5407 Y12.9804
G01 X28.5319 Y12.9552
G01 X28.5264 Y12.9421
G01 X28.5149 Y12.9180
G01 X28.4957 Y12.8857
G01 X28.4855 Y12.8713
G01 X28.4685 Y12.8508
G01 X28.4689 Y12.8505
G01 X28.4502 Y12.8301
G01 X28.2960 Y12.6759
G01 X28.1789 Y12.5007
G01 X28.0976 Y12.3045
G01 X28.0934 Y12.2880
G01 X28.0851 Y12.2621
G01 X28.0799 Y12.2485
G01 X28.0686 Y12.2237
G01 X28.0495 Y12.1898
G01 X28.0397 Y12.1754
G01 X28.0231 Y12.1538
G01 X28.0136 Y12.1428
G01 X27.9947 Y12.1232
G01 X27.9840 Y12.1133
G01 X27.9629 Y12.0960
G01 X27.9511 Y12.0875
G01 X27.9282 Y12.0727
G01 X27.9156 Y12.0655
G01 X27.8927 Y12.0541
G01 X27.8778 Y12.0478
G01 X27.8521 Y12.0386
G01 X27.8382 Y12.0345
G01 X27.8171 Y12.0294
G01 X27.7973 Y12.0259
G01 X27.7702 Y12.0227
G01 X27.7557 Y12.0219
G01 X27.7285 Y12.0219
G01 X27.7139 Y12.0227
G01 X27.6869 Y12.0259
G01 X27.6725 Y12.0283
G01 X27.6460 Y12.0345
G01 X27.6321 Y12.0386
G01 X27.6064 Y12.0478
G01 X27.5930 Y12.0535
G01 X27.5686 Y12.0655
G01 X27.5559 Y12.0727
G01 X27.5363 Y12.0851
G01 X27.5213 Y12.0960
G01 X27.5002 Y12.1133
G01 X27.4895 Y12.1232
G01 X27.4706 Y12.1428
G01 X27.4611 Y12.1538
G01 X27.4445 Y12.1754
G01 X27.4363 Y12.1874
G01 X27.4223 Y12.2108
G01 X27.4051 Y12.2465
G01 X27.3991 Y12.2621
G01 X27.3907 Y12.2880
G01 X27.3867 Y12.3040
G01 X27.3052 Y12.5007
G01 X27.1882 Y12.6759
G01 X27.0339 Y12.8301
G01 X27.0153 Y12.8505
G01 X26.9986 Y12.8713
G01 X26.9904 Y12.8830
G01 X26.9762 Y12.9055
G01 X26.9693 Y12.9180
G01 X26.9577 Y12.9421
G01 X26.9523 Y12.9552
G01 X26.9435 Y12.9804
G01 X26.9345 Y13.0149
G01 X26.9312 Y13.0342
G01 X26.9282 Y13.0607
G01 X26.9270 Y13.0883
G01 X26.9270 Y14.3419
G01 X26.9282 Y14.3695
G01 X26.9312 Y14.3960
G01 X26.9336 Y14.4100
G01 X26.9395 Y14.4361
G01 X26.9435 Y14.4498
G01 X26.9523 Y14.4750
G01 X26.9577 Y14.4881
G01 X26.9693 Y14.5122
G01 X26.9885 Y14.5445
G01 X26.9986 Y14.5589
G01 X27.0157 Y14.5793
G01 X27.0153 Y14.5797
G01 X27.0339 Y14.6000
G01 X28.5181 Y16.0842
G01 X28.5378 Y16.1024
G01 X28.5693 Y16.1267
G01 X28.5912 Y16.1406
G01 X28.6259 Y16.1586
G01 X28.6393 Y16.1643
G01 X28.6637 Y16.1732
G01 X28.6978 Y16.1825
G01 X28.7158 Y16.1859
G01 X28.7415 Y16.1888
G01 X28.7415 Y16.1893
G01 X28.7734 Y16.1911
G01 X28.7951 Y16.1905
G01 X28.8209 Y16.1882
G01 X28.8474 Y16.1841
G01 X29.0139 Y16.1510
G01 X29.2837 Y16.1510
G01 X29.5484 Y16.2036
G01 X29.7977 Y16.3069
G01 X30.0221 Y16.4568
G01 X30.2129 Y16.6476
G01 X30.3628 Y16.8720
G01 X30.4661 Y17.1213
G01 X30.5187 Y17.3860
G01 X30.5187 Y17.6558
G01 X30.4661 Y17.9205
G01 X30.3621 Y18.1715
G01 X30.3541 Y18.1850
G01 X30.3423 Y18.2080
G01 X30.3359 Y18.2222
G01 X30.3263 Y18.2475
G01 X30.3164 Y18.2826
G01 X30.3126 Y18.3017
G01 X30.3095 Y18.3285
G01 X30.3090 Y18.3285
G01 X30.3072 Y18.3613
G01 X30.3078 Y18.3843
G01 X30.3104 Y18.4112
G01 X30.3125 Y18.4255
G01 X30.3181 Y18.4520
G01 X30.3218 Y18.4659
G01 X30.3303 Y18.4916
G01 X30.3356 Y18.5050
G01 X30.3470 Y18.5295
G01 X30.3662 Y18.5629
G01 X30.3761 Y18.5772
G01 X30.3927 Y18.5986
G01 X30.4022 Y18.6094
G01 X30.4211 Y18.6288
G01 X30.4318 Y18.6385
G01 X30.4528 Y18.6555
G01 X30.4645 Y18.6640
G01 X30.4873 Y18.6785
G01 X30.5227 Y18.6969
G01 X30.5375 Y18.7031
G01 X30.5630 Y18.7121
G01 X30.5768 Y18.7162
G01 X30.5977 Y18.7213
G01 X30.6174 Y18.7247
G01 X30.6443 Y18.7278
G01 X30.6722 Y18.7290
G01 X30.7935 Y18.7290
G01 X30.8211 Y18.7278
G01 X30.8476 Y18.7248
G01 X30.8617 Y18.7224
G01 X30.8877 Y18.7165
G01 X30.9014 Y18.7126
G01 X30.9266 Y18.7037
G01 X30.9397 Y18.6983
G01 X30.9638 Y18.6867
G01 X30.9961 Y18.6675
G01 X31.0105 Y18.6574
G01 X31.0310 Y18.6403
G01 X31.0313 Y18.6407
G01 X31.0517 Y18.6221
G01 X31.7613 Y17.9124
G01 X31.7777 Y17.8947
G01 X31.7918 Y17.8780
G01 X31.8786 Y17.8067
G01 X31.9776 Y17.7538
G01 X32.0851 Y17.7212
G01 X32.1968 Y17.7102
G01 X32.2186 Y17.7121
G01 X32.2427 Y17.7130
G01 X35.3850 Y17.7130
G01 X35.4091 Y17.7121
G01 X35.4309 Y17.7102
G01 X35.5426 Y17.7212
G01 X35.6500 Y17.7538
G01 X35.7491 Y17.8067
G01 X35.8358 Y17.8780
G01 X35.8499 Y17.8947
G01 X35.8664 Y17.9124
G01 X38.1553 Y20.2014
G01 X38.1730 Y20.2178
G01 X38.1898 Y20.2319
G01 X38.2610 Y20.3187
G01 X38.3139 Y20.4177
G01 X38.3465 Y20.5251
G01 X38.3575 Y20.6368
G01 X38.3550 Y20.6711
G01 X38.3551 Y20.6983
G01 X38.3559 Y20.7123
G01 X38.3588 Y20.7384
G01 X38.3611 Y20.7523
G01 X38.3668 Y20.7779
G01 X38.3707 Y20.7914
G01 X38.3792 Y20.8163
G01 X38.3845 Y20.8292
G01 X38.3957 Y20.8530
G01 X38.4024 Y20.8653
G01 X38.4147 Y20.8855
G01 X38.4242 Y20.8992
G01 X38.4404 Y20.9199
G01 X38.4496 Y20.9305
G01 X38.4679 Y20.9493
G01 X38.4882 Y20.9674
G01 X38.5805 Y21.0432
G01 X38.6009 Y21.0660
G01 X38.6203 Y21.0848
G01 X38.6312 Y21.0943
G01 X38.6526 Y21.1108
G01 X38.6645 Y21.1189
G01 X38.6877 Y21.1329
G01 X38.7005 Y21.1396
G01 X38.7233 Y21.1502
G01 X38.7385 Y21.1561
G01 X38.7642 Y21.1645
G01 X38.7782 Y21.1682
G01 X38.8026 Y21.1733
G01 X38.8189 Y21.1757
G01 X38.8459 Y21.1781
G01 X38.8677 Y21.1786
G01 X38.9017 Y21.1766
G01 X38.9285 Y21.1729
G01 X38.9427 Y21.1700
G01 X38.9688 Y21.1633
G01 X38.9826 Y21.1589
G01 X39.0078 Y21.1492
G01 X39.0210 Y21.1432
G01 X39.0450 Y21.1307
G01 X39.0761 Y21.1110
G01 X39.0913 Y21.0995
G01 X39.1118 Y21.0819
G01 X39.1257 Y21.0684
G01 X39.1406 Y21.0521
G01 X39.1499 Y21.0410
G01 X39.1659 Y21.0192
G01 X39.1738 Y21.0071
G01 X39.1873 Y20.9837
G01 X39.2037 Y20.9481
G01 X39.2138 Y20.9196
G01 X39.2242 Y20.8851
G01 X39.2493 Y20.8382
G01 X39.2830 Y20.7971
G01 X39.3241 Y20.7634
G01 X39.3710 Y20.7383
G01 X39.4219 Y20.7229
G01 X39.4927 Y20.7159
G01 X41.1569 Y20.7159
G01 X41.2277 Y20.7229
G01 X41.2786 Y20.7383
G01 X41.3255 Y20.7634
G01 X41.3666 Y20.7971
G01 X41.4003 Y20.8382
G01 X41.4254 Y20.8851
G01 X41.4408 Y20.9360
G01 X41.4478 Y21.0069
G01 X41.4478 Y22.6710
G01 X41.4408 Y22.7418
G01 X41.4254 Y22.7927
G01 X41.4003 Y22.8396
G01 X41.3591 Y22.8904
G01 X41.3506 Y22.9021
G01 X41.3360 Y22.9247
G01 X41.3289 Y22.9372
G01 X41.3175 Y22.9600
G01 X41.3112 Y22.9746
G01 X41.3021 Y22.9999
G01 X41.2980 Y23.0137
G01 X41.2917 Y23.0399
G01 X41.2892 Y23.0541
G01 X41.2859 Y23.0808
G01 X41.2845 Y23.1104
G01 X41.2855 Y23.1365
G01 X41.2883 Y23.1633
G01 X41.2907 Y23.1775
G01 X41.2965 Y23.2038
G01 X41.3004 Y23.2176
G01 X41.3092 Y23.2431
G01 X41.3147 Y23.2564
G01 X41.3263 Y23.2807
G01 X41.3332 Y23.2933
G01 X41.3456 Y23.3134
G01 X41.3558 Y23.3279
G01 X41.3730 Y23.3486
G01 X41.3726 Y23.3490
G01 X41.3914 Y23.3695
G01 X41.9801 Y23.9582
G01 X41.9998 Y23.9764
G01 X42.0313 Y24.0007
G01 X42.0532 Y24.0146
G01 X42.0879 Y24.0326
G01 X42.1013 Y24.0383
G01 X42.1257 Y24.0472
G01 X42.1598 Y24.0565
G01 X42.1777 Y24.0599
G01 X42.2035 Y24.0628
G01 X42.2035 Y24.0633
G01 X42.2354 Y24.0651
G01 X42.2571 Y24.0645
G01 X42.2966 Y24.0603
G01 X42.4759 Y24.0250
G01 X42.7457 Y24.0250
G01 X43.0104 Y24.0776
G01 X43.2597 Y24.1809
G01 X43.4841 Y24.3308
G01 X43.6749 Y24.5216
G01 X43.8248 Y24.7460
G01 X43.9281 Y24.9953
G01 X43.9807 Y25.2600
G01 X43.9807 Y25.5298
G01 X43.9281 Y25.7945
G01 X43.8248 Y26.0438
G01 X43.6749 Y26.2682
G01 X43.4841 Y26.4590
G01 X43.2597 Y26.6089
G01 X43.0104 Y26.7122
G01 X42.7457 Y26.7649
G01 X42.4759 Y26.7649
G01 X42.2112 Y26.7122
G01 X41.9619 Y26.6089
G01 X41.7375 Y26.4590
G01 X41.5467 Y26.2682
G01 X41.3968 Y26.0438
G01 X41.2935 Y25.7945
G01 X41.2409 Y25.5298
G01 X41.2409 Y25.2600
G01 X41.2740 Y25.0936
G01 X41.2781 Y25.0670
G01 X41.2804 Y25.0412
G01 X41.2810 Y25.0196
G01 X41.2792 Y24.9876
G01 X41.2733 Y24.9482
G01 X41.2631 Y24.9098
G01 X41.2488 Y24.8727
G01 X41.2373 Y24.8494
G01 X41.2183 Y24.8179
G01 X41.2085 Y24.8042
G01 X41.1918 Y24.7843
G01 X41.1922 Y24.7839
G01 X41.1741 Y24.7642
G01 X39.9543 Y23.5444
G01 X39.9366 Y23.5280
G01 X39.9198 Y23.5139
G01 X39.8486 Y23.4271
G01 X39.7957 Y23.3281
G01 X39.7614 Y23.2148
G01 X39.7527 Y23.1900
G01 X39.7427 Y23.1665
G01 X39.7246 Y23.1325
G01 X39.7171 Y23.1205
G01 X39.6939 Y23.0891
G01 X39.6771 Y23.0700
G01 X39.6660 Y23.0587
G01 X39.6487 Y23.0431
G01 X39.6177 Y23.0193
G01 X39.6063 Y23.0119
G01 X39.5722 Y22.9929
G01 X39.5498 Y22.9828
G01 X39.5362 Y22.9776
G01 X39.5120 Y22.9698
G01 X39.4789 Y22.9620
G01 X39.4478 Y22.9575
G01 X39.4219 Y22.9550
G01 X39.3710 Y22.9395
G01 X39.3241 Y22.9144
G01 X39.2830 Y22.8807
G01 X39.2493 Y22.8396
G01 X39.2242 Y22.7927
G01 X39.2095 Y22.7454
G01 X39.2045 Y22.7319
G01 X39.1938 Y22.7071
G01 X39.1749 Y22.6724
G01 X39.1659 Y22.6586
G01 X39.1499 Y22.6369
G01 X39.1406 Y22.6258
G01 X39.1222 Y22.6060
G01 X39.1118 Y22.5960
G01 X39.0913 Y22.5784
G01 X39.0798 Y22.5696
G01 X39.0574 Y22.5545
G01 X39.0450 Y22.5471
G01 X39.0220 Y22.5350
G01 X39.0078 Y22.5287
G01 X38.9826 Y22.5190
G01 X38.9474 Y22.5088
G01 X38.9285 Y22.5050
G01 X38.9017 Y22.5018
G01 X38.9017 Y22.5012
G01 X38.8873 Y22.5000
G01 X38.8603 Y22.4993
G01 X38.8459 Y22.4998
G01 X38.8189 Y22.5021
G01 X38.8047 Y22.5042
G01 X38.7782 Y22.5096
G01 X38.7642 Y22.5133
G01 X38.7385 Y22.5217
G01 X38.7251 Y22.5270
G01 X38.7005 Y22.5382
G01 X38.6669 Y22.5573
G01 X38.6526 Y22.5670
G01 X38.6312 Y22.5835
G01 X38.6203 Y22.5930
G01 X38.6009 Y22.6118
G01 X38.5805 Y22.6347
G01 X38.4100 Y22.7746
G01 X38.2155 Y22.8786
G01 X38.0043 Y22.9427
G01 X37.8398 Y22.9589
G01 X37.7298 Y22.9589
G01 X37.5653 Y22.9427
G01 X37.3541 Y22.8786
G01 X37.1596 Y22.7746
G01 X36.9891 Y22.6347
G01 X36.8491 Y22.4641
G01 X36.8368 Y22.4410
G01 X36.8225 Y22.4170
G01 X36.8102 Y22.3987
G01 X36.7983 Y22.3833
G01 X36.7805 Y22.3630
G01 X36.7704 Y22.3527
G01 X36.7504 Y22.3344
G01 X36.7392 Y22.3253
G01 X36.7173 Y22.3095
G01 X36.7051 Y22.3018
G01 X36.6815 Y22.2885
G01 X36.6454 Y22.2723
G01 X36.6300 Y22.2669
G01 X36.6041 Y22.2593
G01 X36.5701 Y22.2523
G01 X36.5490 Y22.2498
G01 X36.5220 Y22.2483
G01 X36.5076 Y22.2483
G01 X36.4806 Y22.2498
G01 X36.4662 Y22.2514
G01 X36.4396 Y22.2560
G01 X36.4255 Y22.2593
G01 X36.3996 Y22.2669
G01 X36.3860 Y22.2717
G01 X36.3610 Y22.2822
G01 X36.3259 Y22.3009
G01 X36.3123 Y22.3095
G01 X36.2904 Y22.3253
G01 X36.2609 Y22.3509
G01 X36.2491 Y22.3630
G01 X36.2313 Y22.3833
G01 X36.2224 Y22.3947
G01 X36.2071 Y22.4170
G01 X36.1928 Y22.4410
G01 X36.1805 Y22.4641
G01 X36.0405 Y22.6347
G01 X35.9482 Y22.7104
G01 X35.9280 Y22.7285
G01 X35.9096 Y22.7474
G01 X35.9004 Y22.7579
G01 X35.8842 Y22.7786
G01 X35.8762 Y22.7901
G01 X35.8624 Y22.8125
G01 X35.8557 Y22.8248
G01 X35.8449 Y22.8475
G01 X35.8392 Y22.8616
G01 X35.8307 Y22.8864
G01 X35.8220 Y22.9205
G01 X35.8188 Y22.9394
G01 X35.8159 Y22.9655
G01 X35.8147 Y22.9926
G01 X35.8151 Y23.3991
G01 X35.8185 Y23.4380
G01 X35.8261 Y23.4764
G01 X35.8297 Y23.4895
G01 X35.8427 Y23.5263
G01 X35.8596 Y23.5615
G01 X35.8718 Y23.5822
G01 X35.8802 Y23.5948
G01 X35.9042 Y23.6256
G01 X35.9185 Y23.6413
G01 X35.9313 Y23.6537
G01 X35.9613 Y23.6787
G01 X35.9938 Y23.7004
G01 X36.0162 Y23.7126
G01 X36.0401 Y23.7237
G01 X36.1543 Y23.7710
G01 X36.3787 Y23.9209
G01 X36.5695 Y24.1117
G01 X36.7195 Y24.3361
G01 X36.8227 Y24.5854
G01 X36.8754 Y24.8501
G01 X36.8754 Y25.1199
G01 X36.8227 Y25.3846
G01 X36.7195 Y25.6339
G01 X36.5695 Y25.8583
G01 X36.3787 Y26.0491
G01 X36.1543 Y26.1990
G01 X35.9050 Y26.3023
G01 X35.6404 Y26.3549
G01 X35.3705 Y26.3549
G01 X35.1058 Y26.3023
G01 X34.8565 Y26.1990
G01 X34.6322 Y26.0491
G01 X34.4413 Y25.8583
G01 X34.2914 Y25.6339
G01 X34.1881 Y25.3846
G01 X34.1355 Y25.1199
G01 X34.1355 Y24.8501
G01 X34.1881 Y24.5854
G01 X34.2914 Y24.3361
G01 X34.4413 Y24.1117
G01 X34.5771 Y23.9754
G01 X34.5866 Y23.9648
G01 X34.6032 Y23.9439
G01 X34.6115 Y23.9323
G01 X34.6257 Y23.9097
G01 X34.6436 Y23.8745
G01 X34.6496 Y23.8600
G01 X34.6584 Y23.8348
G01 X34.6624 Y23.8211
G01 X34.6674 Y23.8004
G01 X34.6707 Y23.7811
G01 X34.6737 Y23.7546
G01 X34.6749 Y23.7270
G01 X34.6749 Y22.9926
G01 X34.6737 Y22.9655
G01 X34.6708 Y22.9394
G01 X34.6685 Y22.9256
G01 X34.6628 Y22.8999
G01 X34.6589 Y22.8864
G01 X34.6504 Y22.8616
G01 X34.6451 Y22.8486
G01 X34.6339 Y22.8248
G01 X34.6149 Y22.7924
G01 X34.6054 Y22.7786
G01 X34.5892 Y22.7579
G01 X34.5800 Y22.7473
G01 X34.5617 Y22.7285
G01 X34.5513 Y22.7191
G01 X34.4491 Y22.6347
G01 X34.3091 Y22.4641
G01 X34.2051 Y22.2696
G01 X34.1411 Y22.0585
G01 X34.1194 Y21.8389
G01 X34.1411 Y21.6194
G01 X34.2051 Y21.4083
G01 X34.3091 Y21.2137
G01 X34.4491 Y21.0432
G01 X34.6196 Y20.9032
G01 X34.8141 Y20.7992
G01 X35.0253 Y20.7352
G01 X35.1898 Y20.7190
G01 X35.2998 Y20.7190
G01 X35.4643 Y20.7352
G01 X35.6755 Y20.7992
G01 X35.8700 Y20.9032
G01 X36.0406 Y21.0432
G01 X36.1805 Y21.2137
G01 X36.1928 Y21.2368
G01 X36.2071 Y21.2609
G01 X36.2194 Y21.2791
G01 X36.2313 Y21.2945
G01 X36.2491 Y21.3149
G01 X36.2609 Y21.3269
G01 X36.2904 Y21.3525
G01 X36.3123 Y21.3683
G01 X36.3245 Y21.3761
G01 X36.3481 Y21.3893
G01 X36.3842 Y21.4055
G01 X36.3996 Y21.4110
G01 X36.4255 Y21.4186
G01 X36.4595 Y21.4255
G01 X36.4806 Y21.4280
G01 X36.5076 Y21.4296
G01 X36.5220 Y21.4296
G01 X36.5490 Y21.4280
G01 X36.5634 Y21.4264
G01 X36.5900 Y21.4218
G01 X36.6041 Y21.4186
G01 X36.6300 Y21.4110
G01 X36.6436 Y21.4061
G01 X36.6686 Y21.3957
G01 X36.7037 Y21.3770
G01 X36.7173 Y21.3683
G01 X36.7392 Y21.3525
G01 X36.7687 Y21.3269
G01 X36.7805 Y21.3149
G01 X36.7983 Y21.2945
G01 X36.8072 Y21.2831
G01 X36.8225 Y21.2609
G01 X36.8368 Y21.2368
G01 X36.8491 Y21.2137
G01 X36.9577 Y21.0814
G01 X36.9744 Y21.0591
G01 X36.9890 Y21.0365
G01 X37.0076 Y21.0012
G01 X37.0138 Y20.9866
G01 X37.0230 Y20.9613
G01 X37.0324 Y20.9265
G01 X37.0359 Y20.9071
G01 X37.0391 Y20.8804
G01 X37.0405 Y20.8508
G01 X37.0396 Y20.8247
G01 X37.0367 Y20.7979
G01 X37.0344 Y20.7837
G01 X37.0285 Y20.7574
G01 X37.0246 Y20.7436
G01 X37.0158 Y20.7181
G01 X37.0104 Y20.7048
G01 X36.9988 Y20.6805
G01 X36.9795 Y20.6478
G01 X36.9692 Y20.6333
G01 X36.9520 Y20.6126
G01 X36.9525 Y20.6122
G01 X36.9336 Y20.5917
G01 X35.2920 Y18.9506
G01 X35.2814 Y18.9411
G01 X35.2605 Y18.9245
G01 X35.2489 Y18.9162
G01 X35.2263 Y18.9020
G01 X35.1911 Y18.8841
G01 X35.1766 Y18.8781
G01 X35.1514 Y18.8693
G01 X35.1378 Y18.8653
G01 X35.1170 Y18.8604
G01 X35.0977 Y18.8570
G01 X35.0712 Y18.8540
G01 X35.0436 Y18.8529
G01 X32.5841 Y18.8529
G01 X32.5565 Y18.8540
G01 X32.5300 Y18.8570
G01 X32.5160 Y18.8594
G01 X32.4899 Y18.8653
G01 X32.4762 Y18.8693
G01 X32.4510 Y18.8781
G01 X32.4379 Y18.8836
G01 X32.4138 Y18.8951
G01 X32.4014 Y18.9020
G01 X32.3815 Y18.9143
G01 X32.3671 Y18.9245
G01 X32.3467 Y18.9415
G01 X32.3463 Y18.9411
G01 X32.3357 Y18.9506
G01 X31.6163 Y19.6694
G01 X31.5999 Y19.6871
G01 X31.5858 Y19.7039
G01 X31.4990 Y19.7751
G01 X31.4000 Y19.8280
G01 X31.2925 Y19.8606
G01 X31.1808 Y19.8716
G01 X31.1590 Y19.8698
G01 X31.1349 Y19.8689
G01 X26.4007 Y19.8689
G01 X26.3766 Y19.8698
G01 X26.3548 Y19.8716
G01 X26.2431 Y19.8606
G01 X26.1356 Y19.8280
G01 X26.0366 Y19.7751
G01 X25.9498 Y19.7039
G01 X25.9357 Y19.6871
G01 X25.9193 Y19.6694
G01 X23.2166 Y16.9667
G01 X23.1989 Y16.9503
G01 X23.1821 Y16.9362
G01 X23.1109 Y16.8494
G01 X23.0580 Y16.7504
G01 X23.0254 Y16.6429
G01 X23.0144 Y16.5312
G01 X23.0162 Y16.5094
G01 X23.0171 Y16.4853
G01 X23.0171 Y13.0883
G01 X23.0160 Y13.0607
G01 X23.0130 Y13.0342
G01 X23.0106 Y13.0201
G01 X23.0047 Y12.9941
G01 X23.0007 Y12.9804
G01 X22.9919 Y12.9552
G01 X22.9864 Y12.9421
G01 X22.9749 Y12.9180
G01 X22.9680 Y12.9055
G01 X22.9557 Y12.8857
G01 X22.9455 Y12.8713
G01 X22.9285 Y12.8508
G01 X22.9289 Y12.8505
G01 X22.9102 Y12.8301
G01 X22.7560 Y12.6759
G01 X22.6389 Y12.5007
G01 X22.5576 Y12.3045
G01 X22.5534 Y12.2880
G01 X22.5451 Y12.2621
G01 X22.5399 Y12.2485
G01 X22.5286 Y12.2237
G01 X22.5095 Y12.1898
G01 X22.4997 Y12.1754
G01 X22.4831 Y12.1538
G01 X22.4736 Y12.1428
G01 X22.4547 Y12.1232
G01 X22.4440 Y12.1133
G01 X22.4229 Y12.0960
G01 X22.4111 Y12.0875
G01 X22.3882 Y12.0727
G01 X22.3756 Y12.0655
G01 X22.3527 Y12.0541
G01 X22.3378 Y12.0478
G01 X22.3121 Y12.0386
G01 X22.2771 Y12.0294
G01 X22.2573 Y12.0259
G01 X22.2302 Y12.0227
G01 X22.2021 Y12.0215
G01 X22.1885 Y12.0219
G01 X22.1739 Y12.0227
G01 X22.1469 Y12.0259
G01 X22.1325 Y12.0283
G01 X22.1060 Y12.0345
G01 X22.0921 Y12.0386
G01 X22.0664 Y12.0478
G01 X22.0530 Y12.0535
G01 X22.0286 Y12.0655
G01 X21.9963 Y12.0851
G01 X21.9813 Y12.0960
G01 X21.9602 Y12.1133
G01 X21.9495 Y12.1232
G01 X21.9306 Y12.1428
G01 X21.9211 Y12.1538
G01 X21.9045 Y12.1754
G01 X21.8963 Y12.1874
G01 X21.8823 Y12.2108
G01 X21.8651 Y12.2465
G01 X21.8591 Y12.2621
G01 X21.8507 Y12.2880
G01 X21.8467 Y12.3040
G01 X21.7652 Y12.5007
G01 X21.6482 Y12.6759
G01 X21.4939 Y12.8301
G01 X21.4753 Y12.8505
G01 X21.4586 Y12.8713
G01 X21.4504 Y12.8830
G01 X21.4362 Y12.9055
G01 X21.4293 Y12.9180
G01 X21.4183 Y12.9408
G01 X21.4123 Y12.9552
G01 X21.4035 Y12.9804
G01 X21.3995 Y12.9941
G01 X21.3945 Y13.0149
G01 X21.3912 Y13.0342
G01 X21.3882 Y13.0607
G01 X21.3870 Y13.0883
G01 X21.3870 Y16.9299
G01 X21.3882 Y16.9575
G01 X21.3912 Y16.9840
G01 X21.3936 Y16.9980
G01 X21.3995 Y17.0241
G01 X21.4035 Y17.0378
G01 X21.4123 Y17.0630
G01 X21.4177 Y17.0761
G01 X21.4293 Y17.1002
G01 X21.4362 Y17.1126
G01 X21.4504 Y17.1352
G01 X21.4586 Y17.1469
G01 X21.4757 Y17.1673
G01 X21.4753 Y17.1677
G01 X21.4848 Y17.1783
G01 X23.1693 Y18.8634
G01 X23.1870 Y18.8799
G01 X23.2038 Y18.8940
G01 X23.2750 Y18.9807
G01 X23.3279 Y19.0798
G01 X23.3605 Y19.1872
G01 X23.3715 Y19.2989
G01 X23.3696 Y19.3207
G01 X23.3687 Y19.3449
G01 X23.3687 Y20.6852
G01 X23.3699 Y20.7123
G01 X23.3728 Y20.7384
G01 X23.3751 Y20.7523
G01 X23.3808 Y20.7779
G01 X23.3847 Y20.7914
G01 X23.3932 Y20.8163
G01 X23.3985 Y20.8292
G01 X23.4097 Y20.8530
G01 X23.4287 Y20.8855
G01 X23.4382 Y20.8992
G01 X23.4544 Y20.9199
G01 X23.4636 Y20.9305
G01 X23.4819 Y20.9493
G01 X23.5022 Y20.9674
G01 X23.5945 Y21.0432
G01 X23.6149 Y21.0660
G01 X23.6343 Y21.0848
G01 X23.6452 Y21.0943
G01 X23.6666 Y21.1108
G01 X23.6785 Y21.1189
G01 X23.7017 Y21.1329
G01 X23.7373 Y21.1502
G01 X23.7525 Y21.1561
G01 X23.7782 Y21.1645
G01 X23.7922 Y21.1682
G01 X23.8166 Y21.1733
G01 X23.8329 Y21.1757
G01 X23.8599 Y21.1781
G01 X23.8743 Y21.1785
G01 X23.9013 Y21.1778
G01 X23.9157 Y21.1766
G01 X23.9425 Y21.1729
G01 X23.9567 Y21.1700
G01 X23.9828 Y21.1633
G01 X23.9966 Y21.1589
G01 X24.0218 Y21.1492
G01 X24.0350 Y21.1432
G01 X24.0590 Y21.1307
G01 X24.0901 Y21.1110
G01 X24.1053 Y21.0995
G01 X24.1258 Y21.0819
G01 X24.1397 Y21.0684
G01 X24.1546 Y21.0521
G01 X24.1639 Y21.0410
G01 X24.1799 Y21.0192
G01 X24.1878 Y21.0071
G01 X24.2013 Y20.9837
G01 X24.2177 Y20.9481
G01 X24.2278 Y20.9196
G01 X24.2382 Y20.8851
G01 X24.2633 Y20.8382
G01 X24.2970 Y20.7971
G01 X24.3381 Y20.7634
G01 X24.3850 Y20.7383
G01 X24.4359 Y20.7229
G01 X24.5067 Y20.7159
G01 X26.1709 Y20.7159
G01 X26.2417 Y20.7229
G01 X26.2926 Y20.7383
G01 X26.3395 Y20.7634
G01 X26.3806 Y20.7971
G01 X26.4143 Y20.8382
G01 X26.4394 Y20.8851
G01 X26.4548 Y20.9360
G01 X26.4591 Y20.9673
G01 X26.4648 Y20.9936
G01 X26.4686 Y21.0075
G01 X26.4772 Y21.0330
G01 X26.4825 Y21.0464
G01 X26.4940 Y21.0708
G01 X26.5008 Y21.0835
G01 X26.5132 Y21.1039
G01 X26.5231 Y21.1182
G01 X26.5397 Y21.1394
G01 X26.5492 Y21.1502
G01 X26.5682 Y21.1694
G01 X26.5788 Y21.1791
G01 X26.5998 Y21.1960
G01 X26.6115 Y21.2044
G01 X26.6342 Y21.2189
G01 X26.6696 Y21.2371
G01 X26.6842 Y21.2433
G01 X26.7096 Y21.2522
G01 X26.7443 Y21.2613
G01 X26.7639 Y21.2647
G01 X26.7907 Y21.2678
G01 X26.8185 Y21.2690
G01 X26.9929 Y21.2690
G01 X27.0170 Y21.2681
G01 X27.0388 Y21.2662
G01 X27.1505 Y21.2772
G01 X27.2580 Y21.3098
G01 X27.3570 Y21.3627
G01 X27.4438 Y21.4340
G01 X27.4579 Y21.4507
G01 X27.4743 Y21.4684
G01 X30.2181 Y24.2122
G01 X30.2378 Y24.2304
G01 X30.2581 Y24.2466
G01 X30.2912 Y24.2686
G01 X30.3259 Y24.2866
G01 X30.3393 Y24.2923
G01 X30.3637 Y24.3012
G01 X30.3978 Y24.3105
G01 X30.4158 Y24.3139
G01 X30.4415 Y24.3168
G01 X30.4415 Y24.3173
G01 X30.4735 Y24.3191
G01 X30.4951 Y24.3185
G01 X30.5209 Y24.3162
G01 X30.5474 Y24.3121
G01 X30.7139 Y24.2790
G01 X30.9837 Y24.2790
G01 X31.2484 Y24.3316
G01 X31.4977 Y24.4349
G01 X31.7221 Y24.5848
G01 X31.9129 Y24.7756
G01 X32.0628 Y25.0000
G01 X32.1661 Y25.2493
G01 X32.2188 Y25.5140
G01 X32.2188 Y25.7838
G01 X32.1661 Y26.0485
G01 X32.0628 Y26.2978
G01 X31.9129 Y26.5222
G01 X31.7221 Y26.7130
G01 X31.4977 Y26.8629
G01 X31.2484 Y26.9662
G01 X30.9837 Y27.0189
G01 X30.7139 Y27.0189
G01 X30.4492 Y26.9662
G01 X30.1999 Y26.8629
G01 X29.9755 Y26.7130
G01 X29.7847 Y26.5222
G01 X29.6348 Y26.2978
G01 X29.5315 Y26.0485
G01 X29.4789 Y25.7838
G01 X29.4789 Y25.5140
G01 X29.5120 Y25.3476
G01 X29.5161 Y25.3210
G01 X29.5184 Y25.2952
G01 X29.5190 Y25.2736
G01 X29.5172 Y25.2416
G01 X29.5138 Y25.2159
G01 X29.5051 Y25.1770
G01 X29.4922 Y25.1394
G01 X29.4868 Y25.1267
G01 X29.4685 Y25.0913
G01 X29.4563 Y25.0719
G01 X29.4465 Y25.0582
G01 X29.4298 Y25.0383
G01 X29.4302 Y25.0379
G01 X29.4121 Y25.0182
G01 X27.0440 Y22.6501
G01 X27.0232 Y22.6311
G01 X27.0019 Y22.6141
G01 X26.9900 Y22.6058
G01 X26.9669 Y22.5914
G01 X26.9312 Y22.5735
G01 X26.9160 Y22.5673
G01 X26.8902 Y22.5585
G01 X26.8555 Y22.5499
G01 X26.8351 Y22.5467
G01 X26.8080 Y22.5440
G01 X26.7838 Y22.5432
G01 X26.7663 Y22.5438
G01 X26.7518 Y22.5449
G01 X26.7247 Y22.5485
G01 X26.7105 Y22.5512
G01 X26.6840 Y22.5578
G01 X26.6701 Y22.5621
G01 X26.6446 Y22.5717
G01 X26.6313 Y22.5776
G01 X26.6071 Y22.5901
G01 X26.5756 Y22.6099
G01 X26.5603 Y22.6214
G01 X26.5395 Y22.6390
G01 X26.5248 Y22.6531
G01 X26.5011 Y22.6801
G01 X26.4848 Y22.7019
G01 X26.4768 Y22.7141
G01 X26.4632 Y22.7377
G01 X26.4467 Y22.7735
G01 X26.4402 Y22.7912
G01 X26.4143 Y22.8396
G01 X26.3806 Y22.8807
G01 X26.3395 Y22.9144
G01 X26.2926 Y22.9395
G01 X26.2417 Y22.9550
G01 X26.1709 Y22.9619
G01 X24.5067 Y22.9619
G01 X24.4359 Y22.9550
G01 X24.3850 Y22.9395
G01 X24.3381 Y22.9144
G01 X24.2970 Y22.8807
G01 X24.2633 Y22.8396
G01 X24.2382 Y22.7927
G01 X24.2278 Y22.7583
G01 X24.2185 Y22.7319
G01 X24.2078 Y22.7071
G01 X24.2013 Y22.6942
G01 X24.1878 Y22.6707
G01 X24.1799 Y22.6586
G01 X24.1639 Y22.6369
G01 X24.1397 Y22.6094
G01 X24.1258 Y22.5960
G01 X24.1053 Y22.5784
G01 X24.0938 Y22.5696
G01 X24.0714 Y22.5545
G01 X24.0590 Y22.5471
G01 X24.0360 Y22.5350
G01 X24.0218 Y22.5287
G01 X23.9966 Y22.5190
G01 X23.9614 Y22.5088
G01 X23.9425 Y22.5050
G01 X23.9157 Y22.5018
G01 X23.9157 Y22.5012
G01 X23.9013 Y22.5000
G01 X23.8743 Y22.4993
G01 X23.8599 Y22.4998
G01 X23.8329 Y22.5021
G01 X23.8187 Y22.5042
G01 X23.7922 Y22.5096
G01 X23.7782 Y22.5133
G01 X23.7525 Y22.5217
G01 X23.7391 Y22.5270
G01 X23.7145 Y22.5382
G01 X23.6809 Y22.5573
G01 X23.6666 Y22.5670
G01 X23.6452 Y22.5835
G01 X23.6343 Y22.5930
G01 X23.6149 Y22.6118
G01 X23.5945 Y22.6347
G01 X23.4240 Y22.7746
G01 X23.2295 Y22.8786
G01 X23.0183 Y22.9427
G01 X22.8538 Y22.9589
G01 X22.7438 Y22.9589
G01 X22.5793 Y22.9427
G01 X22.3681 Y22.8786
G01 X22.1736 Y22.7746
G01 X22.0031 Y22.6347
G01 X21.8631 Y22.4641
G01 X21.8508 Y22.4410
G01 X21.8365 Y22.4170
G01 X21.8242 Y22.3987
G01 X21.8123 Y22.3833
G01 X21.7945 Y22.3630
G01 X21.7844 Y22.3527
G01 X21.7644 Y22.3344
G01 X21.7532 Y22.3253
G01 X21.7313 Y22.3095
G01 X21.7191 Y22.3018
G01 X21.6955 Y22.2885
G01 X21.6594 Y22.2723
G01 X21.6440 Y22.2669
G01 X21.6181 Y22.2593
G01 X21.6040 Y22.2560
G01 X21.5841 Y22.2523
G01 X21.5630 Y22.2498
G01 X21.5360 Y22.2483
G01 X21.5216 Y22.2483
G01 X21.4946 Y22.2498
G01 X21.4802 Y22.2514
G01 X21.4536 Y22.2560
G01 X21.4395 Y22.2593
G01 X21.4136 Y22.2669
G01 X21.4000 Y22.2717
G01 X21.3750 Y22.2822
G01 X21.3399 Y22.3009
G01 X21.3263 Y22.3095
G01 X21.3044 Y22.3253
G01 X21.2749 Y22.3509
G01 X21.2631 Y22.3630
G01 X21.2453 Y22.3833
G01 X21.2364 Y22.3947
G01 X21.2211 Y22.4170
G01 X21.2136 Y22.4293
G01 X21.1945 Y22.4641
G01 X21.0545 Y22.6347
G01 X20.9622 Y22.7104
G01 X20.9419 Y22.7285
G01 X20.9236 Y22.7474
G01 X20.9144 Y22.7579
G01 X20.8982 Y22.7786
G01 X20.8902 Y22.7901
G01 X20.8764 Y22.8125
G01 X20.8589 Y22.8475
G01 X20.8532 Y22.8616
G01 X20.8447 Y22.8864
G01 X20.8360 Y22.9205
G01 X20.8328 Y22.9394
G01 X20.8299 Y22.9655
G01 X20.8287 Y22.9926
G01 X20.8287 Y24.4316
G01 X20.8300 Y24.4605
G01 X20.8333 Y24.4884
G01 X20.8360 Y24.5031
G01 X20.8425 Y24.5304
G01 X20.8468 Y24.5447
G01 X20.8565 Y24.5710
G01 X20.8625 Y24.5847
G01 X20.8753 Y24.6096
G01 X20.8828 Y24.6225
G01 X20.8909 Y24.6340
G01 X20.8903 Y24.6344
G01 X20.9648 Y24.7460
G01 X21.0681 Y24.9953
G01 X21.1207 Y25.2600
G01 X21.1207 Y25.5298
G01 X21.0681 Y25.7945
G01 X20.9648 Y26.0438
G01 X20.8149 Y26.2682
G01 X20.6241 Y26.4590
G01 X20.3997 Y26.6089
G01 X20.1504 Y26.7122
G01 X19.8857 Y26.7649
G01 X19.6159 Y26.7649
G01 X19.3512 Y26.7122
G01 X19.1019 Y26.6089
G01 X18.8775 Y26.4590
G01 X18.6867 Y26.2682
G01 X18.5368 Y26.0438
G01 X18.4335 Y25.7945
G01 X18.3809 Y25.5298
G01 X18.3809 Y25.2600
G01 X18.4335 Y24.9953
G01 X18.5368 Y24.7460
G01 X18.6867 Y24.5216
G01 X18.8775 Y24.3308
G01 X19.1019 Y24.1809
G01 X19.3512 Y24.0776
G01 X19.3950 Y24.0689
G01 X19.4224 Y24.0622
G01 X19.4483 Y24.0539
G01 X19.4619 Y24.0487
G01 X19.4867 Y24.0374
G01 X19.4996 Y24.0307
G01 X19.5206 Y24.0182
G01 X19.5350 Y24.0085
G01 X19.5566 Y23.9919
G01 X19.5676 Y23.9824
G01 X19.5872 Y23.9634
G01 X19.5971 Y23.9527
G01 X19.6143 Y23.9317
G01 X19.6229 Y23.9199
G01 X19.6377 Y23.8970
G01 X19.6562 Y23.8615
G01 X19.6626 Y23.8465
G01 X19.6717 Y23.8209
G01 X19.6759 Y23.8069
G01 X19.6810 Y23.7859
G01 X19.6845 Y23.7661
G01 X19.6876 Y23.7390
G01 X19.6889 Y23.7109
G01 X19.6889 Y22.9926
G01 X19.6877 Y22.9655
G01 X19.6848 Y22.9394
G01 X19.6825 Y22.9256
G01 X19.6768 Y22.8999
G01 X19.6729 Y22.8864
G01 X19.6644 Y22.8616
G01 X19.6591 Y22.8486
G01 X19.6479 Y22.8248
G01 X19.6289 Y22.7924
G01 X19.6194 Y22.7786
G01 X19.6032 Y22.7579
G01 X19.5940 Y22.7473
G01 X19.5757 Y22.7285
G01 X19.5653 Y22.7191
G01 X19.4631 Y22.6347
G01 X19.3231 Y22.4641
G01 X19.2191 Y22.2696
G01 X19.1551 Y22.0585
G01 X19.1334 Y21.8389
G01 X19.1551 Y21.6194
G01 X19.2191 Y21.4083
G01 X19.3231 Y21.2137
G01 X19.4631 Y21.0432
G01 X19.6336 Y20.9032
G01 X19.8281 Y20.7992
G01 X20.0393 Y20.7352
G01 X20.2038 Y20.7190
G01 X20.3138 Y20.7190
G01 X20.4783 Y20.7352
G01 X20.6895 Y20.7992
G01 X20.8840 Y20.9032
G01 X21.0546 Y21.0432
G01 X21.1945 Y21.2137
G01 X21.2068 Y21.2368
G01 X21.2211 Y21.2609
G01 X21.2334 Y21.2791
G01 X21.2453 Y21.2945
G01 X21.2631 Y21.3149
G01 X21.2749 Y21.3269
G01 X21.3044 Y21.3525
G01 X21.3263 Y21.3683
G01 X21.3385 Y21.3761
G01 X21.3621 Y21.3893
G01 X21.3982 Y21.4055
G01 X21.4136 Y21.4110
G01 X21.4395 Y21.4186
G01 X21.4536 Y21.4218
G01 X21.4735 Y21.4255
G01 X21.4946 Y21.4280
G01 X21.5216 Y21.4296
G01 X21.5360 Y21.4296
G01 X21.5630 Y21.4280
G01 X21.5774 Y21.4264
G01 X21.6040 Y21.4218
G01 X21.6181 Y21.4186
G01 X21.6440 Y21.4110
G01 X21.6576 Y21.4061
G01 X21.6826 Y21.3957
G01 X21.6955 Y21.3893
G01 X21.7177 Y21.3770
G01 X21.7313 Y21.3683
G01 X21.7532 Y21.3525
G01 X21.7827 Y21.3269
G01 X21.7945 Y21.3149
G01 X21.8123 Y21.2945
G01 X21.8212 Y21.2831
G01 X21.8365 Y21.2609
G01 X21.8440 Y21.2485
G01 X21.8631 Y21.2137
G01 X22.0031 Y21.0432
G01 X22.0954 Y20.9674
G01 X22.1157 Y20.9493
G01 X22.1340 Y20.9305
G01 X22.1432 Y20.9199
G01 X22.1594 Y20.8992
G01 X22.1674 Y20.8877
G01 X22.1812 Y20.8653
G01 X22.1987 Y20.8303
G01 X22.2044 Y20.8163
G01 X22.2129 Y20.7914
G01 X22.2168 Y20.7779
G01 X22.2225 Y20.7523
G01 X22.2248 Y20.7384
G01 X22.2277 Y20.7123
G01 X22.2289 Y20.6852
G01 X22.2285 Y19.6729
G01 X22.2277 Y19.6586
G01 X22.2247 Y19.6321
G01 X22.2223 Y19.6181
G01 X22.2164 Y19.5920
G01 X22.2124 Y19.5784
G01 X22.2036 Y19.5532
G01 X22.1982 Y19.5400
G01 X22.1866 Y19.5160
G01 X22.1797 Y19.5035
G01 X22.1674 Y19.4836
G01 X22.1572 Y19.4693
G01 X22.1402 Y19.4488
G01 X22.1406 Y19.4484
G01 X22.1219 Y19.4281
G01 X20.4466 Y17.7527
G01 X20.4289 Y17.7363
G01 X20.4121 Y17.7222
G01 X20.3409 Y17.6354
G01 X20.2880 Y17.5364
G01 X20.2554 Y17.4289
G01 X20.2444 Y17.3172
G01 X20.2462 Y17.2954
G01 X20.2471 Y17.2713
G01 X20.2471 Y13.0883
G01 X20.2460 Y13.0607
G01 X20.2430 Y13.0342
G01 X20.2406 Y13.0201
G01 X20.2347 Y12.9941
G01 X20.2307 Y12.9804
G01 X20.2219 Y12.9552
G01 X20.2164 Y12.9421
G01 X20.2049 Y12.9180
G01 X20.1980 Y12.9055
G01 X20.1838 Y12.8830
G01 X20.1755 Y12.8713
G01 X20.1585 Y12.8508
G01 X20.1589 Y12.8505
G01 X20.1402 Y12.8301
G01 X19.9860 Y12.6759
G01 X19.8836 Y12.5227
G01 X19.8675 Y12.5006
G01 X19.8505 Y12.4804
G01 X19.8359 Y12.4651
G01 X19.8109 Y12.4429
G01 X19.7899 Y12.4269
G01 X19.7782 Y12.4190
G01 X19.7556 Y12.4055
G01 X19.7204 Y12.3886
G01 X19.7059 Y12.3829
G01 X19.6808 Y12.3747
G01 X19.6428 Y12.3660
G01 X19.6274 Y12.3636
G01 X19.6011 Y12.3612
G01 X19.5779 Y12.3604
G01 X19.5466 Y12.3621
G01 X19.5204 Y12.3655
G01 X19.5065 Y12.3680
G01 X19.4809 Y12.3743
G01 X19.4674 Y12.3784
G01 X19.4426 Y12.3874
G01 X19.4297 Y12.3930
G01 X19.4060 Y12.4047
G01 X19.3744 Y12.4240
G01 X19.3601 Y12.4343
G01 X19.3397 Y12.4509
G01 X19.3292 Y12.4604
G01 X19.3107 Y12.4792
G01 X19.3014 Y12.4898
G01 X19.2851 Y12.5106
G01 X19.2770 Y12.5221
G01 X19.2631 Y12.5446
G01 X19.2564 Y12.5569
G01 X19.2455 Y12.5796
G01 X19.2397 Y12.5938
G01 X19.2311 Y12.6188
G01 X19.2272 Y12.6323
G01 X19.2223 Y12.6529
G01 X19.2191 Y12.6720
G01 X19.2161 Y12.6982
G01 X19.2150 Y12.7255
G01 X19.2150 Y19.8507
G01 X19.2159 Y19.8749
G01 X19.2178 Y19.8967
G01 X19.2068 Y20.0084
G01 X19.1742 Y20.1158
G01 X19.1212 Y20.2148
G01 X19.0500 Y20.3016
G01 X19.0333 Y20.3157
G01 X19.0156 Y20.3321
G01 X16.2645 Y23.0832
G01 X16.2481 Y23.1009
G01 X16.2340 Y23.1176
G01 X16.1472 Y23.1889
G01 X16.0482 Y23.2418
G01 X15.9408 Y23.2744
G01 X15.8290 Y23.2854
G01 X15.8072 Y23.2835
G01 X15.7831 Y23.2826
G01 X14.6036 Y23.2826
G01 X14.5768 Y23.2837
G01 X14.5374 Y23.2888
G01 X14.5120 Y23.2944
G01 X14.4741 Y23.3065
G01 X14.4378 Y23.3226
G01 X14.4052 Y23.3414
G01 X14.3919 Y23.3504
G01 X14.3713 Y23.3662
G01 X14.3421 Y23.3932
G01 X14.3159 Y23.4232
G01 X14.3001 Y23.4449
G01 X14.2058 Y23.5860
G01 X14.0150 Y23.7768
G01 X13.8739 Y23.8711
G01 X13.8522 Y23.8869
G01 X13.8222 Y23.9130
G01 X13.7953 Y23.9423
G01 X13.7795 Y23.9629
G01 X13.7582 Y23.9965
G01 X13.7411 Y24.0313
G01 X13.7355 Y24.0451
G01 X13.7235 Y24.0830
G01 X13.7187 Y24.1034
G01 X13.7156 Y24.1220
G01 X13.7128 Y24.1478
G01 X13.7117 Y24.1746
G01 X13.7117 Y35.1626
G01 X13.7128 Y35.1901
G01 X13.7158 Y35.2166
G01 X13.7182 Y35.2307
G01 X13.7241 Y35.2567
G01 X13.7281 Y35.2704
G01 X13.7369 Y35.2956
G01 X13.7424 Y35.3088
G01 X13.7539 Y35.3328
G01 X13.7731 Y35.3652
G01 X13.7833 Y35.3795
G01 X13.8003 Y35.4000
G01 X13.7999 Y35.4004
G01 X13.8186 Y35.4207
G01 X16.0700 Y37.6721
G01 X16.0903 Y37.6907
G01 X16.1111 Y37.7074
G01 X16.1228 Y37.7156
G01 X16.1454 Y37.7298
G01 X16.1578 Y37.7367
G01 X16.1806 Y37.7478
G01 X16.1950 Y37.7537
G01 X16.2202 Y37.7626
G01 X16.2547 Y37.7715
G01 X16.2740 Y37.7748
G01 X16.3005 Y37.7778
G01 X16.3281 Y37.7790
G01 X20.4669 Y37.7790
G01 X20.4910 Y37.7781
G01 X20.5128 Y37.7762
G01 X20.6245 Y37.7872
G01 X20.7320 Y37.8198
G01 X20.8310 Y37.8727
G01 X20.9178 Y37.9440
G01 X20.9319 Y37.9607
G01 X20.9483 Y37.9784
G01 X24.1853 Y41.2154
G01 X24.2030 Y41.2319
G01 X24.2198 Y41.2460
G01 X24.2910 Y41.3327
G01 X24.3439 Y41.4318
G01 X24.3765 Y41.5392
G01 X24.3875 Y41.6509
G01 X24.3856 Y41.6727
G01 X24.3847 Y41.6969
G01 X24.3851 Y43.3639
G01 X24.3859 Y43.3781
G01 X24.3889 Y43.4046
G01 X24.3913 Y43.4187
G01 X24.3972 Y43.4447
G01 X24.4012 Y43.4584
G01 X24.4100 Y43.4836
G01 X24.4154 Y43.4967
G01 X24.4270 Y43.5208
G01 X24.4339 Y43.5333
G01 X24.4462 Y43.5531
G01 X24.4564 Y43.5675
G01 X24.4734 Y43.5880
G01 X24.4730 Y43.5883
G01 X24.4917 Y43.6087
G01 X24.6511 Y43.7681
G01 X24.6714 Y43.7867
G01 X24.6923 Y43.8034
G01 X24.7039 Y43.8116
G01 X24.7265 Y43.8258
G01 X24.7389 Y43.8327
G01 X24.7617 Y43.8438
G01 X24.7762 Y43.8497
G01 X24.8013 Y43.8586
G01 X24.8150 Y43.8625
G01 X24.8358 Y43.8675
G01 X24.8551 Y43.8708
G01 X24.8816 Y43.8738
G01 X24.9092 Y43.8750
G01 X25.5469 Y43.8750
G01 X25.5710 Y43.8741
G01 X25.5928 Y43.8722
G01 X25.7045 Y43.8832
G01 X25.8120 Y43.9158
G01 X25.9110 Y43.9687
G01 X25.9978 Y44.0400
G01 X26.0119 Y44.0567
G01 X26.0283 Y44.0744
G01 X27.9953 Y46.0414
G01 X28.0130 Y46.0579
G01 X28.0298 Y46.0720
G01 X28.1010 Y46.1587
G01 X28.1539 Y46.2578
G01 X28.1865 Y46.3652
G01 X28.1975 Y46.4769
G01 X28.1956 Y46.4987
G01 X28.1947 Y46.5229
G01 X28.1947 Y49.4640
G01 X28.1958 Y49.4906
G01 X28.2008 Y49.5297
G01 X28.2063 Y49.5547
G01 X28.2182 Y49.5923
G01 X28.2232 Y49.6051
G01 X28.2404 Y49.6405
G01 X28.2536 Y49.6626
G01 X28.2768 Y49.6944
G01 X28.2991 Y49.7195
G01 X28.3132 Y49.7330
G01 X28.3327 Y49.7497
G01 X28.3550 Y49.7658
G01 X28.4452 Y49.8399
G01 X28.4722 Y49.8671
G01 X28.4828 Y49.8763
G01 X28.5035 Y49.8925
G01 X28.5150 Y49.9005
G01 X28.5374 Y49.9143
G01 X28.5724 Y49.9318
G01 X28.5864 Y49.9375
G01 X28.6113 Y49.9461
G01 X28.6248 Y49.9499
G01 X28.6453 Y49.9547
G01 X28.6643 Y49.9580
G01 X28.6904 Y49.9608
G01 X28.7175 Y49.9620
G01 X29.0852 Y49.9616
G01 X29.0992 Y49.9608
G01 X29.1254 Y49.9580
G01 X29.1392 Y49.9556
G01 X29.1648 Y49.9499
G01 X29.1783 Y49.9461
G01 X29.2032 Y49.9375
G01 X29.2162 Y49.9322
G01 X29.2399 Y49.9210
G01 X29.2724 Y49.9020
G01 X29.2861 Y49.8925
G01 X29.3068 Y49.8763
G01 X29.3174 Y49.8671
G01 X29.3444 Y49.8399
G01 X29.4252 Y49.7735
G01 X29.5153 Y49.7254
G01 X29.6131 Y49.6957
G01 X29.7327 Y49.6839
G01 X30.5328 Y49.6839
G01 X30.5678 Y49.7189
G01 X29.7148 Y49.7189
G01 X29.6786 Y49.7204
G01 X29.6554 Y49.7227
G01 X29.6311 Y49.7263
G01 X29.6082 Y49.7309
G01 X29.5844 Y49.7368
G01 X29.5621 Y49.7436
G01 X29.5390 Y49.7519
G01 X29.5174 Y49.7608
G01 X29.4952 Y49.7713
G01 X29.4746 Y49.7823
G01 X29.4536 Y49.7949
G01 X29.4357 Y49.8067
G01 X29.4144 Y49.8225
G01 X29.3964 Y49.8373
G01 X29.3782 Y49.8538
G01 X29.3617 Y49.8703
G01 X29.3452 Y49.8885
G01 X29.3304 Y49.9065
G01 X29.3158 Y49.9263
G01 X29.3028 Y49.9457
G01 X29.2902 Y49.9667
G01 X29.2761 Y49.9938
G01 X28.5135 Y49.9938
G01 X28.4994 Y49.9667
G01 X28.4868 Y49.9457
G01 X28.4750 Y49.9278
G01 X28.4592 Y49.9065
G01 X28.4444 Y49.8885
G01 X28.4279 Y49.8703
G01 X28.4114 Y49.8538
G01 X28.3932 Y49.8373
G01 X28.3752 Y49.8225
G01 X28.3555 Y49.8079
G01 X28.3360 Y49.7949
G01 X28.3150 Y49.7823
G01 X28.2944 Y49.7713
G01 X28.2722 Y49.7608
G01 X28.2507 Y49.7519
G01 X28.2276 Y49.7436
G01 X28.2052 Y49.7368
G01 X28.1814 Y49.7309
G01 X28.1630 Y49.7278
G01 X28.1630 Y46.4769
G01 X28.1607 Y46.4300
G01 X28.1577 Y46.4034
G01 X28.1521 Y46.3703
G01 X28.1461 Y46.3442
G01 X28.1368 Y46.3119
G01 X28.1280 Y46.2867
G01 X28.1151 Y46.2556
G01 X28.1035 Y46.2316
G01 X28.0873 Y46.2021
G01 X28.0750 Y46.1822
G01 X28.0536 Y46.1521
G01 X28.0365 Y46.1316
G01 X28.0369 Y46.1312
G01 X28.0053 Y46.0964
G01 X25.9733 Y44.0644
G01 X25.9385 Y44.0328
G01 X25.9177 Y44.0161
G01 X25.8902 Y43.9967
G01 X25.8676 Y43.9825
G01 X25.8382 Y43.9662
G01 X25.8154 Y43.9551
G01 X25.7830 Y43.9417
G01 X25.7578 Y43.9329
G01 X25.7255 Y43.9236
G01 X25.7047 Y43.9186
G01 X25.6663 Y43.9120
G01 X25.6398 Y43.9090
G01 X25.5928 Y43.9068
G01 X24.7019 Y43.9068
G01 X24.6882 Y43.8843
G01 X24.6344 Y43.8084
G01 X24.6173 Y43.7879
G01 X24.6177 Y43.7875
G01 X24.5580 Y43.7206
G01 X24.5391 Y43.7018
G01 X24.4722 Y43.6420
G01 X24.4513 Y43.6254
G01 X24.3782 Y43.5734
G01 X24.3530 Y43.5578
G01 X24.3526 Y41.6376
G01 X24.3507 Y41.6040
G01 X24.3477 Y41.5774
G01 X24.3421 Y41.5443
G01 X24.3361 Y41.5182
G01 X24.3268 Y41.4859
G01 X24.3180 Y41.4607
G01 X24.3051 Y41.4296
G01 X24.2935 Y41.4056
G01 X24.2773 Y41.3761
G01 X24.2650 Y41.3562
G01 X24.2436 Y41.3261
G01 X24.2265 Y41.3056
G01 X24.2269 Y41.3052
G01 X24.1953 Y41.2704
G01 X20.8933 Y37.9684
G01 X20.8585 Y37.9368
G01 X20.8377 Y37.9201
G01 X20.8102 Y37.9007
G01 X20.7876 Y37.8865
G01 X20.7582 Y37.8702
G01 X20.7354 Y37.8591
G01 X20.7030 Y37.8457
G01 X20.6778 Y37.8369
G01 X20.6455 Y37.8276
G01 X20.6247 Y37.8226
G01 X20.5863 Y37.8160
G01 X20.5598 Y37.8130
G01 X20.5128 Y37.8108
G01 X16.1637 Y37.8108
G01 X13.6799 Y35.3269
G01 X13.6799 Y23.9361
G01 X13.7101 Y23.9236
G01 X13.7341 Y23.9120
G01 X13.8421 Y23.8524
G01 X13.8620 Y23.8401
G01 X13.9653 Y23.7668
G01 X13.9858 Y23.7497
G01 X13.9862 Y23.7502
G01 X14.0781 Y23.6680
G01 X14.0970 Y23.6491
G01 X14.1792 Y23.5571
G01 X14.1958 Y23.5362
G01 X14.2672 Y23.4356
G01 X14.2814 Y23.4130
G01 X14.3411 Y23.3051
G01 X14.3521 Y23.2823
G01 X14.3652 Y23.2508
G01 X15.8424 Y23.2505
G01 X15.8760 Y23.2486
G01 X15.9025 Y23.2456
G01 X15.9357 Y23.2399
G01 X15.9617 Y23.2340
G01 X15.9941 Y23.2247
G01 X16.0193 Y23.2159
G01 X16.0504 Y23.2030
G01 X16.0744 Y23.1914
G01 X16.1039 Y23.1751
G01 X16.1265 Y23.1609
G01 X16.1539 Y23.1415
G01 X16.1744 Y23.1244
G01 X16.1748 Y23.1248
G01 X16.2096 Y23.0932
G01 X19.0256 Y20.2772
G01 X19.0572 Y20.2424
G01 X19.0738 Y20.2215
G01 X19.0933 Y20.1941
G01 X19.1075 Y20.1715
G01 X19.1238 Y20.1420
G01 X19.1348 Y20.1192
G01 X19.1483 Y20.0869
G01 X19.1571 Y20.0617
G01 X19.1664 Y20.0293
G01 X19.1714 Y20.0086
G01 X19.1780 Y19.9701
G01 X19.1810 Y19.9436
G01 X19.1832 Y19.8967
G01 X19.1832 Y10.5184
G01 X20.0096 Y9.6920
G01 X21.3150 Y9.6920
G01 X21.3287 Y9.7145
G01 X21.3825 Y9.7904
G01 X21.3996 Y9.8109
G01 X21.3992 Y9.8113
G01 X21.4589 Y9.8782
G01 X21.4778 Y9.8970
G01 X21.5447 Y9.9568
G01 X21.5656 Y9.9734
G01 X21.6387 Y10.0254
G01 X21.6613 Y10.0396
G01 X21.7399 Y10.0830
G01 X21.7626 Y10.0940
G01 X21.8468 Y10.1289
G01 X21.8720 Y10.1377
G01 X21.9582 Y10.1625
G01 X21.9789 Y10.1675
G01 X22.0726 Y10.1835
G01 X22.0992 Y10.1865
G01 X22.2021 Y10.1919
G01 X22.3050 Y10.1865
G01 X22.3315 Y10.1835
G01 X22.4200 Y10.1685
G01 X22.4460 Y10.1625
G01 X22.5322 Y10.1377
G01 X22.5574 Y10.1289
G01 X22.6403 Y10.0945
G01 X22.6643 Y10.0830
G01 X22.7428 Y10.0396
G01 X22.7627 Y10.0273
G01 X22.8386 Y9.9734
G01 X22.8591 Y9.9564
G01 X22.8595 Y9.9568
G01 X22.9264 Y9.8970
G01 X22.9452 Y9.8782
G01 X23.0050 Y9.8113
G01 X23.0217 Y9.7904
G01 X23.0736 Y9.7172
G01 X23.0892 Y9.6920
G01 X24.0850 Y9.6920
G01 X24.1006 Y9.7172
G01 X24.1525 Y9.7904
G01 X24.1696 Y9.8109
G01 X24.1692 Y9.8113
G01 X24.2289 Y9.8782
G01 X24.2478 Y9.8970
G01 X24.3147 Y9.9568
G01 X24.3356 Y9.9734
G01 X24.4087 Y10.0254
G01 X24.4313 Y10.0396
G01 X24.5099 Y10.0830
G01 X24.5326 Y10.0940
G01 X24.6168 Y10.1289
G01 X24.6420 Y10.1377
G01 X24.7282 Y10.1625
G01 X24.7542 Y10.1685
G01 X24.8426 Y10.1835
G01 X24.8692 Y10.1865
G01 X24.9721 Y10.1919
G01 X25.0750 Y10.1865
G01 X25.1015 Y10.1835
G01 X25.1900 Y10.1685
G01 X25.2160 Y10.1625
G01 X25.3022 Y10.1377
G01 X25.3274 Y10.1289
G01 X25.4103 Y10.0945
G01 X25.4343 Y10.0830
G01 X25.5128 Y10.0396
G01 X25.5327 Y10.0273
G01 X25.6086 Y9.9734
G01 X25.6291 Y9.9564
G01 X25.6295 Y9.9568
G01 X25.6964 Y9.8970
G01 X25.7152 Y9.8782
G01 X25.7750 Y9.8113
G01 X25.7917 Y9.7904
G01 X25.8436 Y9.7172
G01 X25.8578 Y9.6946
G01 X25.9012 Y9.6161
G01 X25.9122 Y9.5933
G01 X25.9471 Y9.5092
G01 X25.9559 Y9.4840
G01 X25.9807 Y9.3978
G01 X25.9857 Y9.3770
G01 X26.0017 Y9.2833
G01 X26.0047 Y9.2568
G01 X26.0097 Y9.1672
G01 X26.0097 Y9.1405
G01 X26.0047 Y9.0510
G01 X26.0017 Y9.0244
G01 X25.9867 Y8.9360
G01 X25.9807 Y8.9100
G01 X25.9559 Y8.8238
G01 X25.9471 Y8.7986
G01 X25.9127 Y8.7157
G01 X25.9012 Y8.6916
G01 X25.8578 Y8.6131
G01 X25.8455 Y8.5933
G01 X25.7917 Y8.5174
G01 X25.7746 Y8.4969
G01 X25.7750 Y8.4965
G01 X25.7152 Y8.4296
G01 X25.6964 Y8.4107
G01 X25.6295 Y8.3510
G01 X25.6086 Y8.3343
G01 X25.5354 Y8.2824
G01 X25.5128 Y8.2682
G01 X25.4343 Y8.2248
G01 X25.4115 Y8.2138
G01 X25.3274 Y8.1789
G01 X25.3022 Y8.1701
G01 X25.2160 Y8.1452
G01 X25.1952 Y8.1403
G01 X25.1015 Y8.1243
G01 X25.0750 Y8.1213
G01 X24.9721 Y8.1159
G01 X24.8692 Y8.1213
G01 X24.8426 Y8.1243
G01 X24.7542 Y8.1393
G01 X24.7282 Y8.1452
G01 X24.6420 Y8.1701
G01 X24.6168 Y8.1789
G01 X24.5339 Y8.2132
G01 X24.5099 Y8.2248
G01 X24.4313 Y8.2682
G01 X24.4115 Y8.2805
G01 X24.3356 Y8.3343
G01 X24.3151 Y8.3514
G01 X24.3147 Y8.3510
G01 X24.2478 Y8.4107
G01 X24.2289 Y8.4296
G01 X24.1692 Y8.4965
G01 X24.1525 Y8.5174
G01 X24.1006 Y8.5905
G01 X24.0850 Y8.6157
G01 X23.0892 Y8.6157
G01 X23.0755 Y8.5933
G01 X23.0217 Y8.5174
G01 X23.0046 Y8.4969
G01 X23.0050 Y8.4965
G01 X22.9452 Y8.4296
G01 X22.9264 Y8.4107
G01 X22.8595 Y8.3510
G01 X22.8386 Y8.3343
G01 X22.7654 Y8.2824
G01 X22.7428 Y8.2682
G01 X22.6643 Y8.2248
G01 X22.6415 Y8.2138
G01 X22.5574 Y8.1789
G01 X22.5322 Y8.1701
G01 X22.4460 Y8.1452
G01 X22.4252 Y8.1403
G01 X22.3315 Y8.1243
G01 X22.3050 Y8.1213
G01 X22.2154 Y8.1163
G01 X22.1887 Y8.1163
G01 X22.0992 Y8.1213
G01 X22.0726 Y8.1243
G01 X21.9842 Y8.1393
G01 X21.9582 Y8.1452
G01 X21.8720 Y8.1701
G01 X21.8468 Y8.1789
G01 X21.7639 Y8.2132
G01 X21.7399 Y8.2248
G01 X21.6613 Y8.2682
G01 X21.6415 Y8.2805
G01 X21.5656 Y8.3343
G01 X21.5451 Y8.3514
G01 X21.5447 Y8.3510
G01 X21.4778 Y8.4107
G01 X21.4589 Y8.4296
G01 X21.3992 Y8.4965
G01 X21.3825 Y8.5174
G01 X21.3306 Y8.5905
G01 X21.3150 Y8.6157
G01 X19.7866 Y8.6157
G01 X19.7397 Y8.6180
G01 X19.7132 Y8.6210
G01 X19.6800 Y8.6266
G01 X19.6540 Y8.6326
G01 X19.6216 Y8.6419
G01 X19.5964 Y8.6507
G01 X19.5653 Y8.6636
G01 X19.5413 Y8.6752
G01 X19.5118 Y8.6914
G01 X19.4920 Y8.7037
G01 X19.4618 Y8.7251
G01 X19.4413 Y8.7422
G01 X19.4409 Y8.7418
G01 X19.4061 Y8.7734
G01 X18.2645 Y9.9149
G01 X18.2329 Y9.9497
G01 X18.2163 Y9.9706
G01 X18.1968 Y9.9980
G01 X18.1826 Y10.0206
G01 X18.1663 Y10.0501
G01 X18.1553 Y10.0729
G01 X18.1419 Y10.1052
G01 X18.1331 Y10.1304
G01 X18.1237 Y10.1628
G01 X18.1188 Y10.1835
G01 X18.1122 Y10.2220
G01 X18.1092 Y10.2485
G01 X18.1069 Y10.2955
G01 X18.1069 Y19.6737
G01 X15.6061 Y22.1745
G01 X14.3652 Y22.1745
G01 X14.3527 Y22.1443
G01 X14.3411 Y22.1203
G01 X14.2814 Y22.0123
G01 X14.2691 Y21.9924
G01 X14.1958 Y21.8891
G01 X14.1788 Y21.8686
G01 X14.1792 Y21.8683
G01 X14.0970 Y21.7763
G01 X14.0781 Y21.7574
G01 X13.9862 Y21.6752
G01 X13.9653 Y21.6586
G01 X13.8647 Y21.5872
G01 X13.8421 Y21.5730
G01 X13.7341 Y21.5133
G01 X13.7113 Y21.5023
G01 X13.5961 Y21.4545
G01 X13.5709 Y21.4457
G01 X13.4524 Y21.4116
G01 X13.4316 Y21.4066
G01 X13.3048 Y21.3850
G01 X13.2782 Y21.3820
G01 X13.1551 Y21.3751
G01 X13.1284 Y21.3751
G01 X13.0052 Y21.3820
G01 X12.9787 Y21.3850
G01 X12.8571 Y21.4056
G01 X12.8311 Y21.4116
G01 X12.7125 Y21.4457
G01 X12.6873 Y21.4545
