(G-CODE GENERATED BY FLATCAM v8.904 - www.flatcam.org - Version Date: 2019/01/25)

(Name: BoardVer1-B.Cu.gbr_iso_cnc)
(Type: G-code from Geometry)
(Units: MM)

(Created on Sunday, 27 January 2019 at 21:27)

(TOOL DIAMETER: 0.17 mm)
(Feedrate: 400.0 mm/min)
(Feedrate_Z: 350.0 mm/min)
(Feedrate rapids 800.0 mm/min)

(Z_Cut: -0.1306 mm)
(Z_Move: 2.0 mm)
(Z Toolchange: 50.0 mm)
(X,Y Toolchange: 0.0000, 0.0000 mm)
(Z Start: 1.0 mm)
(Z End: 20.0 mm)
(Steps per circle: 64)
(Postprocessor Geometry: default)
(Spindle Speed: 18000 RPM)
G94 ( Millimeters per minute feed rate. )
G21 ( Units == Millimeters. )
G90 ( Absolute coordinates. )
G64 P0.01000 ( set maximum deviation from commanded toolpath )
G21
G90
G94
G21
G90
G94

G01 F400.00
G00 Z2.0000
G00 Z1.0000
M03 S18000
G00 X0.0315 Y0.6648
G01 F350.00
G01 Z-0.1306
G01 F400.00
G01 X0.0374 Y0.6029
G01 X0.0420 Y0.5766
G01 X0.0575 Y0.5146
G01 X0.0781 Y0.4560
G01 X0.0847 Y0.4398
G01 X0.1105 Y0.3868
G01 X0.1174 Y0.3743
G01 X0.1504 Y0.3217
G01 X0.1587 Y0.3101
G01 X0.1974 Y0.2615
G01 X0.2283 Y0.2283
G01 X0.2494 Y0.2082
G01 X0.2615 Y0.1974
G01 X0.2624 Y0.1984
G01 X0.2851 Y0.1794
G01 X0.2848 Y0.1790
G01 X0.3101 Y0.1587
G01 X0.3280 Y0.1460
G01 X0.3743 Y0.1174
G01 X0.3868 Y0.1105
G01 X0.4428 Y0.0835
G01 X0.4560 Y0.0781
G01 X0.5146 Y0.0575
G01 X0.5283 Y0.0536
G01 X0.5889 Y0.0398
G01 X0.6029 Y0.0374
G01 X0.6647 Y0.0304
G01 X0.7100 Y0.0287
G01 X110.8848 Y0.0287
G01 X110.9307 Y0.0305
G01 X110.9306 Y0.0315
G01 X110.9933 Y0.0376
G01 X111.0201 Y0.0424
G01 X111.0688 Y0.0542
G01 X111.0827 Y0.0583
G01 X111.1420 Y0.0793
G01 X111.1553 Y0.0849
G01 X111.2119 Y0.1126
G01 X111.2245 Y0.1197
G01 X111.2776 Y0.1535
G01 X111.2893 Y0.1620
G01 X111.3382 Y0.2017
G01 X111.3488 Y0.2114
G01 X111.3929 Y0.2564
G01 X111.4024 Y0.2673
G01 X111.4411 Y0.3170
G01 X111.4532 Y0.3346
G01 X111.4821 Y0.3826
G01 X111.4889 Y0.3953
G01 X111.5153 Y0.4524
G01 X111.5207 Y0.4659
G01 X111.5321 Y0.5008
G01 X113.0038 Y0.5008
G01 X113.0153 Y0.4659
G01 X113.0223 Y0.4484
G01 X113.0471 Y0.3953
G01 X113.0539 Y0.3826
G01 X113.0867 Y0.3288
G01 X113.0949 Y0.3170
G01 X113.1336 Y0.2673
G01 X113.1431 Y0.2564
G01 X113.1872 Y0.2114
G01 X113.1978 Y0.2017
G01 X113.1986 Y0.2025
G01 X113.2467 Y0.1620
G01 X113.2656 Y0.1484
G01 X113.3115 Y0.1197
G01 X113.3241 Y0.1126
G01 X113.3807 Y0.0849
G01 X113.3940 Y0.0793
G01 X113.4533 Y0.0583
G01 X113.4672 Y0.0542
G01 X113.5285 Y0.0400
G01 X113.5427 Y0.0376
G01 X113.6053 Y0.0305
G01 X113.6512 Y0.0287
G01 X113.8440 Y0.0287
G01 X113.8751 Y0.0296
G01 X113.8893 Y0.0304
G01 X113.8892 Y0.0315
G01 X113.9511 Y0.0374
G01 X113.9774 Y0.0420
G01 X114.0257 Y0.0536
G01 X114.0394 Y0.0575
G01 X114.0980 Y0.0781
G01 X114.1142 Y0.0847
G01 X114.1672 Y0.1105
G01 X114.1797 Y0.1174
G01 X114.2323 Y0.1504
G01 X114.2439 Y0.1587
G01 X114.2925 Y0.1974
G01 X114.3031 Y0.2069
G01 X114.3471 Y0.2509
G01 X114.3566 Y0.2615
G01 X114.3556 Y0.2624
G01 X114.3746 Y0.2851
G01 X114.3750 Y0.2848
G01 X114.3953 Y0.3101
G01 X114.4080 Y0.3280
G01 X114.4366 Y0.3743
G01 X114.4435 Y0.3868
G01 X114.4705 Y0.4428
G01 X114.4759 Y0.4560
G01 X114.4965 Y0.5146
G01 X114.5004 Y0.5283
G01 X114.5142 Y0.5889
G01 X114.5166 Y0.6029
G01 X114.5236 Y0.6647
G01 X114.5253 Y0.7100
G01 X114.5253 Y17.6527
G01 X114.5236 Y17.6980
G01 X114.5225 Y17.6980
G01 X114.5166 Y17.7598
G01 X114.5120 Y17.7861
G01 X114.5004 Y17.8344
G01 X114.4965 Y17.8481
G01 X114.4759 Y17.9068
G01 X114.4693 Y17.9229
G01 X114.4435 Y17.9759
G01 X114.4366 Y17.9884
G01 X114.4036 Y18.0410
G01 X114.3953 Y18.0526
G01 X114.3566 Y18.1012
G01 X114.3471 Y18.1118
G01 X114.3031 Y18.1558
G01 X114.2925 Y18.1653
G01 X114.2916 Y18.1643
G01 X114.2689 Y18.1833
G01 X114.2692 Y18.1837
G01 X114.2439 Y18.2040
G01 X114.2260 Y18.2167
G01 X114.2127 Y18.2249
G01 X114.2213 Y18.2458
G01 X114.2419 Y18.3045
G01 X114.2512 Y18.3368
G01 X114.2650 Y18.3974
G01 X114.2706 Y18.4306
G01 X114.2776 Y18.4923
G01 X114.2804 Y18.5570
G01 X114.2804 Y31.6080
G01 X114.2776 Y31.6727
G01 X114.2765 Y31.6726
G01 X114.2706 Y31.7344
G01 X114.2628 Y31.7799
G01 X114.2512 Y31.8282
G01 X114.2419 Y31.8605
G01 X114.2213 Y31.9192
G01 X114.2126 Y31.9403
G01 X114.2439 Y31.9610
G01 X114.2925 Y31.9997
G01 X114.3031 Y32.0092
G01 X114.3471 Y32.0532
G01 X114.3566 Y32.0638
G01 X114.3556 Y32.0647
G01 X114.3746 Y32.0874
G01 X114.3750 Y32.0871
G01 X114.3953 Y32.1124
G01 X114.4036 Y32.1240
G01 X114.4366 Y32.1766
G01 X114.4435 Y32.1891
G01 X114.4705 Y32.2451
G01 X114.4759 Y32.2582
G01 X114.4965 Y32.3169
G01 X114.5004 Y32.3306
G01 X114.5142 Y32.3912
G01 X114.5166 Y32.4052
G01 X114.5236 Y32.4670
G01 X114.5253 Y32.5123
G01 X114.5253 Y95.8100
G01 X114.5236 Y95.8553
G01 X114.5225 Y95.8552
G01 X114.5166 Y95.9171
G01 X114.5120 Y95.9434
G01 X114.4965 Y96.0054
G01 X114.4759 Y96.0640
G01 X114.4693 Y96.0802
G01 X114.4435 Y96.1332
G01 X114.4366 Y96.1457
G01 X114.4036 Y96.1983
G01 X114.3953 Y96.2099
G01 X114.3566 Y96.2585
G01 X114.3471 Y96.2691
G01 X114.3031 Y96.3131
G01 X114.2925 Y96.3226
G01 X114.2916 Y96.3216
G01 X114.2689 Y96.3406
G01 X114.2692 Y96.3410
G01 X114.2439 Y96.3613
G01 X114.2260 Y96.3740
G01 X114.1797 Y96.4026
G01 X114.1672 Y96.4095
G01 X114.1112 Y96.4365
G01 X114.0980 Y96.4419
G01 X114.0394 Y96.4625
G01 X114.0257 Y96.4664
G01 X113.9651 Y96.4802
G01 X113.9511 Y96.4826
G01 X113.8893 Y96.4896
G01 X113.8440 Y96.4913
G01 X0.7100 Y96.4913
G01 X0.6647 Y96.4896
G01 X0.6648 Y96.4885
G01 X0.6029 Y96.4826
G01 X0.5766 Y96.4780
G01 X0.5146 Y96.4625
G01 X0.4559 Y96.4419
G01 X0.4398 Y96.4353
G01 X0.3868 Y96.4095
G01 X0.3743 Y96.4026
G01 X0.3217 Y96.3696
G01 X0.3101 Y96.3613
G01 X0.2615 Y96.3226
G01 X0.2509 Y96.3131
G01 X0.2069 Y96.2691
G01 X0.1974 Y96.2585
G01 X0.1984 Y96.2576
G01 X0.1794 Y96.2349
G01 X0.1790 Y96.2352
G01 X0.1587 Y96.2099
G01 X0.1460 Y96.1920
G01 X0.1174 Y96.1457
G01 X0.1105 Y96.1332
G01 X0.0835 Y96.0772
G01 X0.0781 Y96.0640
G01 X0.0575 Y96.0054
G01 X0.0536 Y95.9917
G01 X0.0398 Y95.9311
G01 X0.0374 Y95.9171
G01 X0.0304 Y95.8553
G01 X0.0287 Y95.8100
G01 X0.0287 Y0.7100
G01 X0.0304 Y0.6647
G01 X0.0315 Y0.6648
G00 Z2.0000
G00 X0.1873 Y0.6735
G01 F350.00
G01 Z-0.1306
G01 F400.00
G01 X0.1916 Y0.6291
G01 X0.1955 Y0.6063
G01 X0.2039 Y0.5716
G01 X0.2078 Y0.5579
G01 X0.2225 Y0.5158
G01 X0.2289 Y0.5005
G01 X0.2474 Y0.4624
G01 X0.2542 Y0.4500
G01 X0.2780 Y0.4122
G01 X0.2862 Y0.4006
G01 X0.3140 Y0.3657
G01 X0.3389 Y0.3389
G01 X0.3541 Y0.3244
G01 X0.3657 Y0.3140
G01 X0.3663 Y0.3147
G01 X0.4006 Y0.2862
G01 X0.4168 Y0.2748
G01 X0.4500 Y0.2542
G01 X0.4624 Y0.2474
G01 X0.5026 Y0.2280
G01 X0.5158 Y0.2225
G01 X0.5579 Y0.2078
G01 X0.5716 Y0.2039
G01 X0.6151 Y0.1939
G01 X0.6291 Y0.1916
G01 X0.6735 Y0.1866
G01 X0.7100 Y0.1851
G01 X110.8848 Y0.1851
G01 X110.9218 Y0.1866
G01 X110.9218 Y0.1874
G01 X110.9667 Y0.1917
G01 X110.9900 Y0.1958
G01 X111.0388 Y0.2084
G01 X111.0814 Y0.2235
G01 X111.0972 Y0.2301
G01 X111.1354 Y0.2490
G01 X111.1479 Y0.2560
G01 X111.1860 Y0.2804
G01 X111.1977 Y0.2888
G01 X111.2328 Y0.3173
G01 X111.2435 Y0.3270
G01 X111.2751 Y0.3593
G01 X111.2846 Y0.3702
G01 X111.3124 Y0.4059
G01 X111.3234 Y0.4219
G01 X111.3441 Y0.4563
G01 X111.3509 Y0.4690
G01 X111.3699 Y0.5101
G01 X111.3752 Y0.5235
G01 X111.3895 Y0.5664
G01 X111.3932 Y0.5803
G01 X111.4025 Y0.6245
G01 X111.4064 Y0.6578
G01 X111.4180 Y0.6572
G01 X113.1180 Y0.6572
G01 X113.1298 Y0.6579
G01 X113.1313 Y0.6388
G01 X113.1340 Y0.6215
G01 X113.1428 Y0.5803
G01 X113.1465 Y0.5664
G01 X113.1608 Y0.5235
G01 X113.1672 Y0.5072
G01 X113.1851 Y0.4690
G01 X113.1919 Y0.4563
G01 X113.2154 Y0.4177
G01 X113.2236 Y0.4059
G01 X113.2514 Y0.3702
G01 X113.2609 Y0.3593
G01 X113.2925 Y0.3270
G01 X113.3032 Y0.3173
G01 X113.3037 Y0.3179
G01 X113.3383 Y0.2888
G01 X113.3551 Y0.2767
G01 X113.3881 Y0.2560
G01 X113.4006 Y0.2490
G01 X113.4413 Y0.2291
G01 X113.4546 Y0.2235
G01 X113.4972 Y0.2084
G01 X113.5110 Y0.2044
G01 X113.5550 Y0.1942
G01 X113.5693 Y0.1917
G01 X113.6142 Y0.1866
G01 X113.6286 Y0.1858
G01 X113.6512 Y0.1851
G01 X113.8440 Y0.1851
G01 X113.8805 Y0.1866
G01 X113.8805 Y0.1873
G01 X113.9249 Y0.1916
G01 X113.9477 Y0.1955
G01 X113.9961 Y0.2078
G01 X114.0382 Y0.2225
G01 X114.0535 Y0.2289
G01 X114.0916 Y0.2474
G01 X114.1040 Y0.2542
G01 X114.1418 Y0.2780
G01 X114.1534 Y0.2862
G01 X114.1883 Y0.3140
G01 X114.1989 Y0.3235
G01 X114.2305 Y0.3551
G01 X114.2400 Y0.3657
G01 X114.2393 Y0.3663
G01 X114.2678 Y0.4006
G01 X114.2792 Y0.4168
G01 X114.2998 Y0.4500
G01 X114.3066 Y0.4624
G01 X114.3260 Y0.5026
G01 X114.3315 Y0.5158
G01 X114.3462 Y0.5579
G01 X114.3501 Y0.5716
G01 X114.3601 Y0.6151
G01 X114.3624 Y0.6291
G01 X114.3674 Y0.6735
G01 X114.3689 Y0.7100
G01 X114.3689 Y17.6527
G01 X114.3674 Y17.6892
G01 X114.3667 Y17.6892
G01 X114.3624 Y17.7336
G01 X114.3585 Y17.7564
G01 X114.3462 Y17.8048
G01 X114.3315 Y17.8469
G01 X114.3251 Y17.8622
G01 X114.3066 Y17.9003
G01 X114.2998 Y17.9127
G01 X114.2760 Y17.9505
G01 X114.2678 Y17.9621
G01 X114.2400 Y17.9970
G01 X114.2305 Y18.0076
G01 X114.1989 Y18.0392
G01 X114.1883 Y18.0487
G01 X114.1877 Y18.0480
G01 X114.1534 Y18.0765
G01 X114.1418 Y18.0847
G01 X114.1040 Y18.1085
G01 X114.0916 Y18.1154
G01 X114.0514 Y18.1347
G01 X114.0382 Y18.1402
G01 X113.9959 Y18.1549
G01 X114.0078 Y18.1717
G01 X114.0283 Y18.2049
G01 X114.0446 Y18.2344
G01 X114.0640 Y18.2745
G01 X114.0768 Y18.3056
G01 X114.0916 Y18.3478
G01 X114.1009 Y18.3801
G01 X114.1108 Y18.4236
G01 X114.1165 Y18.4568
G01 X114.1214 Y18.5011
G01 X114.1240 Y18.5570
G01 X114.1240 Y31.6080
G01 X114.1214 Y31.6639
G01 X114.1207 Y31.6639
G01 X114.1165 Y31.7082
G01 X114.1092 Y31.7502
G01 X114.1009 Y31.7849
G01 X114.0916 Y31.8172
G01 X114.0768 Y31.8594
G01 X114.0631 Y31.8926
G01 X114.0446 Y31.9306
G01 X114.0283 Y31.9601
G01 X114.0046 Y31.9979
G01 X113.9959 Y32.0101
G01 X114.0382 Y32.0248
G01 X114.0535 Y32.0312
G01 X114.0916 Y32.0496
G01 X114.1040 Y32.0565
G01 X114.1418 Y32.0803
G01 X114.1534 Y32.0885
G01 X114.1883 Y32.1163
G01 X114.1989 Y32.1258
G01 X114.2305 Y32.1574
G01 X114.2400 Y32.1680
G01 X114.2393 Y32.1686
G01 X114.2678 Y32.2029
G01 X114.2792 Y32.2190
G01 X114.2998 Y32.2523
G01 X114.3066 Y32.2647
G01 X114.3260 Y32.3049
G01 X114.3315 Y32.3181
G01 X114.3462 Y32.3602
G01 X114.3501 Y32.3739
G01 X114.3601 Y32.4174
G01 X114.3624 Y32.4314
G01 X114.3674 Y32.4758
G01 X114.3689 Y32.5123
G01 X114.3689 Y95.8100
G01 X114.3674 Y95.8465
G01 X114.3667 Y95.8465
G01 X114.3624 Y95.8909
G01 X114.3585 Y95.9137
G01 X114.3462 Y95.9621
G01 X114.3315 Y96.0042
G01 X114.3251 Y96.0195
G01 X114.3066 Y96.0576
G01 X114.2998 Y96.0700
G01 X114.2760 Y96.1078
G01 X114.2678 Y96.1194
G01 X114.2400 Y96.1543
G01 X114.2305 Y96.1649
G01 X114.1989 Y96.1965
G01 X114.1883 Y96.2060
G01 X114.1877 Y96.2053
G01 X114.1534 Y96.2338
G01 X114.1372 Y96.2452
G01 X114.1040 Y96.2658
G01 X114.0916 Y96.2726
G01 X114.0514 Y96.2920
G01 X114.0382 Y96.2975
G01 X113.9961 Y96.3122
G01 X113.9824 Y96.3161
G01 X113.9389 Y96.3261
G01 X113.9249 Y96.3284
G01 X113.8805 Y96.3334
G01 X113.8440 Y96.3349
G01 X0.7100 Y96.3349
G01 X0.6735 Y96.3334
G01 X0.6735 Y96.3327
G01 X0.6291 Y96.3284
G01 X0.6063 Y96.3245
G01 X0.5579 Y96.3122
G01 X0.5158 Y96.2975
G01 X0.5005 Y96.2911
G01 X0.4624 Y96.2726
G01 X0.4500 Y96.2658
G01 X0.4122 Y96.2420
G01 X0.4006 Y96.2338
G01 X0.3657 Y96.2060
G01 X0.3551 Y96.1965
G01 X0.3235 Y96.1649
G01 X0.3140 Y96.1543
G01 X0.3147 Y96.1537
G01 X0.2862 Y96.1194
G01 X0.2748 Y96.1032
G01 X0.2542 Y96.0700
G01 X0.2474 Y96.0576
G01 X0.2280 Y96.0174
G01 X0.2225 Y96.0042
G01 X0.2078 Y95.9621
G01 X0.2039 Y95.9484
G01 X0.1939 Y95.9049
G01 X0.1916 Y95.8909
G01 X0.1866 Y95.8465
G01 X0.1851 Y95.8100
G01 X0.1851 Y0.7100
G01 X0.1866 Y0.6735
G01 X0.1873 Y0.6735
G00 Z2.0000
G00 X0.3432 Y0.6823
G01 F350.00
G01 Z-0.1306
G01 F400.00
G01 X0.3457 Y0.6553
G01 X0.3491 Y0.6359
G01 X0.3542 Y0.6149
G01 X0.3581 Y0.6012
G01 X0.3670 Y0.5757
G01 X0.3730 Y0.5612
G01 X0.3911 Y0.5256
G01 X0.4055 Y0.5027
G01 X0.4138 Y0.4911
G01 X0.4307 Y0.4699
G01 X0.4495 Y0.4495
G01 X0.4587 Y0.4407
G01 X0.4699 Y0.4307
G01 X0.4703 Y0.4311
G01 X0.4911 Y0.4138
G01 X0.5055 Y0.4036
G01 X0.5381 Y0.3842
G01 X0.5625 Y0.3725
G01 X0.5757 Y0.3670
G01 X0.6012 Y0.3581
G01 X0.6149 Y0.3542
G01 X0.6413 Y0.3481
G01 X0.6553 Y0.3457
G01 X0.6822 Y0.3427
G01 X0.7100 Y0.3415
G01 X110.8848 Y0.3415
G01 X110.9129 Y0.3427
G01 X110.9402 Y0.3459
G01 X110.9599 Y0.3493
G01 X110.9950 Y0.3585
G01 X111.0208 Y0.3677
G01 X111.0356 Y0.3739
G01 X111.0714 Y0.3924
G01 X111.0945 Y0.4072
G01 X111.1062 Y0.4156
G01 X111.1275 Y0.4329
G01 X111.1382 Y0.4426
G01 X111.1574 Y0.4622
G01 X111.1669 Y0.4731
G01 X111.1837 Y0.4947
G01 X111.1936 Y0.5092
G01 X111.2130 Y0.5428
G01 X111.2245 Y0.5677
G01 X111.2298 Y0.5811
G01 X111.2385 Y0.6071
G01 X111.2422 Y0.6210
G01 X111.2479 Y0.6479
G01 X111.2500 Y0.6622
G01 X111.2526 Y0.6895
G01 X111.2531 Y0.7039
G01 X111.2525 Y0.7313
G01 X111.2514 Y0.7457
G01 X111.2509 Y0.7457
G01 X111.2477 Y0.7729
G01 X111.2440 Y0.7920
G01 X111.2339 Y0.8274
G01 X111.2242 Y0.8531
G01 X111.2179 Y0.8674
G01 X111.2058 Y0.8907
G01 X111.1985 Y0.9031
G01 X111.1669 Y0.9510
G01 X111.1390 Y1.0913
G01 X111.1390 Y2.7187
G01 X111.1669 Y2.8590
G01 X111.2258 Y2.9472
G01 X111.3140 Y3.0061
G01 X111.4543 Y3.0340
G01 X113.0817 Y3.0340
G01 X113.2220 Y3.0061
G01 X113.3102 Y2.9472
G01 X113.3691 Y2.8590
G01 X113.3970 Y2.7187
G01 X113.3970 Y1.0913
G01 X113.3691 Y0.9510
G01 X113.3375 Y0.9031
G01 X113.3302 Y0.8907
G01 X113.3176 Y0.8663
G01 X113.3118 Y0.8531
G01 X113.3021 Y0.8274
G01 X113.2977 Y0.8137
G01 X113.2910 Y0.7871
G01 X113.2883 Y0.7729
G01 X113.2846 Y0.7457
G01 X113.2827 Y0.7126
G01 X113.2834 Y0.6895
G01 X113.2860 Y0.6622
G01 X113.2884 Y0.6460
G01 X113.2938 Y0.6210
G01 X113.2975 Y0.6071
G01 X113.3062 Y0.5811
G01 X113.3122 Y0.5659
G01 X113.3298 Y0.5300
G01 X113.3441 Y0.5066
G01 X113.3523 Y0.4947
G01 X113.3691 Y0.4731
G01 X113.3786 Y0.4622
G01 X113.3978 Y0.4426
G01 X113.4085 Y0.4329
G01 X113.4298 Y0.4156
G01 X113.4446 Y0.4050
G01 X113.4772 Y0.3853
G01 X113.5018 Y0.3733
G01 X113.5152 Y0.3677
G01 X113.5410 Y0.3585
G01 X113.5549 Y0.3545
G01 X113.5816 Y0.3483
G01 X113.5958 Y0.3459
G01 X113.6231 Y0.3427
G01 X113.6512 Y0.3415
G01 X113.8440 Y0.3415
G01 X113.8718 Y0.3427
G01 X113.8987 Y0.3457
G01 X113.9181 Y0.3491
G01 X113.9528 Y0.3581
G01 X113.9783 Y0.3670
G01 X113.9928 Y0.3730
G01 X114.0284 Y0.3911
G01 X114.0513 Y0.4055
G01 X114.0629 Y0.4138
G01 X114.0841 Y0.4307
G01 X114.0947 Y0.4402
G01 X114.1138 Y0.4593
G01 X114.1233 Y0.4699
G01 X114.1229 Y0.4703
G01 X114.1402 Y0.4911
G01 X114.1504 Y0.5055
G01 X114.1629 Y0.5256
G01 X114.1698 Y0.5381
G01 X114.1815 Y0.5625
G01 X114.1870 Y0.5757
G01 X114.1959 Y0.6012
G01 X114.1998 Y0.6149
G01 X114.2059 Y0.6413
G01 X114.2083 Y0.6553
G01 X114.2113 Y0.6822
G01 X114.2125 Y0.7100
G01 X114.2125 Y17.6527
G01 X114.2113 Y17.6805
G01 X114.2083 Y17.7074
G01 X114.2049 Y17.7268
G01 X114.1959 Y17.7615
G01 X114.1870 Y17.7871
G01 X114.1810 Y17.8015
G01 X114.1629 Y17.8371
G01 X114.1485 Y17.8600
G01 X114.1402 Y17.8716
G01 X114.1233 Y17.8928
G01 X114.1138 Y17.9034
G01 X114.0947 Y17.9226
G01 X114.0841 Y17.9321
G01 X114.0837 Y17.9316
G01 X114.0629 Y17.9489
G01 X114.0513 Y17.9572
G01 X114.0284 Y17.9716
G01 X114.0159 Y17.9785
G01 X113.9915 Y17.9902
G01 X113.9783 Y17.9957
G01 X113.9528 Y18.0046
G01 X113.9391 Y18.0086
G01 X113.9127 Y18.0146
G01 X113.8987 Y18.0170
G01 X113.8718 Y18.0200
G01 X113.8440 Y18.0212
G01 X113.8305 Y18.0208
G01 X113.8162 Y18.0200
G01 X113.7893 Y18.0170
G01 X113.7699 Y18.0136
G01 X113.7489 Y18.0086
G01 X113.7352 Y18.0046
G01 X113.7097 Y17.9957
G01 X113.6952 Y17.9897
G01 X113.6721 Y17.9785
G01 X113.6596 Y17.9716
G01 X113.6367 Y17.9572
G01 X113.6251 Y17.9489
G01 X113.6039 Y17.9321
G01 X113.5835 Y17.9133
G01 X111.8447 Y16.1745
G01 X111.8282 Y16.1567
G01 X111.8131 Y16.1384
G01 X111.7875 Y16.1016
G01 X111.6001 Y15.9763
G01 X111.3790 Y15.9324
G01 X111.3348 Y15.9402
G01 X111.3112 Y15.9426
G01 X111.2869 Y15.9435
G01 X106.3053 Y15.9435
G01 X106.2775 Y15.9423
G01 X106.2506 Y15.9393
G01 X106.2312 Y15.9359
G01 X106.1965 Y15.9269
G01 X106.1709 Y15.9180
G01 X106.1565 Y15.9120
G01 X106.1209 Y15.8939
G01 X106.0980 Y15.8795
G01 X106.0864 Y15.8712
G01 X106.0652 Y15.8543
G01 X106.0447 Y15.8355
G01 X105.5183 Y15.3091
G01 X105.4992 Y15.2882
G01 X105.4996 Y15.2878
G01 X105.4820 Y15.2666
G01 X105.4716 Y15.2518
G01 X105.4590 Y15.2312
G01 X105.4520 Y15.2184
G01 X105.4402 Y15.1935
G01 X105.4348 Y15.1800
G01 X105.4259 Y15.1538
G01 X105.4220 Y15.1398
G01 X105.4162 Y15.1128
G01 X105.4139 Y15.0984
G01 X105.4112 Y15.0709
G01 X105.4104 Y15.0465
G01 X105.4111 Y15.0287
G01 X105.4121 Y15.0142
G01 X105.4127 Y15.0143
G01 X105.4158 Y14.9868
G01 X105.4195 Y14.9674
G01 X105.4252 Y14.9457
G01 X105.4295 Y14.9319
G01 X105.4393 Y14.9060
G01 X105.4457 Y14.8915
G01 X105.4578 Y14.8681
G01 X105.4652 Y14.8556
G01 X105.4805 Y14.8326
G01 X105.4893 Y14.8210
G01 X105.5071 Y14.7999
G01 X105.5213 Y14.7851
G01 X105.5373 Y14.7705
G01 X105.5485 Y14.7612
G01 X105.5707 Y14.7447
G01 X105.5848 Y14.7355
G01 X105.6068 Y14.7229
G01 X105.6198 Y14.7164
G01 X105.6451 Y14.7054
G01 X105.6588 Y14.7004
G01 X105.6852 Y14.6923
G01 X105.6994 Y14.6889
G01 X105.7266 Y14.6840
G01 X105.7410 Y14.6822
G01 X105.7686 Y14.6804
G01 X105.7851 Y14.6803
G01 X105.8252 Y14.6832
G01 X105.8251 Y14.6839
G01 X105.8525 Y14.6877
G01 X105.8666 Y14.6909
G01 X105.8932 Y14.6985
G01 X105.9070 Y14.7032
G01 X105.9067 Y14.7040
G01 X105.9199 Y14.7082
G01 X106.5292 Y14.9605
G01 X107.4308 Y14.9605
G01 X108.2639 Y14.6155
G01 X108.9015 Y13.9779
G01 X109.2465 Y13.1448
G01 X109.2465 Y12.2432
G01 X108.9015 Y11.4101
G01 X108.2639 Y10.7725
G01 X107.4308 Y10.4275
G01 X106.5292 Y10.4275
G01 X105.6961 Y10.7725
G01 X105.0585 Y11.4101
G01 X104.7135 Y12.2432
G01 X104.7135 Y13.1448
G01 X104.9706 Y13.7665
G01 X104.9752 Y13.7797
G01 X104.9826 Y13.8052
G01 X104.9858 Y13.8188
G01 X104.9903 Y13.8449
G01 X104.9920 Y13.8588
G01 X104.9936 Y13.8853
G01 X104.9937 Y13.9011
G01 X104.9911 Y13.9396
G01 X104.9904 Y13.9395
G01 X104.9869 Y13.9658
G01 X104.9840 Y13.9795
G01 X104.9770 Y14.0051
G01 X104.9720 Y14.0200
G01 X104.9628 Y14.0430
G01 X104.9568 Y14.0560
G01 X104.9373 Y14.0911
G01 X104.9224 Y14.1130
G01 X104.9139 Y14.1241
G01 X104.8967 Y14.1443
G01 X104.8831 Y14.1585
G01 X104.8570 Y14.1815
G01 X104.8358 Y14.1975
G01 X104.8226 Y14.2063
G01 X104.7890 Y14.2252
G01 X104.7648 Y14.2361
G01 X104.7518 Y14.2411
G01 X104.7266 Y14.2493
G01 X104.7131 Y14.2529
G01 X104.6871 Y14.2583
G01 X104.6733 Y14.2603
G01 X104.6469 Y14.2628
G01 X104.6234 Y14.2636
G01 X104.5924 Y14.2620
G01 X104.5925 Y14.2615
G01 X104.5661 Y14.2587
G01 X104.5477 Y14.2553
G01 X104.5132 Y14.2460
G01 X104.4883 Y14.2370
G01 X104.4746 Y14.2312
G01 X104.4394 Y14.2130
G01 X104.4170 Y14.1988
G01 X104.4056 Y14.1907
G01 X104.3849 Y14.1741
G01 X104.3649 Y14.1557
G01 X103.0365 Y12.8273
G01 X103.0177 Y12.8068
G01 X103.0181 Y12.8064
G01 X103.0008 Y12.7856
G01 X102.9906 Y12.7712
G01 X102.9781 Y12.7511
G01 X102.9712 Y12.7386
G01 X102.9595 Y12.7142
G01 X102.9540 Y12.7011
G01 X102.9451 Y12.6755
G01 X102.9412 Y12.6618
G01 X102.9351 Y12.6354
G01 X102.9327 Y12.6214
G01 X102.9297 Y12.5945
G01 X102.9285 Y12.5667
G01 X102.9285 Y6.1201
G01 X102.9294 Y6.0958
G01 X102.9318 Y6.0722
G01 X102.9396 Y6.0280
G01 X102.8957 Y5.8069
G01 X102.7704 Y5.6196
G01 X102.7336 Y5.5939
G01 X102.7153 Y5.5788
G01 X102.6975 Y5.5623
G01 X101.3717 Y4.2365
G01 X101.3552 Y4.2187
G01 X101.3401 Y4.2004
G01 X101.3144 Y4.1636
G01 X101.1271 Y4.0383
G01 X100.8816 Y3.9895
G01 X100.8817 Y3.9889
G01 X100.8681 Y3.9864
G01 X100.8540 Y3.9828
G01 X100.8277 Y3.9743
G01 X100.8121 Y3.9683
G01 X100.7890 Y3.9577
G01 X100.7761 Y3.9509
G01 X100.7524 Y3.9367
G01 X100.7403 Y3.9285
G01 X100.7184 Y3.9117
G01 X100.7074 Y3.9022
G01 X100.6875 Y3.8830
G01 X100.6777 Y3.8723
G01 X100.6602 Y3.8509
G01 X100.6492 Y3.8358
G01 X100.6294 Y3.8033
G01 X100.6172 Y3.7785
G01 X100.6115 Y3.7651
G01 X100.6022 Y3.7391
G01 X100.5981 Y3.7252
G01 X100.5918 Y3.6982
G01 X100.5894 Y3.6839
G01 X100.5862 Y3.6565
G01 X100.5850 Y3.6281
G01 X100.5850 Y3.1083
G01 X100.5571 Y2.9680
G01 X100.4982 Y2.8798
G01 X100.4100 Y2.8209
G01 X100.2697 Y2.7930
G01 X97.3423 Y2.7930
G01 X97.2020 Y2.8209
G01 X97.1138 Y2.8798
G01 X97.0549 Y2.9680
G01 X97.0270 Y3.1083
G01 X97.0270 Y6.0357
G01 X97.0549 Y6.1760
G01 X97.1138 Y6.2642
G01 X97.2020 Y6.3231
G01 X97.3423 Y6.3510
G01 X100.2697 Y6.3510
G01 X100.4100 Y6.3231
G01 X100.4982 Y6.2642
G01 X100.5571 Y6.1760
G01 X100.5850 Y6.0357
G01 X100.5850 Y5.9417
G01 X100.5862 Y5.9140
G01 X100.5892 Y5.8871
G01 X100.5916 Y5.8730
G01 X100.5976 Y5.8466
G01 X100.6015 Y5.8329
G01 X100.6105 Y5.8074
G01 X100.6165 Y5.7929
G01 X100.6346 Y5.7574
G01 X100.6490 Y5.7344
G01 X100.6572 Y5.7228
G01 X100.6741 Y5.7017
G01 X100.6836 Y5.6910
G01 X100.7027 Y5.6719
G01 X100.7134 Y5.6624
G01 X100.7137 Y5.6628
G01 X100.7345 Y5.6455
G01 X100.7489 Y5.6353
G01 X100.7691 Y5.6229
G01 X100.7815 Y5.6160
G01 X100.8059 Y5.6042
G01 X100.8191 Y5.5988
G01 X100.8446 Y5.5898
G01 X100.8583 Y5.5859
G01 X100.8847 Y5.5799
G01 X100.8988 Y5.5775
G01 X100.9257 Y5.5744
G01 X100.9534 Y5.5733
G01 X100.9670 Y5.5736
G01 X100.9812 Y5.5744
G01 X101.0081 Y5.5775
G01 X101.0275 Y5.5808
G01 X101.0622 Y5.5898
G01 X101.0878 Y5.5988
G01 X101.1022 Y5.6048
G01 X101.1378 Y5.6229
G01 X101.1607 Y5.6373
G01 X101.1724 Y5.6455
G01 X101.1935 Y5.6624
G01 X101.2140 Y5.6812
G01 X101.6875 Y6.1547
G01 X101.7063 Y6.1752
G01 X101.7059 Y6.1756
G01 X101.7232 Y6.1964
G01 X101.7334 Y6.2108
G01 X101.7459 Y6.2309
G01 X101.7528 Y6.2434
G01 X101.7645 Y6.2678
G01 X101.7700 Y6.2809
G01 X101.7789 Y6.3065
G01 X101.7828 Y6.3202
G01 X101.7889 Y6.3466
G01 X101.7913 Y6.3606
G01 X101.7943 Y6.3875
G01 X101.7955 Y6.4153
G01 X101.7955 Y12.8619
G01 X101.7946 Y12.8862
G01 X101.7922 Y12.9098
G01 X101.7844 Y12.9540
G01 X101.7948 Y13.0066
G01 X101.7991 Y13.0338
G01 X101.8013 Y13.0604
G01 X101.8019 Y13.0817
G01 X101.7999 Y13.1153
G01 X101.7994 Y13.1153
G01 X101.7963 Y13.1419
G01 X101.7927 Y13.1602
G01 X101.7828 Y13.1951
G01 X101.7734 Y13.2202
G01 X101.7678 Y13.2331
G01 X101.7556 Y13.2570
G01 X101.7486 Y13.2692
G01 X101.7339 Y13.2916
G01 X101.7255 Y13.3029
G01 X101.7084 Y13.3235
G01 X101.6989 Y13.3339
G01 X101.6796 Y13.3525
G01 X101.6689 Y13.3617
G01 X101.6477 Y13.3780
G01 X101.6340 Y13.3875
G01 X101.6008 Y13.4066
G01 X101.5765 Y13.4179
G01 X101.5635 Y13.4231
G01 X101.5381 Y13.4316
G01 X101.5245 Y13.4354
G01 X101.4983 Y13.4411
G01 X101.4844 Y13.4433
G01 X101.4578 Y13.4460
G01 X101.4324 Y13.4469
G01 X101.4028 Y13.4455
G01 X101.3763 Y13.4423
G01 X101.3574 Y13.4390
G01 X101.3363 Y13.4338
G01 X101.3228 Y13.4298
G01 X101.2976 Y13.4208
G01 X101.2835 Y13.4149
G01 X101.2482 Y13.3968
G01 X101.2255 Y13.3825
G01 X101.2140 Y13.3743
G01 X101.1931 Y13.3576
G01 X101.1729 Y13.3390
G01 X94.5345 Y6.7006
G01 X94.5152 Y6.6795
G01 X94.5156 Y6.6791
G01 X94.4979 Y6.6577
G01 X94.4874 Y6.6427
G01 X94.4678 Y6.6091
G01 X94.4560 Y6.5839
G01 X94.4505 Y6.5703
G01 X94.4417 Y6.5438
G01 X94.4378 Y6.5297
G01 X94.4320 Y6.5024
G01 X94.4299 Y6.4879
G01 X94.4273 Y6.4602
G01 X94.4268 Y6.4455
G01 X94.4274 Y6.4177
G01 X94.4286 Y6.4030
G01 X94.4292 Y6.4031
G01 X94.4325 Y6.3754
G01 X94.4364 Y6.3560
G01 X94.4468 Y6.3201
G01 X94.4569 Y6.2941
G01 X94.4635 Y6.2796
G01 X94.4760 Y6.2561
G01 X94.4835 Y6.2436
G01 X94.4993 Y6.2206
G01 X94.5083 Y6.2090
G01 X94.5265 Y6.1880
G01 X94.5388 Y6.1755
G01 X94.5688 Y6.1495
G01 X94.5914 Y6.1332
G01 X94.6054 Y6.1243
G01 X94.6281 Y6.1118
G01 X94.6541 Y6.0997
G01 X94.7267 Y6.0696
G01 X95.2236 Y5.5727
G01 X95.4925 Y4.9234
G01 X95.4925 Y4.2206
G01 X95.2236 Y3.5713
G01 X94.7267 Y3.0744
G01 X94.0774 Y2.8055
G01 X93.3746 Y2.8055
G01 X92.7253 Y3.0744
G01 X92.2284 Y3.5713
G01 X91.9595 Y4.2206
G01 X91.9595 Y4.9234
G01 X92.2284 Y5.5727
G01 X92.7253 Y6.0696
G01 X92.9320 Y6.1552
G01 X92.9584 Y6.1676
G01 X92.9832 Y6.1814
G01 X92.9958 Y6.1895
G01 X93.0188 Y6.2062
G01 X93.0479 Y6.2316
G01 X93.0616 Y6.2458
G01 X93.0801 Y6.2674
G01 X93.0922 Y6.2835
G01 X93.1049 Y6.3030
G01 X93.1125 Y6.3159
G01 X93.1254 Y6.3412
G01 X93.1314 Y6.3549
G01 X93.1412 Y6.3816
G01 X93.1456 Y6.3959
G01 X93.1522 Y6.4235
G01 X93.1548 Y6.4382
G01 X93.1582 Y6.4665
G01 X93.1595 Y6.4956
G01 X93.1592 Y6.6131
G01 X93.1562 Y6.6491
G01 X93.1484 Y6.6933
G01 X93.1923 Y6.9144
G01 X93.3176 Y7.1018
G01 X93.3544 Y7.1275
G01 X93.3727 Y7.1425
G01 X93.3905 Y7.1590
G01 X104.4740 Y18.2425
G01 X104.4905 Y18.2603
G01 X104.5055 Y18.2786
G01 X104.5312 Y18.3154
G01 X104.7186 Y18.4407
G01 X104.9597 Y18.4886
G01 X104.9596 Y18.4892
G01 X104.9730 Y18.4917
G01 X104.9870 Y18.4953
G01 X105.0130 Y18.5036
G01 X105.0282 Y18.5095
G01 X105.0641 Y18.5266
G01 X105.0876 Y18.5406
G01 X105.0995 Y18.5486
G01 X105.1213 Y18.5651
G01 X105.1322 Y18.5745
G01 X105.1463 Y18.5874
G01 X105.1618 Y18.6039
G01 X105.1793 Y18.6249
G01 X105.1904 Y18.6398
G01 X105.2101 Y18.6717
G01 X105.2224 Y18.6961
G01 X105.2282 Y18.7093
G01 X105.2377 Y18.7349
G01 X105.2419 Y18.7486
G01 X105.2485 Y18.7752
G01 X105.2511 Y18.7893
G01 X105.2546 Y18.8164
G01 X105.2563 Y18.8481
G01 X105.2555 Y18.8725
G01 X105.2528 Y18.8997
G01 X105.2496 Y18.9198
G01 X105.2410 Y18.9545
G01 X105.2323 Y18.9804
G01 X105.2263 Y18.9954
G01 X105.2085 Y19.0312
G01 X105.1942 Y19.0544
G01 X105.1860 Y19.0662
G01 X105.1691 Y19.0878
G01 X105.1596 Y19.0986
G01 X105.1405 Y19.1180
G01 X105.1298 Y19.1277
G01 X105.1294 Y19.1273
G01 X105.1085 Y19.1449
G01 X105.0969 Y19.1533
G01 X105.0738 Y19.1679
G01 X105.0612 Y19.1750
G01 X105.0367 Y19.1869
G01 X105.0234 Y19.1925
G01 X104.9976 Y19.2016
G01 X104.9838 Y19.2056
G01 X104.9572 Y19.2117
G01 X104.9430 Y19.2142
G01 X104.9158 Y19.2173
G01 X104.8878 Y19.2185
G01 X102.4539 Y19.2185
G01 X102.4261 Y19.2173
G01 X102.3992 Y19.2143
G01 X102.3798 Y19.2109
G01 X102.3451 Y19.2019
G01 X102.3195 Y19.1930
G01 X102.3051 Y19.1870
G01 X102.2820 Y19.1758
G01 X102.2695 Y19.1689
G01 X102.2466 Y19.1545
G01 X102.2350 Y19.1462
G01 X102.2138 Y19.1293
G01 X102.1933 Y19.1105
G01 X99.5750 Y16.4923
G01 X99.5585 Y16.4744
G01 X99.5435 Y16.4561
G01 X99.5234 Y16.4276
G01 X99.3690 Y16.3245
G01 X99.1870 Y16.2883
G01 X99.1526 Y16.2942
G01 X99.1291 Y16.2966
G01 X99.1048 Y16.2975
G01 X97.6079 Y16.2971
G01 X97.5679 Y16.2935
G01 X97.5492 Y16.2903
G01 X97.5152 Y16.2818
G01 X97.4903 Y16.2733
G01 X97.4765 Y16.2678
G01 X97.4414 Y16.2505
G01 X97.4074 Y16.2290
G01 X97.3760 Y16.2040
G01 X97.3570 Y16.1858
G01 X97.3306 Y16.1555
G01 X97.3147 Y16.1337
G01 X97.1980 Y15.9590
G01 X96.9498 Y15.7928
G01 X96.9185 Y15.7675
G01 X96.8902 Y15.7390
G01 X96.8812 Y15.7285
G01 X96.8652 Y15.7076
G01 X96.8561 Y15.6944
G01 X96.8372 Y15.6615
G01 X96.8261 Y15.6376
G01 X96.8124 Y15.5999
G01 X96.8030 Y15.5608
G01 X96.8008 Y15.5472
G01 X96.7971 Y15.5072
G01 X96.7968 Y15.4940
G01 X96.7979 Y15.4670
G01 X96.8008 Y15.4408
G01 X96.8039 Y15.4222
G01 X96.8124 Y15.3881
G01 X96.8209 Y15.3632
G01 X96.8264 Y15.3494
G01 X96.8437 Y15.3143
G01 X96.8652 Y15.2804
G01 X96.8812 Y15.2595
G01 X96.9084 Y15.2299
G01 X96.9185 Y15.2205
G01 X96.9498 Y15.1952
G01 X97.1980 Y15.0290
G01 X97.4448 Y14.6597
G01 X97.5314 Y14.2240
G01 X97.4448 Y13.7883
G01 X97.1980 Y13.4190
G01 X96.8287 Y13.1722
G01 X96.5030 Y13.1075
G01 X96.2830 Y13.1075
G01 X95.9573 Y13.1722
G01 X95.5880 Y13.4190
G01 X95.5381 Y13.4937
G01 X95.5222 Y13.5155
G01 X95.5053 Y13.5357
G01 X95.4768 Y13.5640
G01 X95.4454 Y13.5890
G01 X95.4321 Y13.5981
G01 X95.4115 Y13.6105
G01 X95.3754 Y13.6282
G01 X95.3376 Y13.6418
G01 X95.3243 Y13.6455
G01 X95.2849 Y13.6535
G01 X95.2587 Y13.6563
G01 X95.2318 Y13.6575
G01 X93.2243 Y13.6575
G01 X93.1965 Y13.6563
G01 X93.1696 Y13.6533
G01 X93.1502 Y13.6499
G01 X93.1155 Y13.6409
G01 X93.0899 Y13.6320
G01 X93.0755 Y13.6260
G01 X93.0399 Y13.6079
G01 X93.0170 Y13.5935
G01 X93.0054 Y13.5852
G01 X92.9842 Y13.5683
G01 X92.9637 Y13.5495
G01 X92.3592 Y12.9444
G01 X92.3497 Y12.9338
G01 X92.3501 Y12.9334
G01 X92.3328 Y12.9126
G01 X92.3226 Y12.8982
G01 X92.3032 Y12.8656
G01 X92.2915 Y12.8412
G01 X92.2860 Y12.8281
G01 X92.2771 Y12.8025
G01 X92.2732 Y12.7888
G01 X92.2671 Y12.7624
G01 X92.2647 Y12.7484
G01 X92.2617 Y12.7215
G01 X92.2605 Y12.6937
G01 X92.2605 Y9.6171
G01 X92.2614 Y9.5928
G01 X92.2638 Y9.5692
G01 X92.2716 Y9.5250
G01 X92.2277 Y9.3040
G01 X92.1024 Y9.1166
G01 X92.0656 Y9.0909
G01 X92.0473 Y9.0758
G01 X92.0295 Y9.0593
G01 X91.5247 Y8.5545
G01 X91.5082 Y8.5367
G01 X91.4931 Y8.5184
G01 X91.4674 Y8.4816
G01 X91.2801 Y8.3563
G01 X91.0590 Y8.3124
G01 X91.0148 Y8.3202
G01 X90.9912 Y8.3226
G01 X90.9669 Y8.3235
G01 X88.5437 Y8.3235
G01 X88.5159 Y8.3223
G01 X88.4890 Y8.3193
G01 X88.4696 Y8.3159
G01 X88.4486 Y8.3108
G01 X88.4349 Y8.3069
G01 X88.4093 Y8.2980
G01 X88.3949 Y8.2920
G01 X88.3593 Y8.2739
G01 X88.3364 Y8.2595
G01 X88.3247 Y8.2512
G01 X88.3036 Y8.2343
G01 X88.2831 Y8.2155
G01 X88.0856 Y8.0180
G01 X87.7076 Y7.8615
G01 X87.2984 Y7.8615
G01 X86.9204 Y8.0180
G01 X86.6310 Y8.3074
G01 X86.4745 Y8.6854
G01 X86.4745 Y9.0946
G01 X86.6310 Y9.4726
G01 X86.9204 Y9.7620
G01 X87.2984 Y9.9185
G01 X87.7076 Y9.9185
G01 X88.0856 Y9.7620
G01 X88.2831 Y9.5645
G01 X88.3036 Y9.5457
G01 X88.3040 Y9.5461
G01 X88.3247 Y9.5288
G01 X88.3391 Y9.5186
G01 X88.3593 Y9.5061
G01 X88.3718 Y9.4992
G01 X88.3961 Y9.4875
G01 X88.4093 Y9.4820
G01 X88.4349 Y9.4731
G01 X88.4486 Y9.4692
G01 X88.4749 Y9.4631
G01 X88.4890 Y9.4607
G01 X88.5159 Y9.4577
G01 X88.5437 Y9.4565
G01 X90.6717 Y9.4565
G01 X90.6995 Y9.4577
G01 X90.7264 Y9.4607
G01 X90.7458 Y9.4641
G01 X90.7668 Y9.4692
G01 X90.7805 Y9.4731
G01 X90.8061 Y9.4820
G01 X90.8205 Y9.4880
G01 X90.8561 Y9.5061
G01 X90.8790 Y9.5205
G01 X90.8906 Y9.5288
G01 X90.9118 Y9.5457
G01 X90.9224 Y9.5552
G01 X91.0195 Y9.6517
G01 X91.0383 Y9.6722
G01 X91.0379 Y9.6726
G01 X91.0552 Y9.6934
G01 X91.0654 Y9.7078
G01 X91.0779 Y9.7279
G01 X91.0848 Y9.7404
G01 X91.0965 Y9.7648
G01 X91.1020 Y9.7779
G01 X91.1109 Y9.8035
G01 X91.1148 Y9.8172
G01 X91.1209 Y9.8436
G01 X91.1233 Y9.8576
G01 X91.1263 Y9.8845
G01 X91.1275 Y9.9123
G01 X91.1275 Y12.9889
G01 X91.1266 Y13.0132
G01 X91.1242 Y13.0368
G01 X91.1164 Y13.0810
G01 X91.1603 Y13.3021
G01 X91.2856 Y13.4894
G01 X91.3224 Y13.5151
G01 X91.3407 Y13.5302
G01 X91.3585 Y13.5467
G01 X92.3713 Y14.5595
G01 X92.3878 Y14.5773
G01 X92.4029 Y14.5956
G01 X92.4286 Y14.6324
G01 X92.6159 Y14.7577
G01 X92.8370 Y14.8016
G01 X92.8812 Y14.7938
G01 X92.9048 Y14.7914
G01 X92.9291 Y14.7905
G01 X95.2318 Y14.7905
G01 X95.2587 Y14.7917
G01 X95.2849 Y14.7945
G01 X95.3036 Y14.7977
G01 X95.3243 Y14.8025
G01 X95.3625 Y14.8147
G01 X95.3763 Y14.8202
G01 X95.4115 Y14.8375
G01 X95.4454 Y14.8590
G01 X95.4768 Y14.8840
G01 X95.4958 Y14.9022
G01 X95.5222 Y14.9325
G01 X95.5381 Y14.9543
G01 X95.5880 Y15.0290
G01 X95.8362 Y15.1952
G01 X95.8675 Y15.2205
G01 X95.8958 Y15.2490
G01 X95.9048 Y15.2595
G01 X95.9208 Y15.2804
G01 X95.9299 Y15.2936
G01 X95.9488 Y15.3265
G01 X95.9599 Y15.3504
G01 X95.9736 Y15.3881
G01 X95.9830 Y15.4272
G01 X95.9852 Y15.4408
G01 X95.9881 Y15.4670
G01 X95.9892 Y15.4940
G01 X95.9881 Y15.5210
G01 X95.9852 Y15.5472
G01 X95.9821 Y15.5658
G01 X95.9736 Y15.5999
G01 X95.9651 Y15.6248
G01 X95.9596 Y15.6386
G01 X95.9423 Y15.6737
G01 X95.9208 Y15.7076
G01 X95.8958 Y15.7390
G01 X95.8675 Y15.7675
G01 X95.8473 Y15.7844
G01 X95.8255 Y15.8004
G01 X95.5880 Y15.9590
G01 X95.3412 Y16.3283
G01 X95.2546 Y16.7640
G01 X95.3412 Y17.1997
G01 X95.5970 Y17.5824
G01 X95.6174 Y17.6038
G01 X95.6266 Y17.6147
G01 X95.6429 Y17.6363
G01 X95.6520 Y17.6500
G01 X95.6711 Y17.6841
G01 X95.6821 Y17.7088
G01 X95.6887 Y17.7262
G01 X95.6954 Y17.7479
G01 X95.6990 Y17.7617
G01 X95.7043 Y17.7883
G01 X95.7063 Y17.8024
G01 X95.7085 Y17.8294
G01 X95.7089 Y17.8436
G01 X95.7082 Y17.8707
G01 X95.7070 Y17.8849
G01 X95.7064 Y17.8848
G01 X95.7032 Y17.9117
G01 X95.6995 Y17.9302
G01 X95.6893 Y17.9654
G01 X95.6797 Y17.9907
G01 X95.6735 Y18.0046
G01 X95.6614 Y18.0278
G01 X95.6542 Y18.0401
G01 X95.6391 Y18.0626
G01 X95.6306 Y18.0740
G01 X95.6131 Y18.0946
G01 X95.5986 Y18.1098
G01 X95.5728 Y18.1328
G01 X95.5511 Y18.1491
G01 X95.5374 Y18.1582
G01 X95.5033 Y18.1773
G01 X95.4786 Y18.1883
G01 X95.4612 Y18.1949
G01 X95.4422 Y18.2008
G01 X95.3508 Y18.2618
G01 X95.3243 Y18.2995
G01 X95.3071 Y18.3199
G01 X95.2923 Y18.3355
G01 X95.2782 Y18.3485
G01 X95.2675 Y18.3576
G01 X95.2463 Y18.3738
G01 X95.2328 Y18.3829
G01 X95.1994 Y18.4019
G01 X95.1752 Y18.4130
G01 X95.1622 Y18.4181
G01 X95.1368 Y18.4264
G01 X95.1233 Y18.4301
G01 X95.0972 Y18.4356
G01 X95.0834 Y18.4378
G01 X95.0569 Y18.4404
G01 X95.0428 Y18.4410
G01 X95.0325 Y18.4412
G01 X95.0022 Y18.4397
G01 X95.0022 Y18.4392
G01 X94.9758 Y18.4364
G01 X94.9571 Y18.4330
G01 X94.9226 Y18.4238
G01 X94.8975 Y18.4148
G01 X94.8836 Y18.4090
G01 X94.8606 Y18.3977
G01 X94.8484 Y18.3909
G01 X94.8258 Y18.3766
G01 X94.8144 Y18.3685
G01 X94.7936 Y18.3518
G01 X94.7735 Y18.3333
G01 X90.0747 Y13.6345
G01 X90.0582 Y13.6167
G01 X90.0431 Y13.5984
G01 X90.0174 Y13.5616
G01 X89.8301 Y13.4363
G01 X89.6090 Y13.3924
G01 X89.5648 Y13.4002
G01 X89.5412 Y13.4026
G01 X89.5169 Y13.4035
G01 X88.5437 Y13.4035
G01 X88.5159 Y13.4023
G01 X88.4890 Y13.3993
G01 X88.4696 Y13.3959
G01 X88.4349 Y13.3869
G01 X88.4093 Y13.3780
G01 X88.3949 Y13.3720
G01 X88.3593 Y13.3539
G01 X88.3364 Y13.3395
G01 X88.3247 Y13.3312
G01 X88.3036 Y13.3143
G01 X88.2831 Y13.2955
G01 X88.0856 Y13.0980
G01 X87.7076 Y12.9415
G01 X87.2984 Y12.9415
G01 X86.9204 Y13.0980
G01 X86.6310 Y13.3874
G01 X86.4745 Y13.7654
G01 X86.4745 Y14.1746
G01 X86.6310 Y14.5526
G01 X86.9204 Y14.8420
G01 X87.2984 Y14.9985
G01 X87.7076 Y14.9985
G01 X88.0856 Y14.8420
G01 X88.2831 Y14.6445
G01 X88.3036 Y14.6257
G01 X88.3040 Y14.6261
G01 X88.3247 Y14.6088
G01 X88.3391 Y14.5986
G01 X88.3593 Y14.5861
G01 X88.3718 Y14.5792
G01 X88.3961 Y14.5675
G01 X88.4093 Y14.5620
G01 X88.4349 Y14.5531
G01 X88.4486 Y14.5492
G01 X88.4749 Y14.5431
G01 X88.4890 Y14.5407
G01 X88.5159 Y14.5377
G01 X88.5437 Y14.5365
G01 X89.2217 Y14.5365
G01 X89.2495 Y14.5377
G01 X89.2764 Y14.5407
G01 X89.2958 Y14.5441
G01 X89.3305 Y14.5531
G01 X89.3561 Y14.5620
G01 X89.3705 Y14.5680
G01 X89.4061 Y14.5861
G01 X89.4290 Y14.6005
G01 X89.4406 Y14.6088
G01 X89.4618 Y14.6257
G01 X89.4724 Y14.6352
G01 X90.0253 Y15.1875
G01 X90.0441 Y15.2079
G01 X90.0436 Y15.2083
G01 X90.0609 Y15.2291
G01 X90.0711 Y15.2435
G01 X90.0836 Y15.2636
G01 X90.0905 Y15.2761
G01 X90.1022 Y15.3005
G01 X90.1077 Y15.3137
G01 X90.1166 Y15.3392
G01 X90.1206 Y15.3529
G01 X90.1266 Y15.3793
G01 X90.1290 Y15.3933
G01 X90.1320 Y15.4202
G01 X90.1332 Y15.4480
G01 X90.1320 Y15.4758
G01 X90.1290 Y15.5027
G01 X90.1266 Y15.5167
G01 X90.1206 Y15.5431
G01 X90.1166 Y15.5568
G01 X90.1077 Y15.5823
G01 X90.1017 Y15.5968
G01 X90.0836 Y15.6324
G01 X90.0692 Y15.6553
G01 X90.0609 Y15.6669
G01 X90.0441 Y15.6881
G01 X90.0346 Y15.6987
G01 X90.0154 Y15.7178
G01 X90.0048 Y15.7273
G01 X90.0044 Y15.7269
G01 X89.9836 Y15.7442
G01 X89.9720 Y15.7525
G01 X89.9491 Y15.7669
G01 X89.9366 Y15.7738
G01 X89.9122 Y15.7855
G01 X89.8991 Y15.7910
G01 X89.8735 Y15.7999
G01 X89.8598 Y15.8038
G01 X89.8334 Y15.8099
G01 X89.8194 Y15.8123
G01 X89.7925 Y15.8153
G01 X89.7647 Y15.8165
G01 X86.3663 Y15.8165
G01 X86.3385 Y15.8153
G01 X86.3116 Y15.8123
G01 X86.2922 Y15.8089
G01 X86.2712 Y15.8038
G01 X86.2575 Y15.7999
G01 X86.2319 Y15.7910
G01 X86.2188 Y15.7855
G01 X86.1944 Y15.7738
G01 X86.1819 Y15.7669
G01 X86.1590 Y15.7525
G01 X86.1474 Y15.7442
G01 X86.1262 Y15.7273
G01 X86.1057 Y15.7085
G01 X84.0317 Y13.6345
G01 X84.0152 Y13.6167
G01 X84.0001 Y13.5984
G01 X83.9744 Y13.5616
G01 X83.7871 Y13.4363
G01 X83.5660 Y13.3924
G01 X83.5218 Y13.4002
G01 X83.4982 Y13.4026
G01 X83.4739 Y13.4035
G01 X80.9237 Y13.4035
G01 X80.8959 Y13.4023
G01 X80.8690 Y13.3993
G01 X80.8496 Y13.3959
G01 X80.8286 Y13.3908
G01 X80.8149 Y13.3869
G01 X80.7893 Y13.3780
G01 X80.7749 Y13.3720
G01 X80.7393 Y13.3539
G01 X80.7164 Y13.3395
G01 X80.7047 Y13.3312
G01 X80.6836 Y13.3143
G01 X80.6631 Y13.2955
G01 X80.4656 Y13.0980
G01 X80.0876 Y12.9415
G01 X79.6784 Y12.9415
G01 X79.3004 Y13.0980
G01 X79.0110 Y13.3874
G01 X78.8545 Y13.7654
G01 X78.8545 Y14.1746
G01 X79.0110 Y14.5526
G01 X79.3004 Y14.8420
G01 X79.6784 Y14.9985
G01 X80.0876 Y14.9985
G01 X80.4656 Y14.8420
G01 X80.6631 Y14.6445
G01 X80.6836 Y14.6257
G01 X80.6840 Y14.6261
G01 X80.7047 Y14.6088
G01 X80.7191 Y14.5986
G01 X80.7393 Y14.5861
G01 X80.7518 Y14.5792
G01 X80.7761 Y14.5675
G01 X80.7893 Y14.5620
G01 X80.8149 Y14.5531
G01 X80.8286 Y14.5492
G01 X80.8549 Y14.5431
G01 X80.8690 Y14.5407
G01 X80.8959 Y14.5377
G01 X80.9237 Y14.5365
G01 X83.1787 Y14.5365
G01 X83.2065 Y14.5377
G01 X83.2334 Y14.5407
G01 X83.2528 Y14.5441
G01 X83.2738 Y14.5492
G01 X83.2875 Y14.5531
G01 X83.3131 Y14.5620
G01 X83.3275 Y14.5680
G01 X83.3631 Y14.5861
G01 X83.3860 Y14.6005
G01 X83.3976 Y14.6088
G01 X83.4188 Y14.6257
G01 X83.4393 Y14.6445
G01 X84.8713 Y16.0765
G01 X84.8901 Y16.0969
G01 X84.8896 Y16.0973
G01 X84.9069 Y16.1181
G01 X84.9171 Y16.1325
G01 X84.9365 Y16.1651
G01 X84.9482 Y16.1895
G01 X84.9537 Y16.2027
G01 X84.9626 Y16.2282
G01 X84.9666 Y16.2419
G01 X84.9726 Y16.2683
G01 X84.9750 Y16.2823
G01 X84.9780 Y16.3092
G01 X84.9792 Y16.3370
G01 X84.9788 Y16.3505
G01 X84.9780 Y16.3648
G01 X84.9750 Y16.3917
G01 X84.9716 Y16.4111
G01 X84.9626 Y16.4458
G01 X84.9537 Y16.4713
G01 X84.9482 Y16.4845
G01 X84.9365 Y16.5089
G01 X84.9296 Y16.5214
G01 X84.9152 Y16.5443
G01 X84.9069 Y16.5559
G01 X84.8901 Y16.5771
G01 X84.8806 Y16.5877
G01 X84.8614 Y16.6068
G01 X84.8508 Y16.6163
G01 X84.8504 Y16.6159
G01 X84.8296 Y16.6332
G01 X84.8152 Y16.6434
G01 X84.7826 Y16.6628
G01 X84.7582 Y16.6745
G01 X84.7451 Y16.6800
G01 X84.7195 Y16.6889
G01 X84.7058 Y16.6928
G01 X84.6794 Y16.6989
G01 X84.6654 Y16.7013
G01 X84.6385 Y16.7043
G01 X84.6107 Y16.7055
G01 X79.6353 Y16.7055
G01 X79.6075 Y16.7043
G01 X79.5806 Y16.7013
G01 X79.5612 Y16.6979
G01 X79.5265 Y16.6889
G01 X79.5009 Y16.6800
G01 X79.4865 Y16.6740
G01 X79.4509 Y16.6559
G01 X79.4280 Y16.6415
G01 X79.4164 Y16.6332
G01 X79.3952 Y16.6163
G01 X79.3747 Y16.5975
G01 X76.8745 Y14.0973
G01 X76.8557 Y14.0768
G01 X76.8561 Y14.0764
G01 X76.8388 Y14.0556
G01 X76.8286 Y14.0412
G01 X76.8092 Y14.0086
G01 X76.7975 Y13.9842
G01 X76.7920 Y13.9711
G01 X76.7831 Y13.9455
G01 X76.7792 Y13.9318
G01 X76.7731 Y13.9054
G01 X76.7707 Y13.8914
G01 X76.7677 Y13.8645
G01 X76.7665 Y13.8367
G01 X76.7665 Y12.9603
G01 X76.7677 Y12.9325
G01 X76.7707 Y12.9056
G01 X76.7731 Y12.8916
G01 X76.7792 Y12.8652
G01 X76.7831 Y12.8515
G01 X76.7920 Y12.8259
G01 X76.7980 Y12.8115
G01 X76.8161 Y12.7759
G01 X76.8305 Y12.7530
G01 X76.8388 Y12.7414
G01 X76.8557 Y12.7202
G01 X76.8652 Y12.7096
G01 X79.5477 Y10.0265
G01 X79.5682 Y10.0077
G01 X79.5686 Y10.0081
G01 X79.5894 Y9.9908
G01 X79.6038 Y9.9806
G01 X79.6364 Y9.9612
G01 X79.6608 Y9.9495
G01 X79.6739 Y9.9440
G01 X79.6995 Y9.9351
G01 X79.7132 Y9.9312
G01 X79.7396 Y9.9251
G01 X79.7536 Y9.9227
G01 X79.7805 Y9.9197
G01 X79.8083 Y9.9185
G01 X80.0876 Y9.9185
G01 X80.4656 Y9.7620
G01 X80.7550 Y9.4726
G01 X80.9115 Y9.0946
G01 X80.9115 Y8.6854
G01 X80.7550 Y8.3074
G01 X80.4656 Y8.0180
G01 X80.0876 Y7.8615
G01 X79.6784 Y7.8615
G01 X79.3004 Y8.0180
G01 X79.0110 Y8.3074
G01 X78.8545 Y8.6854
G01 X78.8545 Y8.9647
G01 X78.8533 Y8.9925
G01 X78.8503 Y9.0194
G01 X78.8479 Y9.0334
G01 X78.8418 Y9.0598
G01 X78.8379 Y9.0735
G01 X78.8290 Y9.0991
G01 X78.8230 Y9.1135
G01 X78.8049 Y9.1491
G01 X78.7905 Y9.1720
G01 X78.7822 Y9.1836
G01 X78.7653 Y9.2048
G01 X78.7465 Y9.2253
G01 X75.8645 Y12.1073
G01 X75.8467 Y12.1238
G01 X75.8284 Y12.1389
G01 X75.7916 Y12.1646
G01 X75.6663 Y12.3519
G01 X75.6224 Y12.5730
G01 X75.6302 Y12.6172
G01 X75.6326 Y12.6408
G01 X75.6335 Y12.6651
G01 X75.6335 Y14.1319
G01 X75.6326 Y14.1562
G01 X75.6302 Y14.1798
G01 X75.6224 Y14.2240
G01 X75.6663 Y14.4451
G01 X75.7916 Y14.6324
G01 X75.8284 Y14.6581
G01 X75.8467 Y14.6732
G01 X75.8645 Y14.6897
G01 X78.7823 Y17.6075
G01 X78.7988 Y17.6253
G01 X78.8139 Y17.6436
G01 X78.8396 Y17.6804
G01 X79.0408 Y17.8149
G01 X79.0629 Y17.8310
G01 X79.0833 Y17.8482
G01 X79.0988 Y17.8630
G01 X79.1119 Y17.8771
G01 X79.1209 Y17.8878
G01 X79.1371 Y17.9090
G01 X79.1462 Y17.9225
G01 X79.1652 Y17.9559
G01 X79.1763 Y17.9801
G01 X79.1814 Y17.9932
G01 X79.1898 Y18.0185
G01 X79.1934 Y18.0320
G01 X79.1989 Y18.0581
G01 X79.2011 Y18.0719
G01 X79.2037 Y18.0985
G01 X79.2045 Y18.1228
G01 X79.2030 Y18.1531
G01 X79.2025 Y18.1531
G01 X79.1998 Y18.1796
G01 X79.1964 Y18.1982
G01 X79.1871 Y18.2327
G01 X79.1782 Y18.2578
G01 X79.1723 Y18.2717
G01 X79.1542 Y18.3069
G01 X79.1399 Y18.3295
G01 X79.1318 Y18.3409
G01 X79.1151 Y18.3617
G01 X79.1058 Y18.3721
G01 X79.0110 Y18.4674
G01 X78.8545 Y18.8454
G01 X78.8545 Y19.2546
G01 X79.0110 Y19.6326
G01 X79.3004 Y19.9220
G01 X79.6784 Y20.0785
G01 X80.0876 Y20.0785
G01 X80.4656 Y19.9220
G01 X80.6631 Y19.7245
G01 X80.6836 Y19.7057
G01 X80.6840 Y19.7061
G01 X80.7047 Y19.6888
G01 X80.7191 Y19.6786
G01 X80.7518 Y19.6592
G01 X80.7761 Y19.6475
G01 X80.7893 Y19.6420
G01 X80.8149 Y19.6331
G01 X80.8286 Y19.6292
G01 X80.8549 Y19.6231
G01 X80.8690 Y19.6207
G01 X80.8959 Y19.6177
G01 X80.9101 Y19.6169
G01 X85.8060 Y19.6165
G01 X85.8338 Y19.6177
G01 X85.8607 Y19.6207
G01 X85.8801 Y19.6241
G01 X85.9148 Y19.6331
G01 X85.9403 Y19.6420
G01 X85.9548 Y19.6480
G01 X85.9904 Y19.6661
G01 X86.0133 Y19.6805
G01 X86.0249 Y19.6888
G01 X86.0461 Y19.7057
G01 X86.0567 Y19.7152
G01 X86.0758 Y19.7343
G01 X86.0853 Y19.7449
G01 X86.0849 Y19.7453
G01 X86.1022 Y19.7661
G01 X86.1124 Y19.7805
G01 X86.1318 Y19.8131
G01 X86.1435 Y19.8375
G01 X86.1490 Y19.8507
G01 X86.1579 Y19.8762
G01 X86.1618 Y19.8899
G01 X86.1679 Y19.9163
G01 X86.1703 Y19.9303
G01 X86.1733 Y19.9572
G01 X86.1741 Y19.9715
G01 X86.1745 Y22.6409
G01 X86.1736 Y22.6652
G01 X86.1712 Y22.6888
G01 X86.1634 Y22.7330
G01 X86.2073 Y22.9541
G01 X86.3326 Y23.1415
G01 X86.3694 Y23.1671
G01 X86.3877 Y23.1822
G01 X86.4055 Y23.1987
G01 X88.3545 Y25.1483
G01 X88.3642 Y25.1591
G01 X88.3637 Y25.1595
G01 X88.3813 Y25.1808
G01 X88.3917 Y25.1956
G01 X88.4043 Y25.2161
G01 X88.4113 Y25.2289
G01 X88.4231 Y25.2539
G01 X88.4285 Y25.2673
G01 X88.4374 Y25.2935
G01 X88.4413 Y25.3075
G01 X88.4471 Y25.3345
G01 X88.4494 Y25.3489
G01 X88.4521 Y25.3764
G01 X88.4529 Y25.4008
G01 X88.4512 Y25.4331
G01 X88.4506 Y25.4330
G01 X88.4476 Y25.4605
G01 X88.4438 Y25.4799
G01 X88.4338 Y25.5155
G01 X88.4241 Y25.5413
G01 X88.4176 Y25.5559
G01 X88.4055 Y25.5792
G01 X88.3982 Y25.5917
G01 X88.3828 Y25.6147
G01 X88.3741 Y25.6263
G01 X88.3562 Y25.6474
G01 X88.3420 Y25.6622
G01 X88.3148 Y25.6861
G01 X88.2926 Y25.7026
G01 X88.2786 Y25.7118
G01 X88.2435 Y25.7309
G01 X88.2182 Y25.7419
G01 X88.2045 Y25.7470
G01 X88.1781 Y25.7550
G01 X88.1639 Y25.7584
G01 X88.1368 Y25.7633
G01 X88.1223 Y25.7651
G01 X88.0947 Y25.7669
G01 X88.0782 Y25.7671
G01 X88.0381 Y25.7641
G01 X88.0382 Y25.7634
G01 X88.0109 Y25.7596
G01 X87.9967 Y25.7565
G01 X87.9701 Y25.7489
G01 X87.9564 Y25.7441
G01 X87.9566 Y25.7434
G01 X87.9434 Y25.7392
G01 X87.7076 Y25.6415
G01 X87.2984 Y25.6415
G01 X86.9204 Y25.7980
G01 X86.7229 Y25.9955
G01 X86.7024 Y26.0143
G01 X86.7020 Y26.0139
G01 X86.6813 Y26.0312
G01 X86.6669 Y26.0414
G01 X86.6467 Y26.0539
G01 X86.6342 Y26.0608
G01 X86.6099 Y26.0725
G01 X86.5967 Y26.0780
G01 X86.5711 Y26.0869
G01 X86.5574 Y26.0908
G01 X86.5311 Y26.0969
G01 X86.5170 Y26.0993
G01 X86.4901 Y26.1023
G01 X86.4623 Y26.1035
G01 X83.8263 Y26.1035
G01 X83.7985 Y26.1023
G01 X83.7716 Y26.0993
G01 X83.7576 Y26.0969
G01 X83.7312 Y26.0908
G01 X83.7175 Y26.0869
G01 X83.6919 Y26.0780
G01 X83.6775 Y26.0720
G01 X83.6419 Y26.0539
G01 X83.6190 Y26.0395
G01 X83.6074 Y26.0312
G01 X83.5862 Y26.0143
G01 X83.5756 Y26.0048
G01 X81.8727 Y24.3025
G01 X81.8562 Y24.2847
G01 X81.8411 Y24.2664
G01 X81.8154 Y24.2296
G01 X81.6281 Y24.1043
G01 X81.4070 Y24.0604
G01 X81.3628 Y24.0682
G01 X81.3392 Y24.0706
G01 X81.3149 Y24.0715
G01 X77.4351 Y24.0715
G01 X77.4108 Y24.0706
G01 X77.3872 Y24.0682
G01 X77.3430 Y24.0604
G01 X77.1219 Y24.1043
G01 X76.9346 Y24.2296
G01 X76.9089 Y24.2664
G01 X76.8938 Y24.2847
G01 X76.8773 Y24.3025
G01 X75.9893 Y25.1905
G01 X72.9435 Y28.2363
G01 X72.9257 Y28.2528
G01 X72.9074 Y28.2679
G01 X72.8706 Y28.2936
G01 X72.7453 Y28.4809
G01 X72.7014 Y28.7020
G01 X72.7092 Y28.7462
G01 X72.7116 Y28.7698
G01 X72.7125 Y28.7941
G01 X72.7125 Y30.6489
G01 X72.7113 Y30.6759
G01 X72.7085 Y30.7020
G01 X72.7053 Y30.7207
G01 X72.6968 Y30.7548
G01 X72.6832 Y30.7925
G01 X72.6721 Y30.8164
G01 X72.6519 Y30.8511
G01 X72.6440 Y30.8625
G01 X72.6190 Y30.8939
G01 X72.5907 Y30.9224
G01 X72.5594 Y30.9476
G01 X72.5101 Y30.9811
G01 X72.2944 Y31.3038
G01 X72.2782 Y31.3260
G01 X72.2609 Y31.3465
G01 X72.2462 Y31.3619
G01 X72.2211 Y31.3844
G01 X72.1997 Y31.4006
G01 X72.1861 Y31.4097
G01 X72.1525 Y31.4287
G01 X72.1281 Y31.4398
G01 X72.1149 Y31.4449
G01 X72.0895 Y31.4532
G01 X72.0758 Y31.4568
G01 X72.0496 Y31.4623
G01 X72.0356 Y31.4644
G01 X72.0089 Y31.4669
G01 X71.9858 Y31.4676
G01 X71.9540 Y31.4659
G01 X71.9540 Y31.4653
G01 X71.9274 Y31.4624
G01 X71.9088 Y31.4589
G01 X71.8875 Y31.4535
G01 X71.8740 Y31.4493
G01 X71.8488 Y31.4401
G01 X71.8349 Y31.4341
G01 X71.7996 Y31.4156
G01 X71.7771 Y31.4011
G01 X71.7657 Y31.3928
G01 X71.7450 Y31.3758
G01 X71.7345 Y31.3663
G01 X71.7158 Y31.3472
G01 X71.7065 Y31.3366
G01 X71.6900 Y31.3155
G01 X71.6803 Y31.3015
G01 X71.6717 Y31.2875
G01 X71.6828 Y31.3105
G01 X71.7171 Y31.3934
G01 X71.7261 Y31.4189
G01 X71.7509 Y31.5052
G01 X71.7569 Y31.5315
G01 X71.7720 Y31.6200
G01 X71.7750 Y31.6469
G01 X71.7804 Y31.7500
G01 X71.7750 Y31.8531
G01 X71.7720 Y31.8800
G01 X71.7560 Y31.9738
G01 X71.7509 Y31.9948
G01 X71.7261 Y32.0811
G01 X71.7171 Y32.1066
G01 X71.6823 Y32.1908
G01 X71.6715 Y32.2129
G01 X71.6900 Y32.1845
G01 X71.7065 Y32.1634
G01 X71.7158 Y32.1528
G01 X71.7345 Y32.1337
G01 X71.7450 Y32.1242
G01 X71.7657 Y32.1072
G01 X71.7800 Y32.0969
G01 X71.8119 Y32.0774
G01 X71.8359 Y32.0655
G01 X71.8488 Y32.0599
G01 X71.8740 Y32.0507
G01 X71.8875 Y32.0465
G01 X71.9135 Y32.0402
G01 X71.9274 Y32.0376
G01 X71.9540 Y32.0341
G01 X71.9858 Y32.0324
G01 X72.0089 Y32.0331
G01 X72.0356 Y32.0356
G01 X72.0496 Y32.0377
G01 X72.0758 Y32.0432
G01 X72.0895 Y32.0468
G01 X72.1149 Y32.0551
G01 X72.1295 Y32.0608
G01 X72.1650 Y32.0778
G01 X72.1880 Y32.0916
G01 X72.1997 Y32.0994
G01 X72.2211 Y32.1156
G01 X72.2462 Y32.1381
G01 X72.2609 Y32.1535
G01 X72.2782 Y32.1740
G01 X72.2944 Y32.1962
G01 X72.5101 Y32.5189
G01 X72.8629 Y32.7547
G01 X73.1740 Y32.8165
G01 X73.3840 Y32.8165
G01 X73.6951 Y32.7547
G01 X74.0479 Y32.5189
G01 X74.2837 Y32.1661
G01 X74.3664 Y31.7500
G01 X74.2837 Y31.3339
G01 X74.0479 Y30.9811
G01 X73.9985 Y30.9476
G01 X73.9673 Y30.9224
G01 X73.9390 Y30.8939
G01 X73.9140 Y30.8625
G01 X73.9049 Y30.8493
G01 X73.8925 Y30.8286
G01 X73.8748 Y30.7925
G01 X73.8612 Y30.7547
G01 X73.8575 Y30.7414
G01 X73.8495 Y30.7020
G01 X73.8466 Y30.6759
G01 X73.8455 Y30.6489
G01 X73.8459 Y29.0758
G01 X73.8467 Y29.0615
G01 X73.8497 Y29.0346
G01 X73.8521 Y29.0206
G01 X73.8582 Y28.9942
G01 X73.8621 Y28.9805
G01 X73.8710 Y28.9549
G01 X73.8770 Y28.9405
G01 X73.8951 Y28.9049
G01 X73.9095 Y28.8820
G01 X73.9178 Y28.8704
G01 X73.9347 Y28.8492
G01 X73.9535 Y28.8287
G01 X77.4697 Y25.3125
G01 X77.4902 Y25.2937
G01 X77.4906 Y25.2941
G01 X77.5114 Y25.2768
G01 X77.5258 Y25.2666
G01 X77.5584 Y25.2472
G01 X77.5828 Y25.2355
G01 X77.5959 Y25.2300
G01 X77.6215 Y25.2211
G01 X77.6352 Y25.2172
G01 X77.6616 Y25.2111
G01 X77.6756 Y25.2087
G01 X77.7025 Y25.2057
G01 X77.7303 Y25.2045
G01 X79.0043 Y25.2045
G01 X79.0321 Y25.2057
G01 X79.0590 Y25.2087
G01 X79.0784 Y25.2121
G01 X79.1131 Y25.2211
G01 X79.1387 Y25.2300
G01 X79.1531 Y25.2360
G01 X79.1887 Y25.2541
G01 X79.2116 Y25.2685
G01 X79.2233 Y25.2768
G01 X79.2444 Y25.2937
G01 X79.2550 Y25.3032
G01 X79.2742 Y25.3223
G01 X79.2837 Y25.3329
G01 X79.2833 Y25.3333
G01 X79.3006 Y25.3541
G01 X79.3088 Y25.3657
G01 X79.3232 Y25.3886
G01 X79.3301 Y25.4011
G01 X79.3418 Y25.4255
G01 X79.3473 Y25.4387
G01 X79.3562 Y25.4642
G01 X79.3602 Y25.4779
G01 X79.3662 Y25.5043
G01 X79.3686 Y25.5183
G01 X79.3716 Y25.5452
G01 X79.3728 Y25.5730
G01 X79.3716 Y25.6008
G01 X79.3686 Y25.6277
G01 X79.3662 Y25.6417
G01 X79.3602 Y25.6681
G01 X79.3562 Y25.6818
G01 X79.3473 Y25.7073
G01 X79.3413 Y25.7218
G01 X79.3232 Y25.7574
G01 X79.3088 Y25.7803
G01 X79.3006 Y25.7919
G01 X79.2837 Y25.8131
G01 X79.2649 Y25.8335
G01 X79.0110 Y26.0874
G01 X78.8545 Y26.4654
G01 X78.8545 Y26.8746
G01 X79.0110 Y27.2526
G01 X79.2085 Y27.4501
G01 X79.2273 Y27.4706
G01 X79.2269 Y27.4710
G01 X79.2442 Y27.4917
G01 X79.2544 Y27.5061
G01 X79.2669 Y27.5263
G01 X79.2738 Y27.5388
G01 X79.2855 Y27.5631
G01 X79.2910 Y27.5763
G01 X79.2999 Y27.6019
G01 X79.3038 Y27.6156
G01 X79.3099 Y27.6419
G01 X79.3123 Y27.6560
G01 X79.3153 Y27.6829
G01 X79.3165 Y27.7107
G01 X79.3161 Y29.5560
G01 X79.3152 Y29.5705
G01 X79.3121 Y29.5979
G01 X79.3086 Y29.6179
G01 X79.2992 Y29.6531
G01 X79.2899 Y29.6792
G01 X79.2836 Y29.6941
G01 X79.2720 Y29.7173
G01 X79.2648 Y29.7300
G01 X79.2499 Y29.7532
G01 X79.2413 Y29.7650
G01 X79.2238 Y29.7863
G01 X79.2139 Y29.7970
G01 X79.1940 Y29.8162
G01 X79.1830 Y29.8257
G01 X79.1611 Y29.8426
G01 X79.1467 Y29.8524
G01 X79.1254 Y29.8650
G01 X79.1125 Y29.8717
G01 X79.0873 Y29.8831
G01 X79.0737 Y29.8883
G01 X79.0474 Y29.8968
G01 X79.0199 Y29.9035
G01 X78.8520 Y29.9369
G01 X78.7638 Y29.9958
G01 X78.7049 Y30.0840
G01 X78.6770 Y30.2243
G01 X78.6770 Y31.7517
G01 X78.7049 Y31.8920
G01 X78.7648 Y31.9816
G01 X78.7920 Y32.0039
G01 X78.8075 Y32.0186
G01 X78.8297 Y32.0434
G01 X78.8458 Y32.0647
G01 X78.8549 Y32.0781
G01 X78.8739 Y32.1115
G01 X78.8850 Y32.1358
G01 X78.8901 Y32.1488
G01 X78.8985 Y32.1741
G01 X78.9021 Y32.1877
G01 X78.9076 Y32.2137
G01 X78.9098 Y32.2276
G01 X78.9124 Y32.2541
G01 X78.9132 Y32.2785
G01 X78.9117 Y32.3088
G01 X78.9112 Y32.3087
G01 X78.9085 Y32.3352
G01 X78.9051 Y32.3538
G01 X78.8958 Y32.3884
G01 X78.8869 Y32.4135
G01 X78.8810 Y32.4273
G01 X78.8697 Y32.4504
G01 X78.8629 Y32.4626
G01 X78.8486 Y32.4851
G01 X78.8405 Y32.4965
G01 X78.8238 Y32.5173
G01 X78.8053 Y32.5375
G01 X77.2193 Y34.1235
G01 X77.1988 Y34.1423
G01 X77.1984 Y34.1419
G01 X77.1776 Y34.1592
G01 X77.1632 Y34.1694
G01 X77.1306 Y34.1888
G01 X77.1062 Y34.2005
G01 X77.0931 Y34.2060
G01 X77.0675 Y34.2149
G01 X77.0538 Y34.2188
G01 X77.0274 Y34.2249
G01 X77.0134 Y34.2273
G01 X76.9865 Y34.2303
G01 X76.9587 Y34.2315
G01 X63.5424 Y34.2315
G01 X63.5133 Y34.2302
G01 X63.4851 Y34.2268
G01 X63.4644 Y34.2231
G01 X63.4284 Y34.2132
G01 X63.4017 Y34.2034
G01 X63.3862 Y34.1966
G01 X63.3627 Y34.1845
G01 X63.3498 Y34.1769
G01 X63.3261 Y34.1611
G01 X63.3142 Y34.1521
G01 X63.2926 Y34.1336
G01 X63.2784 Y34.1199
G01 X63.2530 Y34.0908
G01 X63.2363 Y34.0678
G01 X63.2270 Y34.0533
G01 X63.2144 Y34.0304
G01 X63.2078 Y34.0170
G01 X63.1938 Y33.9843
G01 X62.7897 Y33.5802
G01 X62.7459 Y33.5609
G01 X62.7117 Y33.5413
G01 X62.6797 Y33.5182
G01 X62.6602 Y33.5013
G01 X62.6473 Y33.4889
G01 X62.6240 Y33.4625
G01 X62.6086 Y33.4418
G01 X62.6002 Y33.4293
G01 X62.5878 Y33.4083
G01 X62.5708 Y33.3727
G01 X62.5576 Y33.3356
G01 X62.5485 Y33.2972
G01 X62.5464 Y33.2838
G01 X62.5436 Y33.2581
G01 X62.5425 Y33.2316
G01 X62.5425 Y31.7151
G01 X62.5434 Y31.6908
G01 X62.5458 Y31.6672
G01 X62.5536 Y31.6230
G01 X62.5097 Y31.4019
G01 X62.3844 Y31.2146
G01 X62.3476 Y31.1889
G01 X62.3293 Y31.1738
G01 X62.3115 Y31.1573
G01 X51.7711 Y20.6169
G01 X51.7545 Y20.5991
G01 X51.7395 Y20.5808
G01 X51.7138 Y20.5439
G01 X51.5264 Y20.4187
G01 X51.3054 Y20.3747
G01 X51.2612 Y20.3826
G01 X51.2376 Y20.3849
G01 X51.2133 Y20.3858
G01 X48.9589 Y20.3855
G01 X48.9447 Y20.3847
G01 X48.9178 Y20.3816
G01 X48.8984 Y20.3783
G01 X48.8773 Y20.3732
G01 X48.8636 Y20.3693
G01 X48.8381 Y20.3603
G01 X48.8236 Y20.3543
G01 X48.8005 Y20.3431
G01 X48.7881 Y20.3362
G01 X48.7651 Y20.3218
G01 X48.7535 Y20.3136
G01 X48.7324 Y20.2967
G01 X48.7217 Y20.2872
G01 X48.7026 Y20.2681
G01 X48.6931 Y20.2575
G01 X48.6935 Y20.2571
G01 X48.6762 Y20.2363
G01 X48.6660 Y20.2219
G01 X48.6467 Y20.1893
G01 X48.6349 Y20.1649
G01 X48.6295 Y20.1517
G01 X48.6205 Y20.1262
G01 X48.6166 Y20.1125
G01 X48.6106 Y20.0861
G01 X48.6056 Y20.0495
G01 X48.5570 Y19.8043
G01 X48.4439 Y19.6351
G01 X48.4070 Y19.6104
G01 X48.3852 Y19.5944
G01 X48.3549 Y19.5681
G01 X48.3277 Y19.5385
G01 X48.3116 Y19.5176
G01 X48.3026 Y19.5044
G01 X48.2902 Y19.4837
G01 X48.2725 Y19.4476
G01 X48.2673 Y19.4348
G01 X48.2552 Y19.3965
G01 X48.2495 Y19.3708
G01 X48.2443 Y19.3310
G01 X48.2432 Y19.3040
G01 X48.2443 Y19.2770
G01 X48.2472 Y19.2508
G01 X48.2503 Y19.2322
G01 X48.2589 Y19.1981
G01 X48.2673 Y19.1732
G01 X48.2729 Y19.1594
G01 X48.2902 Y19.1243
G01 X48.3038 Y19.1018
G01 X48.3277 Y19.0695
G01 X48.3549 Y19.0399
G01 X48.3650 Y19.0305
G01 X48.3962 Y19.0052
G01 X48.4439 Y18.9729
G01 X48.5570 Y18.8037
G01 X48.6040 Y18.5677
G01 X48.6040 Y17.9903
G01 X48.5776 Y17.8561
G01 X48.5734 Y17.8202
G01 X48.5725 Y17.7959
G01 X48.5725 Y16.0871
G01 X48.5737 Y16.0601
G01 X48.5765 Y16.0340
G01 X48.5797 Y16.0153
G01 X48.5882 Y15.9812
G01 X48.5967 Y15.9563
G01 X48.6022 Y15.9425
G01 X48.6195 Y15.9074
G01 X48.6410 Y15.8735
G01 X48.6660 Y15.8421
G01 X48.6943 Y15.8136
G01 X48.7256 Y15.7884
G01 X48.7749 Y15.7549
G01 X49.0107 Y15.4021
G01 X49.0934 Y14.9860
G01 X49.0107 Y14.5699
G01 X48.7749 Y14.2171
G01 X48.4522 Y14.0014
G01 X48.4300 Y13.9852
G01 X48.4095 Y13.9679
G01 X48.3941 Y13.9532
G01 X48.3716 Y13.9281
G01 X48.3554 Y13.9067
G01 X48.3463 Y13.8931
G01 X48.3338 Y13.8720
G01 X48.3273 Y13.8595
G01 X48.3162 Y13.8351
G01 X48.3111 Y13.8219
G01 X48.3028 Y13.7965
G01 X48.2992 Y13.7828
G01 X48.2937 Y13.7566
G01 X48.2916 Y13.7426
G01 X48.2891 Y13.7159
G01 X48.2886 Y13.7018
G01 X48.2891 Y13.6750
G01 X48.2901 Y13.6610
G01 X48.2907 Y13.6610
G01 X48.2936 Y13.6344
G01 X48.2971 Y13.6158
G01 X48.3067 Y13.5810
G01 X48.3159 Y13.5558
G01 X48.3215 Y13.5429
G01 X48.3334 Y13.5189
G01 X48.3404 Y13.5066
G01 X48.3549 Y13.4841
G01 X48.3632 Y13.4727
G01 X48.3802 Y13.4520
G01 X48.3897 Y13.4415
G01 X48.4088 Y13.4228
G01 X48.4194 Y13.4135
G01 X48.4405 Y13.3970
G01 X48.4545 Y13.3873
G01 X48.4685 Y13.3787
G01 X48.4455 Y13.3898
G01 X48.3626 Y13.4241
G01 X48.3371 Y13.4331
G01 X48.2508 Y13.4579
G01 X48.2245 Y13.4639
G01 X48.1360 Y13.4790
G01 X48.1091 Y13.4820
G01 X48.0060 Y13.4874
G01 X47.9029 Y13.4820
G01 X47.8760 Y13.4790
G01 X47.7822 Y13.4630
G01 X47.7612 Y13.4579
G01 X47.6749 Y13.4331
G01 X47.6494 Y13.4241
G01 X47.5652 Y13.3893
G01 X47.5431 Y13.3785
G01 X47.5715 Y13.3970
G01 X47.5926 Y13.4135
G01 X47.6032 Y13.4228
G01 X47.6223 Y13.4415
G01 X47.6318 Y13.4520
G01 X47.6488 Y13.4727
G01 X47.6591 Y13.4870
G01 X47.6786 Y13.5189
G01 X47.6905 Y13.5429
G01 X47.6961 Y13.5558
G01 X47.7053 Y13.5810
G01 X47.7095 Y13.5945
G01 X47.7158 Y13.6205
G01 X47.7184 Y13.6344
G01 X47.7219 Y13.6610
G01 X47.7236 Y13.6928
G01 X47.7229 Y13.7159
G01 X47.7204 Y13.7426
G01 X47.7183 Y13.7566
G01 X47.7128 Y13.7828
G01 X47.7092 Y13.7965
G01 X47.7009 Y13.8219
G01 X47.6952 Y13.8365
G01 X47.6782 Y13.8720
G01 X47.6644 Y13.8950
G01 X47.6566 Y13.9067
G01 X47.6404 Y13.9281
G01 X47.6179 Y13.9532
G01 X47.6025 Y13.9679
G01 X47.5820 Y13.9852
G01 X47.5598 Y14.0014
G01 X47.2371 Y14.2171
G01 X47.0013 Y14.5699
G01 X46.9186 Y14.9860
G01 X47.0013 Y15.4021
G01 X47.2371 Y15.7549
G01 X47.2864 Y15.7884
G01 X47.3177 Y15.8136
G01 X47.3460 Y15.8421
G01 X47.3710 Y15.8735
G01 X47.3801 Y15.8867
G01 X47.3925 Y15.9074
G01 X47.4102 Y15.9435
G01 X47.4238 Y15.9812
G01 X47.4332 Y16.0203
G01 X47.4383 Y16.0601
G01 X47.4395 Y16.0871
G01 X47.4391 Y17.0911
G01 X47.4382 Y17.1056
G01 X47.4351 Y17.1330
G01 X47.4316 Y17.1530
G01 X47.4222 Y17.1882
G01 X47.4129 Y17.2143
G01 X47.4066 Y17.2292
G01 X47.3950 Y17.2524
G01 X47.3878 Y17.2651
G01 X47.3729 Y17.2883
G01 X47.3643 Y17.3001
G01 X47.3468 Y17.3214
G01 X47.3369 Y17.3321
G01 X47.3170 Y17.3513
G01 X47.3060 Y17.3608
G01 X47.2841 Y17.3777
G01 X47.2697 Y17.3875
G01 X47.2484 Y17.4001
G01 X47.2355 Y17.4068
G01 X47.2103 Y17.4182
G01 X47.1967 Y17.4234
G01 X47.1704 Y17.4319
G01 X47.1429 Y17.4386
G01 X46.9753 Y17.4720
G01 X46.8061 Y17.5851
G01 X46.6930 Y17.7543
G01 X46.6460 Y17.9903
G01 X46.6460 Y18.5677
G01 X46.6930 Y18.8037
G01 X46.8061 Y18.9729
G01 X46.8538 Y19.0052
G01 X46.8850 Y19.0305
G01 X46.9133 Y19.0590
G01 X46.9223 Y19.0695
G01 X46.9384 Y19.0904
G01 X46.9474 Y19.1036
G01 X46.9664 Y19.1365
G01 X46.9775 Y19.1604
G01 X46.9911 Y19.1981
G01 X47.0005 Y19.2372
G01 X47.0028 Y19.2508
G01 X47.0057 Y19.2770
G01 X47.0068 Y19.3040
G01 X47.0057 Y19.3310
G01 X47.0028 Y19.3572
G01 X46.9997 Y19.3758
G01 X46.9911 Y19.4099
G01 X46.9827 Y19.4348
G01 X46.9771 Y19.4486
G01 X46.9598 Y19.4837
G01 X46.9462 Y19.5062
G01 X46.9223 Y19.5385
G01 X46.8951 Y19.5681
G01 X46.8850 Y19.5775
G01 X46.8538 Y19.6028
G01 X46.8061 Y19.6351
G01 X46.6930 Y19.8043
G01 X46.6460 Y20.0403
G01 X46.6460 Y20.6177
G01 X46.7012 Y20.8950
G01 X46.7054 Y20.9217
G01 X46.7077 Y20.9479
G01 X46.7082 Y20.9697
G01 X46.7075 Y20.9881
G01 X46.7030 Y21.0280
G01 X46.6996 Y21.0460
G01 X46.6942 Y21.0672
G01 X46.6812 Y21.1052
G01 X46.6755 Y21.1186
G01 X46.6641 Y21.1415
G01 X46.6432 Y21.1758
G01 X46.6186 Y21.2076
G01 X46.6003 Y21.2275
G01 X44.4993 Y23.3285
G01 X44.4788 Y23.3473
G01 X44.4784 Y23.3469
G01 X44.4576 Y23.3642
G01 X44.4432 Y23.3744
G01 X44.4106 Y23.3938
G01 X44.3862 Y23.4055
G01 X44.3731 Y23.4110
G01 X44.3475 Y23.4199
G01 X44.3338 Y23.4238
G01 X44.3074 Y23.4299
G01 X44.2934 Y23.4323
G01 X44.2665 Y23.4353
G01 X44.2387 Y23.4365
G01 X40.9861 Y23.4365
G01 X40.9618 Y23.4356
G01 X40.9382 Y23.4332
G01 X40.8940 Y23.4254
G01 X40.8498 Y23.4332
G01 X40.8262 Y23.4356
G01 X40.8019 Y23.4365
G01 X36.7003 Y23.4365
G01 X36.6725 Y23.4353
G01 X36.6456 Y23.4323
G01 X36.6262 Y23.4289
G01 X36.5915 Y23.4199
G01 X36.5659 Y23.4110
G01 X36.5528 Y23.4055
G01 X36.5284 Y23.3938
G01 X36.5159 Y23.3869
G01 X36.4930 Y23.3725
G01 X36.4814 Y23.3642
G01 X36.4602 Y23.3473
G01 X36.4397 Y23.3285
G01 X32.9639 Y19.8527
G01 X32.9451 Y19.8322
G01 X32.9455 Y19.8318
G01 X32.9282 Y19.8111
G01 X32.9180 Y19.7967
G01 X32.8987 Y19.7641
G01 X32.8869 Y19.7397
G01 X32.8815 Y19.7265
G01 X32.8725 Y19.7009
G01 X32.8686 Y19.6873
G01 X32.8626 Y19.6609
G01 X32.8602 Y19.6468
G01 X32.8572 Y19.6199
G01 X32.8560 Y19.5922
G01 X32.8560 Y19.2783
G01 X32.8090 Y19.0423
G01 X32.6959 Y18.8731
G01 X32.6482 Y18.8408
G01 X32.6170 Y18.8155
G01 X32.5887 Y18.7870
G01 X32.5797 Y18.7765
G01 X32.5636 Y18.7556
G01 X32.5546 Y18.7424
G01 X32.5356 Y18.7095
G01 X32.5245 Y18.6856
G01 X32.5109 Y18.6479
G01 X32.5015 Y18.6088
G01 X32.4992 Y18.5952
G01 X32.4956 Y18.5552
G01 X32.4956 Y18.5288
G01 X32.4992 Y18.4888
G01 X32.5023 Y18.4702
G01 X32.5109 Y18.4361
G01 X32.5193 Y18.4112
G01 X32.5249 Y18.3974
G01 X32.5422 Y18.3623
G01 X32.5558 Y18.3398
G01 X32.5797 Y18.3075
G01 X32.6069 Y18.2779
G01 X32.6170 Y18.2685
G01 X32.6482 Y18.2432
G01 X32.6959 Y18.2109
G01 X32.8090 Y18.0417
G01 X32.8560 Y17.8057
G01 X32.8560 Y17.2283
G01 X32.8090 Y16.9923
G01 X32.6959 Y16.8231
G01 X32.5267 Y16.7100
G01 X32.4906 Y16.7024
G01 X32.4766 Y16.6987
G01 X32.4502 Y16.6903
G01 X32.4347 Y16.6843
G01 X32.3986 Y16.6669
G01 X32.3749 Y16.6527
G01 X32.3629 Y16.6445
G01 X32.3410 Y16.6277
G01 X32.3300 Y16.6182
G01 X32.3101 Y16.5990
G01 X32.3002 Y16.5883
G01 X32.2827 Y16.5669
G01 X32.2717 Y16.5518
G01 X32.2520 Y16.5193
G01 X32.2398 Y16.4945
G01 X32.2341 Y16.4811
G01 X32.2248 Y16.4551
G01 X32.2207 Y16.4411
G01 X32.2144 Y16.4142
G01 X32.2119 Y16.3999
G01 X32.2088 Y16.3724
G01 X32.2079 Y16.3579
G01 X32.2075 Y16.3441
G01 X32.2075 Y16.1631
G01 X32.2086 Y16.1361
G01 X32.2115 Y16.1100
G01 X32.2147 Y16.0913
G01 X32.2232 Y16.0572
G01 X32.2368 Y16.0195
G01 X32.2479 Y15.9956
G01 X32.2681 Y15.9609
G01 X32.2760 Y15.9495
G01 X32.2920 Y15.9286
G01 X32.3192 Y15.8991
G01 X32.3495 Y15.8727
G01 X32.3713 Y15.8567
G01 X32.4099 Y15.8309
G01 X32.6457 Y15.4781
G01 X32.7284 Y15.0620
G01 X32.6457 Y14.6459
G01 X32.4099 Y14.2931
G01 X32.0872 Y14.0774
G01 X32.0650 Y14.0612
G01 X32.0445 Y14.0439
G01 X32.0291 Y14.0292
G01 X32.0066 Y14.0041
G01 X31.9904 Y13.9827
G01 X31.9813 Y13.9691
G01 X31.9623 Y13.9355
G01 X31.9512 Y13.9111
G01 X31.9461 Y13.8979
G01 X31.9378 Y13.8724
G01 X31.9342 Y13.8588
G01 X31.9287 Y13.8326
G01 X31.9266 Y13.8186
G01 X31.9241 Y13.7919
G01 X31.9234 Y13.7688
G01 X31.9251 Y13.7370
G01 X31.9257 Y13.7370
G01 X31.9286 Y13.7104
G01 X31.9321 Y13.6918
G01 X31.9375 Y13.6705
G01 X31.9417 Y13.6570
G01 X31.9509 Y13.6318
G01 X31.9569 Y13.6179
G01 X31.9754 Y13.5826
G01 X31.9899 Y13.5601
G01 X31.9982 Y13.5487
G01 X32.0152 Y13.5279
G01 X32.0247 Y13.5175
G01 X32.0438 Y13.4988
G01 X32.0544 Y13.4895
G01 X32.0755 Y13.4730
G01 X32.0895 Y13.4633
G01 X32.1035 Y13.4547
G01 X32.0805 Y13.4658
G01 X31.9976 Y13.5001
G01 X31.9721 Y13.5091
G01 X31.8858 Y13.5339
G01 X31.8595 Y13.5399
G01 X31.7710 Y13.5550
G01 X31.7441 Y13.5580
G01 X31.6410 Y13.5634
G01 X31.5379 Y13.5580
G01 X31.5110 Y13.5550
G01 X31.4172 Y13.5390
G01 X31.3962 Y13.5339
G01 X31.3099 Y13.5091
G01 X31.2844 Y13.5001
G01 X31.2002 Y13.4653
G01 X31.1781 Y13.4545
G01 X31.2065 Y13.4730
G01 X31.2276 Y13.4895
G01 X31.2382 Y13.4988
G01 X31.2573 Y13.5175
G01 X31.2668 Y13.5279
G01 X31.2838 Y13.5487
G01 X31.2941 Y13.5630
G01 X31.3136 Y13.5949
G01 X31.3255 Y13.6189
G01 X31.3311 Y13.6318
G01 X31.3403 Y13.6570
G01 X31.3445 Y13.6705
G01 X31.3508 Y13.6965
G01 X31.3534 Y13.7104
G01 X31.3569 Y13.7370
G01 X31.3579 Y13.7510
G01 X31.3586 Y13.7688
G01 X31.3578 Y13.7919
G01 X31.3554 Y13.8186
G01 X31.3530 Y13.8341
G01 X31.3442 Y13.8724
G01 X31.3359 Y13.8979
G01 X31.3302 Y13.9125
G01 X31.3132 Y13.9480
G01 X31.2994 Y13.9710
G01 X31.2916 Y13.9827
G01 X31.2754 Y14.0041
G01 X31.2529 Y14.0292
G01 X31.2375 Y14.0439
G01 X31.2170 Y14.0612
G01 X31.1948 Y14.0774
G01 X30.8721 Y14.2931
G01 X30.8535 Y14.3209
G01 X30.8362 Y14.3444
G01 X30.8178 Y14.3660
G01 X30.8041 Y14.3801
G01 X30.7750 Y14.4055
G01 X30.7520 Y14.4223
G01 X30.7374 Y14.4316
G01 X30.7146 Y14.4442
G01 X30.7011 Y14.4507
G01 X30.6749 Y14.4616
G01 X30.6607 Y14.4665
G01 X30.6334 Y14.4742
G01 X30.6188 Y14.4774
G01 X30.5907 Y14.4819
G01 X30.5758 Y14.4833
G01 X30.5521 Y14.4845
G01 X30.5324 Y14.4842
G01 X30.5172 Y14.4829
G01 X30.2886 Y14.5283
G01 X30.1012 Y14.6535
G01 X30.0755 Y14.6904
G01 X30.0605 Y14.7087
G01 X30.0439 Y14.7265
G01 X9.8245 Y34.9459
G01 X9.8067 Y34.9625
G01 X9.7884 Y34.9775
G01 X9.7516 Y35.0032
G01 X9.6263 Y35.1906
G01 X9.5824 Y35.4116
G01 X9.5902 Y35.4558
G01 X9.5926 Y35.4794
G01 X9.5935 Y35.5037
G01 X9.5935 Y69.4849
G01 X9.5926 Y69.5092
G01 X9.5902 Y69.5328
G01 X9.5824 Y69.5770
G01 X9.6263 Y69.7981
G01 X9.7516 Y69.9854
G01 X9.7884 Y70.0111
G01 X9.8067 Y70.0262
G01 X9.8245 Y70.0427
G01 X11.0913 Y71.3095
G01 X11.1078 Y71.3273
G01 X11.1229 Y71.3456
G01 X11.1486 Y71.3824
G01 X11.3359 Y71.5077
G01 X11.5570 Y71.5516
G01 X11.6012 Y71.5438
G01 X11.6248 Y71.5414
G01 X11.6491 Y71.5405
G01 X16.3669 Y71.5405
G01 X16.3939 Y71.5417
G01 X16.4200 Y71.5445
G01 X16.4387 Y71.5477
G01 X16.4594 Y71.5525
G01 X16.4977 Y71.5647
G01 X16.5105 Y71.5698
G01 X16.5466 Y71.5875
G01 X16.5805 Y71.6090
G01 X16.6119 Y71.6340
G01 X16.6404 Y71.6623
G01 X16.6656 Y71.6936
G01 X16.6991 Y71.7429
G01 X16.9905 Y71.9376
G01 X17.0135 Y71.9545
G01 X17.0348 Y71.9726
G01 X17.0494 Y71.9866
G01 X17.0738 Y72.0144
G01 X17.0903 Y72.0368
G01 X17.0995 Y72.0510
G01 X17.1187 Y72.0864
G01 X17.1296 Y72.1120
G01 X17.1346 Y72.1258
G01 X17.1425 Y72.1525
G01 X17.1459 Y72.1668
G01 X17.1507 Y72.1943
G01 X17.1524 Y72.2088
G01 X17.1540 Y72.2367
G01 X17.1540 Y72.2513
G01 X17.1524 Y72.2792
G01 X17.1507 Y72.2937
G01 X17.1459 Y72.3212
G01 X17.1425 Y72.3355
G01 X17.1346 Y72.3622
G01 X17.1287 Y72.3784
G01 X17.1121 Y72.4147
G01 X17.0983 Y72.4389
G01 X17.0903 Y72.4512
G01 X17.0738 Y72.4736
G01 X17.0494 Y72.5014
G01 X17.0348 Y72.5154
G01 X17.0135 Y72.5335
G01 X16.9905 Y72.5504
G01 X16.6991 Y72.7451
G01 X16.6656 Y72.7944
G01 X16.6404 Y72.8257
G01 X16.6119 Y72.8540
G01 X16.5805 Y72.8790
G01 X16.5673 Y72.8881
G01 X16.5466 Y72.9005
G01 X16.5105 Y72.9182
G01 X16.4728 Y72.9318
G01 X16.4594 Y72.9355
G01 X16.4200 Y72.9435
G01 X16.3939 Y72.9463
G01 X16.3669 Y72.9475
G01 X12.4301 Y72.9475
G01 X12.4058 Y72.9466
G01 X12.3822 Y72.9442
G01 X12.3380 Y72.9364
G01 X12.1169 Y72.9803
G01 X11.9296 Y73.1056
G01 X11.9039 Y73.1424
G01 X11.8888 Y73.1607
G01 X11.8723 Y73.1785
G01 X9.0625 Y75.9883
G01 X9.0447 Y76.0048
G01 X9.0264 Y76.0199
G01 X8.9896 Y76.0456
G01 X8.8643 Y76.2329
G01 X8.8204 Y76.4540
G01 X8.8282 Y76.4982
G01 X8.8306 Y76.5218
G01 X8.8315 Y76.5461
G01 X8.8315 Y91.4337
G01 X8.8303 Y91.4615
G01 X8.8273 Y91.4884
G01 X8.8239 Y91.5078
G01 X8.8149 Y91.5425
G01 X8.8060 Y91.5681
G01 X8.8000 Y91.5825
G01 X8.7888 Y91.6056
G01 X8.7819 Y91.6181
G01 X8.7675 Y91.6410
G01 X8.7592 Y91.6526
G01 X8.7423 Y91.6738
G01 X8.7328 Y91.6844
G01 X8.3823 Y92.0355
G01 X8.3618 Y92.0543
G01 X8.3614 Y92.0539
G01 X8.3406 Y92.0712
G01 X8.3262 Y92.0814
G01 X8.3061 Y92.0939
G01 X8.2936 Y92.1008
G01 X8.2692 Y92.1125
G01 X8.2561 Y92.1180
G01 X8.2305 Y92.1269
G01 X8.2168 Y92.1308
G01 X8.1904 Y92.1369
G01 X8.1764 Y92.1393
G01 X8.1495 Y92.1423
G01 X8.1217 Y92.1435
G01 X6.4956 Y92.1435
G01 X6.4665 Y92.1422
G01 X6.4382 Y92.1388
G01 X6.4176 Y92.1351
G01 X6.3816 Y92.1252
G01 X6.3549 Y92.1154
G01 X6.3412 Y92.1094
G01 X6.3159 Y92.0965
G01 X6.3030 Y92.0889
G01 X6.2793 Y92.0731
G01 X6.2674 Y92.0641
G01 X6.2458 Y92.0456
G01 X6.2316 Y92.0319
G01 X6.2062 Y92.0028
G01 X6.1895 Y91.9798
G01 X6.1802 Y91.9653
G01 X6.1676 Y91.9424
G01 X6.1552 Y91.9160
G01 X6.0696 Y91.7093
G01 X5.5727 Y91.2124
G01 X4.9234 Y90.9435
G01 X4.2206 Y90.9435
G01 X3.5713 Y91.2124
G01 X3.0744 Y91.7093
G01 X2.8055 Y92.3586
G01 X2.8055 Y93.0614
G01 X3.0744 Y93.7107
G01 X3.5713 Y94.2076
G01 X4.2206 Y94.4765
G01 X4.9234 Y94.4765
G01 X5.5727 Y94.2076
G01 X6.0696 Y93.7107
G01 X6.1610 Y93.4910
G01 X6.1676 Y93.4776
G01 X6.1814 Y93.4528
G01 X6.1895 Y93.4402
G01 X6.2062 Y93.4172
G01 X6.2157 Y93.4056
G01 X6.2316 Y93.3881
G01 X6.2458 Y93.3744
G01 X6.2674 Y93.3559
G01 X6.2835 Y93.3438
G01 X6.3159 Y93.3235
G01 X6.3412 Y93.3106
G01 X6.3549 Y93.3046
G01 X6.3816 Y93.2948
G01 X6.3959 Y93.2904
G01 X6.4235 Y93.2838
G01 X6.4382 Y93.2812
G01 X6.4665 Y93.2778
G01 X6.4956 Y93.2765
G01 X8.4169 Y93.2765
G01 X8.4412 Y93.2774
G01 X8.4648 Y93.2798
G01 X8.5090 Y93.2876
G01 X8.7301 Y93.2437
G01 X8.9174 Y93.1185
G01 X8.9431 Y93.0816
G01 X8.9582 Y93.0633
G01 X8.9747 Y93.0455
G01 X9.7335 Y92.2867
G01 X9.7513 Y92.2702
G01 X9.7696 Y92.2551
G01 X9.8064 Y92.2294
G01 X9.9317 Y92.0421
G01 X9.9756 Y91.8210
G01 X9.9678 Y91.7768
G01 X9.9654 Y91.7532
G01 X9.9645 Y91.7289
G01 X9.9645 Y76.8413
G01 X9.9657 Y76.8135
G01 X9.9687 Y76.7866
G01 X9.9721 Y76.7672
G01 X9.9811 Y76.7325
G01 X9.9900 Y76.7069
G01 X9.9960 Y76.6925
G01 X10.0141 Y76.6569
G01 X10.0285 Y76.6340
G01 X10.0368 Y76.6224
G01 X10.0537 Y76.6012
G01 X10.0725 Y76.5807
G01 X10.8005 Y75.8527
G01 X10.8209 Y75.8339
G01 X10.8213 Y75.8344
G01 X10.8421 Y75.8171
G01 X10.8565 Y75.8069
G01 X10.8891 Y75.7875
G01 X10.9135 Y75.7758
G01 X10.9267 Y75.7703
G01 X10.9522 Y75.7614
G01 X10.9659 Y75.7574
G01 X10.9923 Y75.7514
G01 X11.0063 Y75.7490
G01 X11.0332 Y75.7460
G01 X11.0610 Y75.7448
G01 X11.0888 Y75.7460
G01 X11.1157 Y75.7490
G01 X11.1351 Y75.7524
G01 X11.1561 Y75.7574
G01 X11.1698 Y75.7614
G01 X11.1953 Y75.7703
G01 X11.2098 Y75.7763
G01 X11.2329 Y75.7875
G01 X11.2454 Y75.7944
G01 X11.2683 Y75.8088
G01 X11.2799 Y75.8171
G01 X11.3011 Y75.8339
G01 X11.3117 Y75.8434
G01 X11.3308 Y75.8626
G01 X11.3403 Y75.8732
G01 X11.3399 Y75.8736
G01 X11.3572 Y75.8944
G01 X11.3674 Y75.9088
G01 X11.3868 Y75.9414
G01 X11.3985 Y75.9658
G01 X11.4040 Y75.9789
G01 X11.4129 Y76.0045
G01 X11.4168 Y76.0182
G01 X11.4229 Y76.0446
G01 X11.4253 Y76.0586
G01 X11.4283 Y76.0855
G01 X11.4295 Y76.1133
G01 X11.4295 Y76.1482
G01 X11.5842 Y76.5218
G01 X11.8702 Y76.8078
G01 X12.2438 Y76.9625
G01 X12.6482 Y76.9625
G01 X13.0218 Y76.8078
G01 X13.1011 Y76.7285
G01 X13.1216 Y76.7097
G01 X13.1220 Y76.7101
G01 X13.1428 Y76.6928
G01 X13.1544 Y76.6845
G01 X13.1773 Y76.6701
G01 X13.1898 Y76.6632
G01 X13.2142 Y76.6515
G01 X13.2273 Y76.6460
G01 X13.2529 Y76.6371
G01 X13.2666 Y76.6332
G01 X13.2930 Y76.6271
G01 X13.3070 Y76.6247
G01 X13.3339 Y76.6217
G01 X13.3617 Y76.6205
G01 X16.3669 Y76.6205
G01 X16.3939 Y76.6217
G01 X16.4200 Y76.6245
G01 X16.4387 Y76.6277
G01 X16.4728 Y76.6362
G01 X16.5105 Y76.6498
G01 X16.5344 Y76.6609
G01 X16.5691 Y76.6811
G01 X16.5805 Y76.6890
G01 X16.6119 Y76.7140
G01 X16.6404 Y76.7423
G01 X16.6656 Y76.7736
G01 X16.6991 Y76.8229
G01 X16.9905 Y77.0176
G01 X17.0135 Y77.0345
G01 X17.0348 Y77.0526
G01 X17.0494 Y77.0666
G01 X17.0738 Y77.0944
G01 X17.0903 Y77.1168
G01 X17.0995 Y77.1310
G01 X17.1187 Y77.1664
G01 X17.1296 Y77.1920
G01 X17.1346 Y77.2058
G01 X17.1425 Y77.2325
G01 X17.1459 Y77.2468
G01 X17.1507 Y77.2743
G01 X17.1524 Y77.2888
G01 X17.1540 Y77.3167
G01 X17.1540 Y77.3313
G01 X17.1524 Y77.3592
G01 X17.1498 Y77.3806
G01 X17.1425 Y77.4155
G01 X17.1346 Y77.4422
G01 X17.1287 Y77.4584
G01 X17.1187 Y77.4816
G01 X17.1121 Y77.4947
G01 X17.0983 Y77.5189
G01 X17.0903 Y77.5312
G01 X17.0738 Y77.5536
G01 X17.0644 Y77.5649
G01 X17.0454 Y77.5853
G01 X17.0348 Y77.5954
G01 X17.0135 Y77.6135
G01 X17.0018 Y77.6223
G01 X16.6991 Y77.8251
G01 X16.4633 Y78.1779
G01 X16.3806 Y78.5940
G01 X16.4633 Y79.0101
G01 X16.6991 Y79.3629
G01 X17.0218 Y79.5786
G01 X17.0440 Y79.5948
G01 X17.0645 Y79.6121
G01 X17.0799 Y79.6268
G01 X17.1024 Y79.6519
G01 X17.1186 Y79.6733
G01 X17.1277 Y79.6869
G01 X17.1402 Y79.7080
G01 X17.1467 Y79.7205
G01 X17.1578 Y79.7449
G01 X17.1629 Y79.7581
G01 X17.1712 Y79.7835
G01 X17.1748 Y79.7972
G01 X17.1803 Y79.8234
G01 X17.1824 Y79.8374
G01 X17.1849 Y79.8641
G01 X17.1854 Y79.8782
G01 X17.1849 Y79.9050
G01 X17.1839 Y79.9190
G01 X17.1833 Y79.9190
G01 X17.1804 Y79.9456
G01 X17.1769 Y79.9642
G01 X17.1673 Y79.9990
G01 X17.1581 Y80.0242
G01 X17.1525 Y80.0371
G01 X17.1406 Y80.0611
G01 X17.1336 Y80.0734
G01 X17.1191 Y80.0959
G01 X17.1108 Y80.1073
G01 X17.0938 Y80.1280
G01 X17.0843 Y80.1385
G01 X17.0652 Y80.1572
G01 X17.0546 Y80.1665
G01 X17.0335 Y80.1830
G01 X17.0195 Y80.1927
G01 X17.0055 Y80.2013
G01 X17.0285 Y80.1902
G01 X17.1114 Y80.1559
G01 X17.1369 Y80.1469
G01 X17.2232 Y80.1221
G01 X17.2495 Y80.1161
G01 X17.3380 Y80.1010
G01 X17.3649 Y80.0980
G01 X17.4680 Y80.0926
G01 X17.5711 Y80.0980
G01 X17.5980 Y80.1010
G01 X17.6918 Y80.1170
G01 X17.7128 Y80.1221
G01 X17.7991 Y80.1469
G01 X17.8246 Y80.1559
G01 X17.9088 Y80.1907
G01 X17.9309 Y80.2015
G01 X17.9025 Y80.1830
G01 X17.8814 Y80.1665
G01 X17.8708 Y80.1572
G01 X17.8517 Y80.1385
G01 X17.8422 Y80.1280
G01 X17.8252 Y80.1073
G01 X17.8149 Y80.0930
G01 X17.7954 Y80.0611
G01 X17.7835 Y80.0371
G01 X17.7779 Y80.0242
G01 X17.7687 Y79.9990
G01 X17.7645 Y79.9855
G01 X17.7582 Y79.9595
G01 X17.7556 Y79.9456
G01 X17.7521 Y79.9190
G01 X17.7504 Y79.8872
G01 X17.7511 Y79.8641
G01 X17.7536 Y79.8374
G01 X17.7557 Y79.8234
G01 X17.7612 Y79.7972
G01 X17.7648 Y79.7835
G01 X17.7731 Y79.7581
G01 X17.7788 Y79.7435
G01 X17.7958 Y79.7080
G01 X17.8096 Y79.6850
G01 X17.8174 Y79.6733
G01 X17.8336 Y79.6519
G01 X17.8561 Y79.6268
G01 X17.8715 Y79.6121
G01 X17.8920 Y79.5948
G01 X17.9142 Y79.5786
G01 X18.2369 Y79.3629
G01 X18.4727 Y79.0101
G01 X18.5554 Y78.5940
G01 X18.4727 Y78.1779
G01 X18.2369 Y77.8251
G01 X17.9455 Y77.6304
G01 X17.9225 Y77.6135
G01 X17.9012 Y77.5954
G01 X17.8866 Y77.5814
G01 X17.8622 Y77.5536
G01 X17.8457 Y77.5312
G01 X17.8365 Y77.5170
G01 X17.8239 Y77.4947
G01 X17.8173 Y77.4816
G01 X17.8064 Y77.4560
G01 X17.8014 Y77.4422
G01 X17.7935 Y77.4155
G01 X17.7901 Y77.4012
G01 X17.7853 Y77.3737
G01 X17.7836 Y77.3592
G01 X17.7820 Y77.3313
G01 X17.7820 Y77.3167
G01 X17.7836 Y77.2888
G01 X17.7862 Y77.2674
G01 X17.7935 Y77.2325
G01 X17.8014 Y77.2058
G01 X17.8073 Y77.1896
G01 X17.8239 Y77.1533
G01 X17.8377 Y77.1291
G01 X17.8457 Y77.1168
G01 X17.8622 Y77.0944
G01 X17.8866 Y77.0666
G01 X17.9012 Y77.0526
G01 X17.9225 Y77.0345
G01 X17.9455 Y77.0176
G01 X18.2369 Y76.8229
G01 X18.3349 Y76.6763
G01 X18.3508 Y76.6545
G01 X18.3772 Y76.6242
G01 X18.4067 Y76.5970
G01 X18.4276 Y76.5810
G01 X18.4409 Y76.5719
G01 X18.4738 Y76.5529
G01 X18.4976 Y76.5418
G01 X18.5354 Y76.5282
G01 X18.5488 Y76.5245
G01 X18.5881 Y76.5165
G01 X18.6143 Y76.5137
G01 X18.6413 Y76.5125
G01 X20.2675 Y76.5125
G01 X20.2945 Y76.5137
G01 X20.3206 Y76.5165
G01 X20.3393 Y76.5197
G01 X20.3733 Y76.5282
G01 X20.3982 Y76.5367
G01 X20.4120 Y76.5422
G01 X20.4350 Y76.5529
G01 X20.4697 Y76.5731
G01 X20.5020 Y76.5970
G01 X20.5315 Y76.6242
G01 X20.5410 Y76.6343
G01 X20.5579 Y76.6545
G01 X20.5738 Y76.6763
G01 X20.6389 Y76.7737
G01 X20.6670 Y76.8020
G01 X20.6920 Y76.8334
G01 X20.7011 Y76.8467
G01 X20.7201 Y76.8795
G01 X20.7363 Y76.9162
G01 X20.7485 Y76.9545
G01 X20.7565 Y76.9939
G01 X20.7593 Y77.0200
G01 X20.7605 Y77.0470
G01 X20.7605 Y77.6390
G01 X20.7593 Y77.6660
G01 X20.7565 Y77.6921
G01 X20.7533 Y77.7108
G01 X20.7448 Y77.7448
G01 X20.7363 Y77.7698
G01 X20.7308 Y77.7836
G01 X20.7135 Y77.8187
G01 X20.6999 Y77.8412
G01 X20.6760 Y77.8735
G01 X20.6670 Y77.8840
G01 X20.6389 Y77.9123
G01 X20.5200 Y78.0903
G01 X20.4730 Y78.3263
G01 X20.4730 Y79.1537
G01 X20.5200 Y79.3897
G01 X20.6389 Y79.5677
G01 X20.6670 Y79.5960
G01 X20.6760 Y79.6065
G01 X20.6920 Y79.6274
G01 X20.7011 Y79.6407
G01 X20.7135 Y79.6613
G01 X20.7312 Y79.6974
G01 X20.7448 Y79.7352
G01 X20.7542 Y79.7742
G01 X20.7565 Y79.7879
G01 X20.7601 Y79.8279
G01 X20.7605 Y86.7669
G01 X20.7596 Y86.7912
G01 X20.7572 Y86.8148
G01 X20.7494 Y86.8590
G01 X20.7933 Y87.0801
G01 X20.9186 Y87.2674
G01 X20.9554 Y87.2931
G01 X20.9737 Y87.3082
G01 X20.9915 Y87.3247
G01 X28.4993 Y94.8325
G01 X28.5158 Y94.8503
G01 X28.5309 Y94.8686
G01 X28.5566 Y94.9054
G01 X28.7439 Y95.0307
G01 X28.9650 Y95.0746
G01 X29.0092 Y95.0668
G01 X29.0328 Y95.0644
G01 X29.0571 Y95.0635
G01 X46.3970 Y95.0635
G01 X46.4240 Y95.0647
G01 X46.4501 Y95.0675
G01 X46.4688 Y95.0707
G01 X46.4895 Y95.0755
G01 X46.5278 Y95.0877
G01 X46.5416 Y95.0932
G01 X46.5645 Y95.1039
G01 X46.5992 Y95.1241
G01 X46.6106 Y95.1320
G01 X46.6420 Y95.1570
G01 X46.6703 Y95.1851
G01 X46.8483 Y95.3040
G01 X47.0843 Y95.3510
G01 X47.9117 Y95.3510
G01 X48.1477 Y95.3040
G01 X48.3257 Y95.1851
G01 X48.3540 Y95.1570
G01 X48.3645 Y95.1480
G01 X48.3854 Y95.1320
G01 X48.3987 Y95.1229
G01 X48.4315 Y95.1039
G01 X48.4554 Y95.0928
G01 X48.4932 Y95.0792
G01 X48.5322 Y95.0698
G01 X48.5459 Y95.0675
G01 X48.5720 Y95.0647
G01 X48.5990 Y95.0635
G01 X48.6669 Y95.0635
G01 X48.6912 Y95.0644
G01 X48.7271 Y95.0686
G01 X48.7590 Y95.0746
G01 X48.9801 Y95.0307
G01 X49.1674 Y94.9054
G01 X49.1931 Y94.8686
G01 X49.2082 Y94.8503
G01 X49.2247 Y94.8325
G01 X49.6115 Y94.4457
G01 X49.6293 Y94.4292
G01 X49.6476 Y94.4141
G01 X49.6844 Y94.3884
G01 X49.8097 Y94.2011
G01 X49.8536 Y93.9800
G01 X49.8458 Y93.9358
G01 X49.8434 Y93.9122
G01 X49.8425 Y93.8879
G01 X49.8425 Y93.3203
G01 X49.8437 Y93.2929
G01 X49.8467 Y93.2663
G01 X49.8499 Y93.2472
G01 X49.8549 Y93.2262
G01 X49.8587 Y93.2127
G01 X49.8675 Y93.1874
G01 X49.8733 Y93.1732
G01 X49.8843 Y93.1502
G01 X49.8911 Y93.1378
G01 X49.9052 Y93.1150
G01 X49.9133 Y93.1035
G01 X49.9298 Y93.0824
G01 X49.9391 Y93.0718
G01 X49.9579 Y93.0527
G01 X49.9683 Y93.0433
G01 X49.9891 Y93.0264
G01 X50.0034 Y93.0160
G01 X50.0230 Y93.0036
G01 X50.0353 Y92.9966
G01 X50.0592 Y92.9847
G01 X50.0722 Y92.9792
G01 X50.0974 Y92.9700
G01 X50.1108 Y92.9659
G01 X50.1369 Y92.9595
G01 X50.1507 Y92.9570
G01 X50.1773 Y92.9536
G01 X50.2088 Y92.9519
G01 X50.2322 Y92.9526
G01 X50.2588 Y92.9551
G01 X50.2743 Y92.9575
G01 X50.3126 Y92.9663
G01 X50.3381 Y92.9746
G01 X50.3526 Y92.9803
G01 X50.3881 Y92.9974
G01 X50.4111 Y93.0111
G01 X50.4227 Y93.0190
G01 X50.4441 Y93.0351
G01 X50.4692 Y93.0575
G01 X50.4839 Y93.0730
G01 X50.5011 Y93.0934
G01 X50.5096 Y93.1047
G01 X50.5698 Y93.1942
G01 X50.6580 Y93.2531
G01 X50.7983 Y93.2810
G01 X52.3257 Y93.2810
G01 X52.4660 Y93.2531
G01 X52.5542 Y93.1942
G01 X52.6131 Y93.1060
G01 X52.6410 Y92.9657
G01 X52.6410 Y91.4383
G01 X52.6131 Y91.2980
G01 X52.5542 Y91.2098
G01 X52.4660 Y91.1509
G01 X52.3697 Y91.1314
G01 X52.3560 Y91.1279
G01 X52.3305 Y91.1198
G01 X52.3158 Y91.1142
G01 X52.2803 Y91.0974
G01 X52.2571 Y91.0839
G01 X52.2454 Y91.0761
G01 X52.2239 Y91.0601
G01 X52.1972 Y91.0365
G01 X52.1837 Y91.0225
G01 X52.1663 Y91.0022
G01 X52.1551 Y90.9875
G01 X52.1354 Y90.9567
G01 X52.1229 Y90.9330
G01 X52.1170 Y90.9202
G01 X52.1072 Y90.8952
G01 X52.1028 Y90.8819
G01 X52.0958 Y90.8560
G01 X52.0929 Y90.8422
G01 X52.0888 Y90.8157
G01 X52.0863 Y90.7783
G01 X52.0865 Y90.7608
G01 X52.0884 Y90.7340
G01 X52.0909 Y90.7142
G01 X52.0982 Y90.6800
G01 X52.1060 Y90.6543
G01 X52.1114 Y90.6393
G01 X52.1213 Y90.6164
G01 X52.1275 Y90.6037
G01 X52.1407 Y90.5804
G01 X52.1483 Y90.5685
G01 X52.1640 Y90.5468
G01 X52.1816 Y90.5256
G01 X52.2877 Y90.4084
G01 X52.2216 Y90.4675
G01 X52.2213 Y90.4670
G01 X52.2005 Y90.4843
G01 X52.1246 Y90.5382
G01 X52.1044 Y90.5507
G01 X52.0259 Y90.5941
G01 X52.0015 Y90.6058
G01 X51.9186 Y90.6401
G01 X51.8931 Y90.6491
G01 X51.8068 Y90.6739
G01 X51.7805 Y90.6799
G01 X51.6920 Y90.6950
G01 X51.6651 Y90.6980
G01 X51.5620 Y90.7034
G01 X51.4589 Y90.6980
G01 X51.4320 Y90.6950
G01 X51.3382 Y90.6790
G01 X51.3172 Y90.6739
G01 X51.2309 Y90.6491
G01 X51.2054 Y90.6401
G01 X51.1212 Y90.6053
G01 X51.0981 Y90.5941
G01 X51.0196 Y90.5507
G01 X50.9967 Y90.5363
G01 X50.9235 Y90.4843
G01 X50.9024 Y90.4675
G01 X50.8355 Y90.4077
G01 X50.8163 Y90.3885
G01 X50.7565 Y90.3216
G01 X50.7570 Y90.3213
G01 X50.7397 Y90.3005
G01 X50.6858 Y90.2246
G01 X50.6733 Y90.2044
G01 X50.6299 Y90.1259
G01 X50.6182 Y90.1015
G01 X50.5839 Y90.0186
G01 X50.5749 Y89.9931
G01 X50.5501 Y89.9068
G01 X50.5441 Y89.8805
G01 X50.5290 Y89.7920
G01 X50.5260 Y89.7651
G01 X50.5206 Y89.6620
G01 X50.5260 Y89.5589
G01 X50.5290 Y89.5320
G01 X50.5450 Y89.4382
G01 X50.5501 Y89.4172
G01 X50.5749 Y89.3309
G01 X50.5839 Y89.3054
G01 X50.6187 Y89.2212
G01 X50.6299 Y89.1981
G01 X50.6733 Y89.1196
G01 X50.6877 Y89.0967
G01 X50.7397 Y89.0235
G01 X50.7482 Y89.0128
G01 X50.6469 Y89.1246
G01 X50.5482 Y89.3629
G01 X50.5367 Y89.3878
G01 X50.5237 Y89.4113
G01 X50.5163 Y89.4232
G01 X50.5008 Y89.4451
G01 X50.4921 Y89.4561
G01 X50.4743 Y89.4762
G01 X50.4636 Y89.4869
G01 X50.4335 Y89.5130
G01 X50.4118 Y89.5286
G01 X50.3988 Y89.5369
G01 X50.3639 Y89.5555
G01 X50.3393 Y89.5660
G01 X50.3260 Y89.5708
G01 X50.3003 Y89.5784
G01 X50.2866 Y89.5817
G01 X50.2603 Y89.5865
G01 X50.2463 Y89.5882
G01 X50.2196 Y89.5900
G01 X50.2024 Y89.5902
G01 X50.1647 Y89.5877
G01 X50.1648 Y89.5870
G01 X50.1382 Y89.5836
G01 X50.1245 Y89.5807
G01 X50.0986 Y89.5737
G01 X50.0834 Y89.5686
G01 X50.0470 Y89.5533
G01 X50.0239 Y89.5410
G01 X50.0118 Y89.5337
G01 X49.9896 Y89.5187
G01 X49.9784 Y89.5101
G01 X49.9581 Y89.4927
G01 X49.9443 Y89.4793
G01 X49.9206 Y89.4525
G01 X49.9046 Y89.4311
G01 X49.8958 Y89.4177
G01 X49.8833 Y89.3962
G01 X49.8769 Y89.3837
G01 X49.8660 Y89.3592
G01 X49.8610 Y89.3460
G01 X49.8529 Y89.3205
G01 X49.8494 Y89.3068
G01 X49.8097 Y89.1089
G01 X49.6844 Y88.9216
G01 X49.6476 Y88.8959
G01 X49.6293 Y88.8808
G01 X49.6115 Y88.8643
G01 X48.7767 Y88.0295
G01 X48.7584 Y88.0096
G01 X48.7588 Y88.0092
G01 X48.7419 Y87.9891
G01 X48.7321 Y87.9753
G01 X48.7129 Y87.9435
G01 X48.7012 Y87.9199
G01 X48.6868 Y87.8824
G01 X48.6765 Y87.8436
G01 X48.6705 Y87.8039
G01 X48.6689 Y87.7638
G01 X48.6716 Y87.7237
G01 X48.6758 Y87.6970
G01 X48.7310 Y87.4197
G01 X48.7310 Y86.8423
G01 X48.6840 Y86.6063
G01 X48.5709 Y86.4371
G01 X48.5232 Y86.4048
G01 X48.4920 Y86.3795
G01 X48.4637 Y86.3510
G01 X48.4547 Y86.3405
G01 X48.4386 Y86.3196
G01 X48.4296 Y86.3064
G01 X48.4106 Y86.2735
G01 X48.3995 Y86.2496
G01 X48.3859 Y86.2119
G01 X48.3765 Y86.1728
G01 X48.3742 Y86.1592
G01 X48.3706 Y86.1192
G01 X48.3706 Y86.0928
G01 X48.3742 Y86.0528
G01 X48.3773 Y86.0342
G01 X48.3859 Y86.0001
G01 X48.3943 Y85.9752
G01 X48.3999 Y85.9614
G01 X48.4172 Y85.9263
G01 X48.4308 Y85.9038
G01 X48.4547 Y85.8715
G01 X48.4819 Y85.8419
G01 X48.4920 Y85.8325
G01 X48.5232 Y85.8072
G01 X48.5709 Y85.7749
G01 X48.6840 Y85.6057
G01 X48.7310 Y85.3697
G01 X48.7310 Y84.7923
G01 X48.6840 Y84.5563
G01 X48.5709 Y84.3871
G01 X48.4017 Y84.2740
G01 X48.1657 Y84.2270
G01 X47.3383 Y84.2270
G01 X47.1023 Y84.2740
G01 X46.9243 Y84.3929
G01 X46.8960 Y84.4210
G01 X46.8855 Y84.4300
G01 X46.8646 Y84.4460
G01 X46.8514 Y84.4551
G01 X46.8307 Y84.4675
G01 X46.7946 Y84.4852
G01 X46.7818 Y84.4903
G01 X46.7435 Y84.5025
G01 X46.7041 Y84.5105
G01 X46.6780 Y84.5133
G01 X46.6510 Y84.5145
G01 X45.2068 Y84.5145
G01 X45.1798 Y84.5133
G01 X45.1537 Y84.5105
G01 X45.1350 Y84.5073
G01 X45.1143 Y84.5025
G01 X45.0760 Y84.4903
G01 X45.0622 Y84.4848
G01 X45.0271 Y84.4675
G01 X45.0046 Y84.4539
G01 X44.9723 Y84.4300
G01 X44.9428 Y84.4028
G01 X44.9333 Y84.3927
G01 X44.9164 Y84.3725
G01 X44.9004 Y84.3507
G01 X44.7109 Y84.0671
G01 X44.3882 Y83.8514
G01 X44.3660 Y83.8352
G01 X44.3455 Y83.8179
G01 X44.3301 Y83.8032
G01 X44.3076 Y83.7781
G01 X44.2914 Y83.7567
G01 X44.2836 Y83.7450
G01 X44.2698 Y83.7220
G01 X44.2633 Y83.7095
G01 X44.2522 Y83.6851
G01 X44.2471 Y83.6719
G01 X44.2388 Y83.6465
G01 X44.2352 Y83.6328
G01 X44.2297 Y83.6066
G01 X44.2276 Y83.5926
G01 X44.2251 Y83.5659
G01 X44.2244 Y83.5428
G01 X44.2261 Y83.5110
G01 X44.2267 Y83.5110
G01 X44.2296 Y83.4844
G01 X44.2331 Y83.4658
G01 X44.2385 Y83.4445
G01 X44.2427 Y83.4310
G01 X44.2519 Y83.4058
G01 X44.2579 Y83.3919
G01 X44.2764 Y83.3566
G01 X44.2909 Y83.3341
G01 X44.2992 Y83.3227
G01 X44.3162 Y83.3020
G01 X44.3257 Y83.2915
G01 X44.3448 Y83.2728
G01 X44.3554 Y83.2635
G01 X44.3765 Y83.2470
G01 X44.3905 Y83.2373
G01 X44.4045 Y83.2287
G01 X44.3815 Y83.2398
G01 X44.2986 Y83.2741
G01 X44.2731 Y83.2831
G01 X44.1868 Y83.3079
G01 X44.1605 Y83.3139
G01 X44.0720 Y83.3290
G01 X44.0451 Y83.3320
G01 X43.9420 Y83.3374
G01 X43.8389 Y83.3320
G01 X43.8120 Y83.3290
G01 X43.7182 Y83.3130
G01 X43.6972 Y83.3079
G01 X43.6109 Y83.2831
G01 X43.5854 Y83.2741
G01 X43.5012 Y83.2393
G01 X43.4791 Y83.2285
G01 X43.5075 Y83.2470
G01 X43.5286 Y83.2635
G01 X43.5392 Y83.2728
G01 X43.5583 Y83.2915
G01 X43.5678 Y83.3020
G01 X43.5848 Y83.3227
G01 X43.5931 Y83.3341
G01 X43.6076 Y83.3566
G01 X43.6146 Y83.3689
G01 X43.6265 Y83.3929
G01 X43.6321 Y83.4058
G01 X43.6413 Y83.4310
G01 X43.6455 Y83.4445
G01 X43.6518 Y83.4705
G01 X43.6544 Y83.4844
G01 X43.6579 Y83.5110
G01 X43.6589 Y83.5250
G01 X43.6594 Y83.5518
G01 X43.6589 Y83.5659
G01 X43.6564 Y83.5926
G01 X43.6540 Y83.6081
G01 X43.6452 Y83.6465
G01 X43.6369 Y83.6719
G01 X43.6312 Y83.6865
G01 X43.6142 Y83.7220
G01 X43.6004 Y83.7450
G01 X43.5926 Y83.7567
G01 X43.5764 Y83.7781
G01 X43.5672 Y83.7888
G01 X43.5539 Y83.8032
G01 X43.5385 Y83.8179
G01 X43.5180 Y83.8352
G01 X43.4958 Y83.8514
G01 X43.1731 Y84.0671
G01 X42.9373 Y84.4199
G01 X42.8546 Y84.8360
G01 X42.9373 Y85.2521
G01 X43.1731 Y85.6049
G01 X43.5259 Y85.8407
G01 X43.8370 Y85.9025
G01 X44.0470 Y85.9025
G01 X44.3581 Y85.8407
G01 X44.5542 Y85.7096
G01 X44.5546 Y85.7103
G01 X44.5663 Y85.7021
G01 X44.5792 Y85.6945
G01 X44.6045 Y85.6816
G01 X44.6182 Y85.6756
G01 X44.6449 Y85.6658
G01 X44.6592 Y85.6614
G01 X44.6868 Y85.6548
G01 X44.7016 Y85.6522
G01 X44.7298 Y85.6488
G01 X44.7589 Y85.6475
G01 X46.6510 Y85.6475
G01 X46.6780 Y85.6487
G01 X46.7041 Y85.6515
G01 X46.7228 Y85.6547
G01 X46.7568 Y85.6632
G01 X46.7818 Y85.6717
G01 X46.7956 Y85.6772
G01 X46.8307 Y85.6945
G01 X46.8532 Y85.7081
G01 X46.8855 Y85.7320
G01 X46.8960 Y85.7410
G01 X46.9243 Y85.7691
G01 X46.9700 Y85.7996
G01 X46.9918 Y85.8156
G01 X47.0120 Y85.8325
G01 X47.0403 Y85.8610
G01 X47.0654 Y85.8924
G01 X47.0744 Y85.9056
G01 X47.0934 Y85.9385
G01 X47.1097 Y85.9752
G01 X47.1218 Y86.0135
G01 X47.1298 Y86.0528
G01 X47.1327 Y86.0790
G01 X47.1338 Y86.1060
G01 X47.1327 Y86.1330
G01 X47.1298 Y86.1592
G01 X47.1267 Y86.1778
G01 X47.1218 Y86.1985
G01 X47.1097 Y86.2368
G01 X47.1041 Y86.2506
G01 X47.0868 Y86.2857
G01 X47.0654 Y86.3196
G01 X47.0403 Y86.3510
G01 X47.0120 Y86.3795
G01 X46.9808 Y86.4048
G01 X46.9331 Y86.4371
G01 X46.8200 Y86.6063
G01 X46.7730 Y86.8423
G01 X46.7730 Y87.4197
G01 X46.8200 Y87.6557
G01 X46.9331 Y87.8249
G01 X47.1435 Y87.9656
G01 X47.1632 Y87.9798
G01 X47.1908 Y88.0032
G01 X47.2159 Y88.0292
G01 X47.2384 Y88.0575
G01 X47.3436 Y88.2144
G01 X47.3804 Y88.2401
G01 X47.3987 Y88.2552
G01 X47.4165 Y88.2717
G01 X48.6015 Y89.4567
G01 X48.6203 Y89.4772
G01 X48.6199 Y89.4776
G01 X48.6372 Y89.4984
G01 X48.6474 Y89.5128
G01 X48.6668 Y89.5454
G01 X48.6785 Y89.5698
G01 X48.6840 Y89.5829
G01 X48.6929 Y89.6085
G01 X48.6968 Y89.6222
G01 X48.7029 Y89.6486
G01 X48.7053 Y89.6626
G01 X48.7083 Y89.6895
G01 X48.7095 Y89.7173
G01 X48.7091 Y91.3397
G01 X48.7083 Y91.3541
G01 X48.7051 Y91.3814
G01 X48.7017 Y91.4011
G01 X48.6925 Y91.4362
G01 X48.6833 Y91.4620
G01 X48.6771 Y91.4768
G01 X48.6586 Y91.5126
G01 X48.6438 Y91.5357
G01 X48.6354 Y91.5474
G01 X48.6181 Y91.5687
G01 X48.6084 Y91.5793
G01 X48.5888 Y91.5985
G01 X48.5779 Y91.6080
G01 X48.5563 Y91.6249
G01 X48.5418 Y91.6348
G01 X48.5210 Y91.6474
G01 X48.5082 Y91.6542
G01 X48.4833 Y91.6657
G01 X48.4699 Y91.6710
G01 X48.4439 Y91.6797
G01 X48.4300 Y91.6834
G01 X48.4031 Y91.6890
G01 X48.3888 Y91.6912
G01 X48.3615 Y91.6937
G01 X48.3384 Y91.6944
G01 X48.3053 Y91.6926
G01 X48.3053 Y91.6920
G01 X48.2781 Y91.6889
G01 X48.2590 Y91.6852
G01 X48.2236 Y91.6751
G01 X48.1979 Y91.6654
G01 X48.1836 Y91.6590
G01 X48.1488 Y91.6402
G01 X47.9117 Y91.5930
G01 X47.0843 Y91.5930
G01 X46.8483 Y91.6400
G01 X46.6703 Y91.7589
G01 X46.6420 Y91.7870
G01 X46.6315 Y91.7960
G01 X46.6106 Y91.8120
G01 X46.5973 Y91.8211
G01 X46.5767 Y91.8335
G01 X46.5406 Y91.8512
G01 X46.5278 Y91.8563
G01 X46.4895 Y91.8685
G01 X46.4501 Y91.8765
G01 X46.4240 Y91.8793
G01 X46.3970 Y91.8805
G01 X45.2068 Y91.8805
G01 X45.1798 Y91.8793
G01 X45.1537 Y91.8765
G01 X45.1350 Y91.8733
G01 X45.1143 Y91.8685
G01 X45.0760 Y91.8563
G01 X45.0622 Y91.8508
G01 X45.0271 Y91.8335
G01 X45.0046 Y91.8199
G01 X44.9723 Y91.7960
G01 X44.9428 Y91.7688
G01 X44.9333 Y91.7587
G01 X44.9164 Y91.7385
G01 X44.9004 Y91.7167
G01 X44.7109 Y91.4331
G01 X44.3882 Y91.2174
G01 X44.3660 Y91.2012
G01 X44.3455 Y91.1839
G01 X44.3301 Y91.1692
G01 X44.3076 Y91.1441
G01 X44.2914 Y91.1227
G01 X44.2836 Y91.1110
G01 X44.2698 Y91.0880
G01 X44.2633 Y91.0755
G01 X44.2522 Y91.0511
G01 X44.2471 Y91.0379
G01 X44.2388 Y91.0125
G01 X44.2352 Y90.9988
G01 X44.2297 Y90.9726
G01 X44.2276 Y90.9586
G01 X44.2251 Y90.9319
G01 X44.2244 Y90.9088
G01 X44.2261 Y90.8770
G01 X44.2267 Y90.8770
G01 X44.2296 Y90.8504
G01 X44.2331 Y90.8318
G01 X44.2385 Y90.8105
G01 X44.2427 Y90.7970
G01 X44.2519 Y90.7718
G01 X44.2579 Y90.7579
G01 X44.2764 Y90.7226
G01 X44.2909 Y90.7001
G01 X44.2992 Y90.6887
G01 X44.3162 Y90.6680
G01 X44.3257 Y90.6575
G01 X44.3448 Y90.6388
G01 X44.3554 Y90.6295
G01 X44.3765 Y90.6130
G01 X44.3905 Y90.6033
G01 X44.4045 Y90.5947
G01 X44.3815 Y90.6058
G01 X44.2986 Y90.6401
G01 X44.2731 Y90.6491
G01 X44.1868 Y90.6739
G01 X44.1605 Y90.6799
G01 X44.0720 Y90.6950
G01 X44.0451 Y90.6980
G01 X43.9420 Y90.7034
G01 X43.8389 Y90.6980
G01 X43.8120 Y90.6950
G01 X43.7182 Y90.6790
G01 X43.6972 Y90.6739
G01 X43.6109 Y90.6491
G01 X43.5854 Y90.6401
G01 X43.5012 Y90.6053
G01 X43.4791 Y90.5945
G01 X43.5075 Y90.6130
G01 X43.5286 Y90.6295
G01 X43.5392 Y90.6388
G01 X43.5583 Y90.6575
G01 X43.5678 Y90.6680
G01 X43.5848 Y90.6887
G01 X43.5951 Y90.7030
G01 X43.6146 Y90.7349
G01 X43.6265 Y90.7589
G01 X43.6321 Y90.7718
G01 X43.6413 Y90.7970
G01 X43.6455 Y90.8105
G01 X43.6518 Y90.8365
G01 X43.6544 Y90.8504
G01 X43.6579 Y90.8770
G01 X43.6596 Y90.9088
G01 X43.6589 Y90.9319
G01 X43.6564 Y90.9586
G01 X43.6540 Y90.9741
G01 X43.6452 Y91.0125
G01 X43.6369 Y91.0379
G01 X43.6312 Y91.0525
G01 X43.6142 Y91.0880
G01 X43.6004 Y91.1110
G01 X43.5926 Y91.1227
G01 X43.5764 Y91.1441
G01 X43.5539 Y91.1692
G01 X43.5385 Y91.1839
G01 X43.5180 Y91.2012
G01 X43.4958 Y91.2174
G01 X43.1731 Y91.4331
G01 X43.1396 Y91.4824
G01 X43.1144 Y91.5137
G01 X43.0859 Y91.5420
G01 X43.0545 Y91.5670
G01 X43.0413 Y91.5761
G01 X43.0084 Y91.5951
G01 X42.9717 Y91.6113
G01 X42.9334 Y91.6235
G01 X42.9077 Y91.6292
G01 X42.8679 Y91.6343
G01 X42.8409 Y91.6355
G01 X34.5503 Y91.6355
G01 X34.5225 Y91.6343
G01 X34.4956 Y91.6313
G01 X34.4762 Y91.6279
G01 X34.4415 Y91.6189
G01 X34.4159 Y91.6100
G01 X34.4015 Y91.6040
G01 X34.3659 Y91.5859
G01 X34.3430 Y91.5715
G01 X34.3314 Y91.5632
G01 X34.3102 Y91.5463
G01 X34.2897 Y91.5275
G01 X33.3825 Y90.6203
G01 X33.3637 Y90.5998
G01 X33.3641 Y90.5994
G01 X33.3468 Y90.5786
G01 X33.3366 Y90.5642
G01 X33.3172 Y90.5316
G01 X33.3055 Y90.5072
G01 X33.3000 Y90.4941
G01 X33.2911 Y90.4685
G01 X33.2872 Y90.4548
G01 X33.2811 Y90.4284
G01 X33.2787 Y90.4144
G01 X33.2757 Y90.3875
G01 X33.2745 Y90.3597
G01 X33.2745 Y85.0946
G01 X33.2758 Y85.0662
G01 X33.2789 Y85.0388
G01 X33.2824 Y85.0189
G01 X33.2877 Y84.9976
G01 X33.2918 Y84.9836
G01 X33.3011 Y84.9576
G01 X33.3074 Y84.9426
G01 X33.3190 Y84.9194
G01 X33.3262 Y84.9067
G01 X33.3411 Y84.8835
G01 X33.3497 Y84.8718
G01 X33.3672 Y84.8504
G01 X33.3771 Y84.8397
G01 X33.3970 Y84.8205
G01 X33.4080 Y84.8110
G01 X33.4299 Y84.7942
G01 X33.4419 Y84.7860
G01 X33.4656 Y84.7718
G01 X33.4785 Y84.7650
G01 X33.5037 Y84.7536
G01 X33.5173 Y84.7484
G01 X33.5436 Y84.7399
G01 X33.5711 Y84.7332
G01 X33.6120 Y84.7251
G01 X33.7002 Y84.6662
G01 X33.7591 Y84.5780
G01 X33.7870 Y84.4377
G01 X33.7870 Y82.9103
G01 X33.7591 Y82.7700
G01 X33.7002 Y82.6818
G01 X33.6120 Y82.6229
G01 X33.5500 Y82.6106
G01 X33.5230 Y82.6040
G01 X33.4972 Y82.5958
G01 X33.4822 Y82.5901
G01 X33.4465 Y82.5731
G01 X33.4232 Y82.5594
G01 X33.4114 Y82.5515
G01 X33.3897 Y82.5352
G01 X33.3789 Y82.5260
G01 X33.3592 Y82.5074
G01 X33.3494 Y82.4970
G01 X33.3319 Y82.4764
G01 X33.3208 Y82.4615
G01 X33.3011 Y82.4302
G01 X33.2887 Y82.4061
G01 X33.2828 Y82.3931
G01 X33.2732 Y82.3678
G01 X33.2689 Y82.3543
G01 X33.2621 Y82.3280
G01 X33.2593 Y82.3141
G01 X33.2555 Y82.2873
G01 X33.2543 Y82.2731
G01 X33.2535 Y82.2528
G01 X33.2540 Y82.2318
G01 X33.2563 Y82.2048
G01 X33.2590 Y82.1857
G01 X33.2671 Y82.1503
G01 X33.2753 Y82.1245
G01 X33.2810 Y82.1095
G01 X33.2980 Y82.0739
G01 X33.3117 Y82.0505
G01 X33.3197 Y82.0387
G01 X33.3359 Y82.0171
G01 X33.3451 Y82.0062
G01 X33.3589 Y81.9912
G01 X33.3741 Y81.9767
G01 X33.3948 Y81.9593
G01 X33.4061 Y81.9507
G01 X33.4769 Y81.9029
G01 X33.7127 Y81.5501
G01 X33.7954 Y81.1340
G01 X33.7127 Y80.7179
G01 X33.4769 Y80.3651
G01 X33.1742 Y80.1623
G01 X33.1625 Y80.1535
G01 X33.1412 Y80.1354
G01 X33.1306 Y80.1253
G01 X33.1116 Y80.1049
G01 X33.1022 Y80.0936
G01 X33.0857 Y80.0712
G01 X33.0765 Y80.0570
G01 X33.0639 Y80.0347
G01 X33.0573 Y80.0216
G01 X33.0464 Y79.9960
G01 X33.0414 Y79.9822
G01 X33.0335 Y79.9555
G01 X33.0301 Y79.9412
G01 X33.0253 Y79.9137
G01 X33.0236 Y79.8992
G01 X33.0220 Y79.8713
G01 X33.0220 Y79.8567
G01 X33.0236 Y79.8288
G01 X33.0262 Y79.8074
G01 X33.0335 Y79.7725
G01 X33.0414 Y79.7458
G01 X33.0473 Y79.7296
G01 X33.0639 Y79.6933
G01 X33.0777 Y79.6691
G01 X33.0857 Y79.6568
G01 X33.1022 Y79.6344
G01 X33.1116 Y79.6231
G01 X33.1306 Y79.6027
G01 X33.1412 Y79.5926
G01 X33.1625 Y79.5745
G01 X33.1742 Y79.5657
G01 X33.4769 Y79.3629
G01 X33.7127 Y79.0101
G01 X33.7954 Y78.5940
G01 X33.7127 Y78.1779
G01 X33.4769 Y77.8251
G01 X33.1542 Y77.6094
G01 X33.1320 Y77.5932
G01 X33.1115 Y77.5759
G01 X33.0961 Y77.5612
G01 X33.0736 Y77.5361
G01 X33.0574 Y77.5147
G01 X33.0483 Y77.5011
G01 X33.0358 Y77.4800
G01 X33.0293 Y77.4675
G01 X33.0182 Y77.4431
G01 X33.0131 Y77.4299
G01 X33.0048 Y77.4045
G01 X33.0012 Y77.3908
G01 X32.9957 Y77.3646
G01 X32.9936 Y77.3506
G01 X32.9911 Y77.3239
G01 X32.9906 Y77.3098
G01 X32.9911 Y77.2830
G01 X32.9921 Y77.2690
G01 X32.9927 Y77.2690
G01 X32.9956 Y77.2424
G01 X32.9991 Y77.2238
G01 X33.0087 Y77.1890
G01 X33.0179 Y77.1638
G01 X33.0235 Y77.1509
G01 X33.0354 Y77.1269
G01 X33.0424 Y77.1146
G01 X33.0569 Y77.0921
G01 X33.0652 Y77.0807
G01 X33.0822 Y77.0600
G01 X33.0917 Y77.0495
G01 X33.1108 Y77.0308
G01 X33.1214 Y77.0215
G01 X33.1425 Y77.0050
G01 X33.1565 Y76.9953
G01 X33.1705 Y76.9867
G01 X33.1475 Y76.9978
G01 X33.0646 Y77.0321
G01 X33.0391 Y77.0411
G01 X32.9528 Y77.0659
G01 X32.9265 Y77.0719
G01 X32.8380 Y77.0870
G01 X32.8111 Y77.0900
G01 X32.7080 Y77.0954
G01 X32.6049 Y77.0900
G01 X32.5780 Y77.0870
G01 X32.4842 Y77.0710
G01 X32.4632 Y77.0659
G01 X32.3769 Y77.0411
G01 X32.3514 Y77.0321
G01 X32.2672 Y76.9973
G01 X32.2451 Y76.9865
G01 X32.2735 Y77.0050
G01 X32.2946 Y77.0215
G01 X32.3052 Y77.0308
G01 X32.3243 Y77.0495
G01 X32.3338 Y77.0600
G01 X32.3508 Y77.0807
G01 X32.3611 Y77.0950
G01 X32.3806 Y77.1269
G01 X32.3925 Y77.1509
G01 X32.3981 Y77.1638
G01 X32.4073 Y77.1890
G01 X32.4115 Y77.2025
G01 X32.4178 Y77.2285
G01 X32.4204 Y77.2424
G01 X32.4239 Y77.2690
G01 X32.4256 Y77.3008
G01 X32.4249 Y77.3239
G01 X32.4224 Y77.3506
G01 X32.4200 Y77.3661
G01 X32.4112 Y77.4045
G01 X32.4029 Y77.4299
G01 X32.3972 Y77.4445
G01 X32.3867 Y77.4675
G01 X32.3802 Y77.4800
G01 X32.3664 Y77.5030
G01 X32.3586 Y77.5147
G01 X32.3424 Y77.5361
G01 X32.3332 Y77.5468
G01 X32.3199 Y77.5612
G01 X32.3045 Y77.5759
G01 X32.2840 Y77.5932
G01 X32.2618 Y77.6094
G01 X31.9391 Y77.8251
G01 X31.7033 Y78.1779
G01 X31.6206 Y78.5940
G01 X31.7033 Y79.0101
G01 X31.9391 Y79.3629
G01 X32.2418 Y79.5657
G01 X32.2535 Y79.5745
G01 X32.2748 Y79.5926
G01 X32.2854 Y79.6027
G01 X32.3044 Y79.6231
G01 X32.3138 Y79.6344
G01 X32.3303 Y79.6568
G01 X32.3395 Y79.6710
G01 X32.3521 Y79.6933
G01 X32.3587 Y79.7064
G01 X32.3696 Y79.7320
G01 X32.3746 Y79.7458
G01 X32.3825 Y79.7725
G01 X32.3859 Y79.7868
G01 X32.3907 Y79.8143
G01 X32.3924 Y79.8288
G01 X32.3940 Y79.8567
G01 X32.3940 Y79.8713
G01 X32.3924 Y79.8992
G01 X32.3898 Y79.9206
G01 X32.3825 Y79.9555
G01 X32.3746 Y79.9822
G01 X32.3687 Y79.9984
G01 X32.3521 Y80.0347
G01 X32.3383 Y80.0589
G01 X32.3303 Y80.0712
G01 X32.3138 Y80.0936
G01 X32.3044 Y80.1049
G01 X32.2854 Y80.1253
G01 X32.2748 Y80.1354
G01 X32.2535 Y80.1535
G01 X32.2418 Y80.1623
G01 X31.9391 Y80.3651
G01 X31.7033 Y80.7179
G01 X31.6206 Y81.1340
G01 X31.7033 Y81.5501
G01 X31.9391 Y81.9029
G01 X32.0099 Y81.9507
G01 X32.0212 Y81.9593
G01 X32.0419 Y81.9767
G01 X32.0571 Y81.9912
G01 X32.0709 Y82.0062
G01 X32.0801 Y82.0171
G01 X32.0963 Y82.0387
G01 X32.1055 Y82.0524
G01 X32.1246 Y82.0865
G01 X32.1356 Y82.1112
G01 X32.1422 Y82.1286
G01 X32.1525 Y82.1641
G01 X32.1578 Y82.1907
G01 X32.1597 Y82.2048
G01 X32.1620 Y82.2318
G01 X32.1625 Y82.2528
G01 X32.1617 Y82.2731
G01 X32.1605 Y82.2873
G01 X32.1599 Y82.2872
G01 X32.1567 Y82.3141
G01 X32.1529 Y82.3326
G01 X32.1428 Y82.3678
G01 X32.1332 Y82.3931
G01 X32.1270 Y82.4070
G01 X32.1077 Y82.4425
G01 X32.0926 Y82.4650
G01 X32.0841 Y82.4764
G01 X32.0666 Y82.4970
G01 X32.0521 Y82.5122
G01 X32.0263 Y82.5352
G01 X32.0046 Y82.5515
G01 X31.9909 Y82.5606
G01 X31.9568 Y82.5797
G01 X31.9321 Y82.5907
G01 X31.9147 Y82.5973
G01 X31.8930 Y82.6040
G01 X31.8660 Y82.6106
G01 X31.8040 Y82.6229
G01 X31.7158 Y82.6818
G01 X31.6569 Y82.7700
G01 X31.6290 Y82.9103
G01 X31.6290 Y84.4377
G01 X31.6569 Y84.5780
G01 X31.7158 Y84.6662
G01 X31.8040 Y84.7251
G01 X31.8449 Y84.7332
G01 X31.8448 Y84.7338
G01 X31.8584 Y84.7363
G01 X31.8724 Y84.7399
G01 X31.8987 Y84.7484
G01 X31.9143 Y84.7544
G01 X31.9504 Y84.7718
G01 X31.9741 Y84.7860
G01 X31.9861 Y84.7942
G01 X32.0080 Y84.8110
G01 X32.0190 Y84.8205
G01 X32.0389 Y84.8397
G01 X32.0488 Y84.8504
G01 X32.0663 Y84.8718
G01 X32.0773 Y84.8869
G01 X32.0970 Y84.9194
G01 X32.1092 Y84.9442
G01 X32.1149 Y84.9576
G01 X32.1242 Y84.9836
G01 X32.1283 Y84.9976
G01 X32.1346 Y85.0245
G01 X32.1371 Y85.0388
G01 X32.1402 Y85.0662
G01 X32.1415 Y85.0946
G01 X32.1415 Y90.6549
G01 X32.1406 Y90.6792
G01 X32.1382 Y90.7028
G01 X32.1304 Y90.7470
G01 X32.1743 Y90.9681
G01 X32.2996 Y91.1554
G01 X32.3364 Y91.1811
G01 X32.3547 Y91.1962
G01 X32.3725 Y91.2127
G01 X33.6973 Y92.5375
G01 X33.7138 Y92.5553
G01 X33.7289 Y92.5736
G01 X33.7546 Y92.6104
G01 X33.9419 Y92.7357
G01 X34.1630 Y92.7796
G01 X34.2072 Y92.7718
G01 X34.2308 Y92.7694
G01 X34.2551 Y92.7685
G01 X42.8409 Y92.7685
G01 X42.8679 Y92.7697
G01 X42.8940 Y92.7725
G01 X42.9127 Y92.7757
G01 X42.9334 Y92.7805
G01 X42.9717 Y92.7927
G01 X42.9845 Y92.7978
G01 X43.0206 Y92.8155
G01 X43.0545 Y92.8370
G01 X43.0859 Y92.8620
G01 X43.1144 Y92.8903
G01 X43.1396 Y92.9216
G01 X43.1731 Y92.9709
G01 X43.5305 Y93.2097
G01 X43.5488 Y93.2156
G01 X43.5641 Y93.2215
G01 X43.5871 Y93.2320
G01 X43.5999 Y93.2386
G01 X43.6234 Y93.2526
G01 X43.6353 Y93.2606
G01 X43.6571 Y93.2771
G01 X43.6821 Y93.2994
G01 X43.6976 Y93.3159
G01 X43.7151 Y93.3369
G01 X43.7262 Y93.3518
G01 X43.7459 Y93.3837
G01 X43.7582 Y93.4081
G01 X43.7640 Y93.4213
G01 X43.7735 Y93.4469
G01 X43.7777 Y93.4606
G01 X43.7843 Y93.4872
G01 X43.7869 Y93.5013
G01 X43.7904 Y93.5284
G01 X43.7921 Y93.5601
G01 X43.7913 Y93.5845
G01 X43.7886 Y93.6117
G01 X43.7854 Y93.6318
G01 X43.7768 Y93.6665
G01 X43.7681 Y93.6924
G01 X43.7621 Y93.7074
G01 X43.7443 Y93.7432
G01 X43.7300 Y93.7664
G01 X43.7218 Y93.7782
G01 X43.7049 Y93.7998
G01 X43.6954 Y93.8106
G01 X43.6763 Y93.8300
G01 X43.6656 Y93.8397
G01 X43.6652 Y93.8393
G01 X43.6443 Y93.8569
G01 X43.6327 Y93.8653
G01 X43.6096 Y93.8799
G01 X43.5970 Y93.8870
G01 X43.5725 Y93.8989
G01 X43.5592 Y93.9045
G01 X43.5334 Y93.9136
G01 X43.5196 Y93.9176
G01 X43.4930 Y93.9237
G01 X43.4788 Y93.9262
G01 X43.4516 Y93.9293
G01 X43.4236 Y93.9305
G01 X29.3523 Y93.9305
G01 X29.3245 Y93.9293
G01 X29.2976 Y93.9263
G01 X29.2782 Y93.9229
G01 X29.2435 Y93.9139
G01 X29.2179 Y93.9050
G01 X29.2035 Y93.8990
G01 X29.1679 Y93.8809
G01 X29.1450 Y93.8665
G01 X29.1334 Y93.8582
G01 X29.1122 Y93.8413
G01 X29.0917 Y93.8225
G01 X22.0015 Y86.7323
G01 X21.9827 Y86.7118
G01 X21.9831 Y86.7114
G01 X21.9658 Y86.6906
G01 X21.9556 Y86.6762
G01 X21.9431 Y86.6561
G01 X21.9362 Y86.6436
G01 X21.9245 Y86.6192
G01 X21.9190 Y86.6061
G01 X21.9101 Y86.5805
G01 X21.9062 Y86.5668
G01 X21.9001 Y86.5404
G01 X21.8977 Y86.5264
G01 X21.8947 Y86.4995
G01 X21.8935 Y86.4717
G01 X21.8935 Y79.8410
G01 X21.8947 Y79.8140
G01 X21.8975 Y79.7879
G01 X21.9007 Y79.7692
G01 X21.9055 Y79.7485
G01 X21.9177 Y79.7102
G01 X21.9232 Y79.6964
G01 X21.9339 Y79.6735
G01 X21.9541 Y79.6388
G01 X21.9620 Y79.6274
G01 X21.9870 Y79.5960
G01 X22.0151 Y79.5677
G01 X22.0456 Y79.5220
G01 X22.0616 Y79.5002
G01 X22.0785 Y79.4800
G01 X22.1070 Y79.4517
G01 X22.1384 Y79.4266
G01 X22.1516 Y79.4176
G01 X22.1845 Y79.3986
G01 X22.2212 Y79.3823
G01 X22.2461 Y79.3739
G01 X22.2852 Y79.3645
G01 X22.2988 Y79.3622
G01 X22.3250 Y79.3593
G01 X22.3520 Y79.3582
G01 X22.3790 Y79.3593
G01 X22.4052 Y79.3622
G01 X22.4238 Y79.3653
G01 X22.4579 Y79.3739
G01 X22.4828 Y79.3823
G01 X22.4966 Y79.3879
G01 X22.5317 Y79.4052
G01 X22.5542 Y79.4188
G01 X22.5865 Y79.4427
G01 X22.6161 Y79.4699
G01 X22.6255 Y79.4800
G01 X22.6508 Y79.5112
G01 X22.6831 Y79.5589
G01 X22.8523 Y79.6720
G01 X23.0883 Y79.7190
G01 X23.6657 Y79.7190
G01 X23.9017 Y79.6720
G01 X24.0709 Y79.5589
G01 X24.2116 Y79.3485
G01 X24.2258 Y79.3288
G01 X24.2492 Y79.3012
G01 X24.2752 Y79.2761
G01 X24.3035 Y79.2536
G01 X24.4604 Y79.1484
G01 X24.4861 Y79.1116
G01 X24.5012 Y79.0933
G01 X24.5177 Y79.0755
G01 X26.4975 Y77.0957
G01 X26.5153 Y77.0792
G01 X26.5336 Y77.0641
G01 X26.5704 Y77.0384
G01 X26.6957 Y76.8511
G01 X26.7396 Y76.6300
G01 X26.7318 Y76.5858
G01 X26.7294 Y76.5622
G01 X26.7285 Y76.5379
G01 X26.7285 Y67.1481
G01 X26.7294 Y67.1238
G01 X26.7318 Y67.1002
G01 X26.7396 Y67.0560
G01 X26.6957 Y66.8349
G01 X26.5704 Y66.6476
G01 X26.5336 Y66.6219
G01 X26.5153 Y66.6068
G01 X26.4975 Y66.5903
G01 X25.3577 Y65.4505
G01 X25.3412 Y65.4327
G01 X25.3261 Y65.4144
G01 X25.3004 Y65.3776
G01 X25.1131 Y65.2523
G01 X24.8920 Y65.2084
G01 X24.8478 Y65.2162
G01 X24.8242 Y65.2186
G01 X24.7999 Y65.2195
G01 X23.1217 Y65.2195
G01 X23.0939 Y65.2183
G01 X23.0670 Y65.2153
G01 X23.0476 Y65.2119
G01 X23.0266 Y65.2068
G01 X23.0129 Y65.2029
G01 X22.9873 Y65.1940
G01 X22.9729 Y65.1880
G01 X22.9373 Y65.1699
G01 X22.9144 Y65.1555
G01 X22.9028 Y65.1472
G01 X22.8816 Y65.1303
G01 X22.8611 Y65.1115
G01 X22.6738 Y64.9242
G01 X22.3002 Y64.7695
G01 X21.8958 Y64.7695
G01 X21.5222 Y64.9242
G01 X21.2269 Y65.2195
G01 X21.2064 Y65.2383
G01 X21.2060 Y65.2379
G01 X21.1852 Y65.2552
G01 X21.1708 Y65.2654
G01 X21.1507 Y65.2779
G01 X21.1382 Y65.2848
G01 X21.1138 Y65.2965
G01 X21.1007 Y65.3020
G01 X21.0751 Y65.3109
G01 X21.0614 Y65.3148
G01 X21.0350 Y65.3209
G01 X21.0210 Y65.3233
G01 X20.9941 Y65.3263
G01 X20.9663 Y65.3275
G01 X18.5691 Y65.3275
G01 X18.5421 Y65.3263
G01 X18.5160 Y65.3235
G01 X18.4973 Y65.3203
G01 X18.4632 Y65.3118
G01 X18.4383 Y65.3033
G01 X18.4245 Y65.2978
G01 X18.3894 Y65.2805
G01 X18.3669 Y65.2669
G01 X18.3555 Y65.2590
G01 X18.3241 Y65.2340
G01 X18.2956 Y65.2057
G01 X18.2704 Y65.1744
G01 X18.2369 Y65.1251
G01 X17.9455 Y64.9304
G01 X17.9225 Y64.9135
G01 X17.9012 Y64.8954
G01 X17.8866 Y64.8814
G01 X17.8622 Y64.8536
G01 X17.8457 Y64.8312
G01 X17.8365 Y64.8170
G01 X17.8173 Y64.7816
G01 X17.8064 Y64.7560
G01 X17.8014 Y64.7422
G01 X17.7935 Y64.7155
G01 X17.7901 Y64.7012
G01 X17.7853 Y64.6737
G01 X17.7836 Y64.6592
G01 X17.7820 Y64.6313
G01 X17.7820 Y64.6167
G01 X17.7836 Y64.5888
G01 X17.7853 Y64.5743
G01 X17.7901 Y64.5468
G01 X17.7935 Y64.5325
G01 X17.8014 Y64.5058
G01 X17.8073 Y64.4896
G01 X17.8239 Y64.4533
G01 X17.8377 Y64.4291
G01 X17.8457 Y64.4168
G01 X17.8622 Y64.3944
G01 X17.8866 Y64.3666
G01 X17.9012 Y64.3526
G01 X17.9225 Y64.3345
G01 X17.9455 Y64.3176
G01 X18.2369 Y64.1229
G01 X18.2627 Y64.0843
G01 X18.2787 Y64.0625
G01 X18.3051 Y64.0322
G01 X18.3241 Y64.0140
G01 X18.3555 Y63.9890
G01 X18.3687 Y63.9799
G01 X18.4016 Y63.9609
G01 X18.4383 Y63.9447
G01 X18.4766 Y63.9325
G01 X18.5023 Y63.9268
G01 X18.5421 Y63.9217
G01 X18.5691 Y63.9205
G01 X19.6119 Y63.9205
G01 X19.6362 Y63.9214
G01 X19.6598 Y63.9238
G01 X19.7040 Y63.9316
G01 X19.9251 Y63.8877
G01 X20.1124 Y63.7624
G01 X20.1381 Y63.7256
G01 X20.1532 Y63.7073
G01 X20.1697 Y63.6895
G01 X22.0768 Y61.7825
