(G-CODE GENERATED BY FLATCAM v8.904 - www.flatcam.org - Version Date: 2019/01/25)

(Name: BoardVer1.drl_cnc)
(Type: G-code from Excellon)
(Units: MM)

(Created on Sunday, 27 January 2019 at 21:27)

(Feedrate: 350.0 mm/min)
(Feedrate rapids 500.0 mm/min)

(Z_Cut: -2.1 mm)
(Z_Move: 2.0 mm)
(Z Toolchange: 10.0 mm)
(X,Y Toolchange: 0.0000, 0.0000 mm)
(Z Start: 20.0 mm)
(Z End: 50.0 mm)
(Steps per circle: 64)
(Postprocessor Excellon: default)
(Spindle Speed: 18000 RPM)
G94 ( Millimeters per minute feed rate. )
G21 ( Units == Millimeters. )
G90 ( Absolute coordinates. )
G64 P0.01000 ( set maximum deviation from commanded toolpath )
G21
G90
G94
G21
G90
G94

G01 F350.00
G00 Z2.0000
G00 Z20.0000
M03 S18000
G4 P0.2
G00 X27.0510 Y26.6700
G01 Z-2.1000
G01 Z0
G00 Z2.0000
G00 X34.6710 Y26.6700
G01 Z-2.1000
G01 Z0
G00 Z2.0000
G00 X34.6710 Y19.0500
G01 Z-2.1000
G01 Z0
G00 Z2.0000
G00 X34.6710 Y13.9700
G01 Z-2.1000
G01 Z0
G00 Z2.0000
G00 X27.0510 Y8.8900
G01 Z-2.1000
G01 Z0
G00 Z2.0000
G00 X27.0510 Y13.9700
G01 Z-2.1000
G01 Z0
G00 Z2.0000
G00 X27.0510 Y19.0500
G01 Z-2.1000
G01 Z0
G00 Z2.0000
M03 S18000
G4 P0.2
G00 X34.6710 Y8.8900
G01 Z-2.1000
G01 Z0
G00 Z2.0000
G00 X30.1560 Y46.1440
G01 Z-2.1000
G01 Z0
G00 Z2.0000
G00 X30.1560 Y48.6840
G01 Z-2.1000
G01 Z0
G00 Z2.0000
G00 X30.1560 Y51.2240
G01 Z-2.1000
G01 Z0
G00 Z2.0000
G00 X30.1560 Y53.7640
G01 Z-2.1000
G01 Z0
G00 Z2.0000
G00 X30.1560 Y56.3040
G01 Z-2.1000
G01 Z0
G00 Z2.0000
G00 X30.1560 Y58.8440
G01 Z-2.1000
G01 Z0
G00 Z2.0000
G00 X30.1560 Y61.3840
G01 Z-2.1000
G01 Z0
G00 Z2.0000
G00 X30.1560 Y63.9240
G01 Z-2.1000
G01 Z0
G00 Z2.0000
G00 X30.1560 Y66.4640
G01 Z-2.1000
G01 Z0
G00 Z2.0000
G00 X30.1560 Y69.0040
G01 Z-2.1000
G01 Z0
G00 Z2.0000
G00 X30.1560 Y71.5440
G01 Z-2.1000
G01 Z0
G00 Z2.0000
G00 X30.1560 Y74.0840
G01 Z-2.1000
G01 Z0
G00 Z2.0000
G00 X65.7160 Y74.0840
G01 Z-2.1000
G01 Z0
G00 Z2.0000
G00 X65.7160 Y71.5440
G01 Z-2.1000
G01 Z0
G00 Z2.0000
G00 X65.7160 Y69.0040
G01 Z-2.1000
G01 Z0
G00 Z2.0000
G00 X65.7160 Y66.4640
G01 Z-2.1000
G01 Z0
G00 Z2.0000
G00 X65.7160 Y63.9240
G01 Z-2.1000
G01 Z0
G00 Z2.0000
G00 X65.7160 Y61.3840
G01 Z-2.1000
G01 Z0
G00 Z2.0000
G00 X65.7160 Y58.8440
G01 Z-2.1000
G01 Z0
G00 Z2.0000
G00 X65.7160 Y56.3040
G01 Z-2.1000
G01 Z0
G00 Z2.0000
G00 X65.7160 Y53.7640
G01 Z-2.1000
G01 Z0
G00 Z2.0000
G00 X65.7160 Y51.2240
G01 Z-2.1000
G01 Z0
G00 Z2.0000
G00 X65.7160 Y48.6840
G01 Z-2.1000
G01 Z0
G00 Z2.0000
G00 X65.7160 Y46.1440
G01 Z-2.1000
G01 Z0
G00 Z2.0000
M03 S18000
G4 P0.2
G00 X13.9700 Y72.3900
G01 Z-2.1000
G01 Z0
G00 Z2.0000
G00 X22.6060 Y75.1840
G01 Z-2.1000
G01 Z0
G00 Z2.0000
G00 X37.0840 Y62.9920
G01 Z-2.1000
G01 Z0
G00 Z2.0000
G00 X47.4980 Y63.7540
G01 Z-2.1000
G01 Z0
G00 Z2.0000
G00 X46.4820 Y58.4200
G01 Z-2.1000
G01 Z0
G00 Z2.0000
G00 X40.8940 Y47.2440
G01 Z-2.1000
G01 Z0
G00 Z2.0000
G00 X52.8320 Y45.7200
G01 Z-2.1000
G01 Z0
G00 Z2.0000
G00 X57.6580 Y46.2280
G01 Z-2.1000
G01 Z0
G00 Z2.0000
G00 X56.9260 Y49.8140
G01 Z-2.1000
G01 Z0
G00 Z2.0000
G00 X81.8460 Y48.1140
G01 Z-2.1000
G01 Z0
G00 Z2.0000
G00 X81.8460 Y50.6540
G01 Z-2.1000
G01 Z0
G00 Z2.0000
G00 X81.8460 Y53.1940
G01 Z-2.1000
G01 Z0
G00 Z2.0000
G00 X81.8460 Y55.7340
G01 Z-2.1000
G01 Z0
G00 Z2.0000
G00 X81.8460 Y58.2740
G01 Z-2.1000
G01 Z0
G00 Z2.0000
G00 X81.8460 Y60.8140
G01 Z-2.1000
G01 Z0
G00 Z2.0000
G00 X81.8460 Y63.3540
G01 Z-2.1000
G01 Z0
G00 Z2.0000
G00 X81.8460 Y65.8940
G01 Z-2.1000
G01 Z0
G00 Z2.0000
G00 X81.8460 Y68.4340
G01 Z-2.1000
G01 Z0
G00 Z2.0000
G00 X81.8460 Y70.9740
G01 Z-2.1000
G01 Z0
G00 Z2.0000
G00 X76.4540 Y73.4060
G01 Z-2.1000
G01 Z0
G00 Z2.0000
G00 X70.6120 Y82.2960
G01 Z-2.1000
G01 Z0
G00 Z2.0000
G00 X62.9920 Y82.2960
G01 Z-2.1000
G01 Z0
G00 Z2.0000
G00 X62.9920 Y84.8360
G01 Z-2.1000
G01 Z0
G00 Z2.0000
G00 X62.9920 Y89.6620
G01 Z-2.1000
G01 Z0
G00 Z2.0000
G00 X62.9920 Y92.2020
G01 Z-2.1000
G01 Z0
G00 Z2.0000
G00 X70.6120 Y92.2020
G01 Z-2.1000
G01 Z0
G00 Z2.0000
G00 X70.6120 Y89.6620
G01 Z-2.1000
G01 Z0
G00 Z2.0000
G00 X70.6120 Y84.8360
G01 Z-2.1000
G01 Z0
G00 Z2.0000
G00 X81.8460 Y81.1340
G01 Z-2.1000
G01 Z0
G00 Z2.0000
G00 X81.8460 Y78.5940
G01 Z-2.1000
G01 Z0
G00 Z2.0000
G00 X81.8460 Y76.0540
G01 Z-2.1000
G01 Z0
G00 Z2.0000
G00 X81.8460 Y73.5140
G01 Z-2.1000
G01 Z0
G00 Z2.0000
G00 X90.6780 Y68.5800
G01 Z-2.1000
G01 Z0
G00 Z2.0000
G00 X92.4560 Y65.7860
G01 Z-2.1000
G01 Z0
G00 Z2.0000
G00 X97.0860 Y70.9740
G01 Z-2.1000
G01 Z0
G00 Z2.0000
G00 X97.0860 Y73.5140
G01 Z-2.1000
G01 Z0
G00 Z2.0000
G00 X97.0860 Y76.0540
G01 Z-2.1000
G01 Z0
G00 Z2.0000
G00 X97.0860 Y78.5940
G01 Z-2.1000
G01 Z0
G00 Z2.0000
G00 X97.0860 Y81.1340
G01 Z-2.1000
G01 Z0
G00 Z2.0000
G00 X97.0860 Y83.6740
G01 Z-2.1000
G01 Z0
G00 Z2.0000
G00 X102.1080 Y75.9460
G01 Z-2.1000
G01 Z0
G00 Z2.0000
G00 X101.0920 Y69.5960
G01 Z-2.1000
G01 Z0
G00 Z2.0000
G00 X97.0860 Y68.4340
G01 Z-2.1000
G01 Z0
G00 Z2.0000
G00 X97.0860 Y65.8940
G01 Z-2.1000
G01 Z0
G00 Z2.0000
G00 X97.0860 Y63.3540
G01 Z-2.1000
G01 Z0
G00 Z2.0000
G00 X97.0860 Y60.8140
G01 Z-2.1000
G01 Z0
G00 Z2.0000
G00 X97.0860 Y58.2740
G01 Z-2.1000
G01 Z0
G00 Z2.0000
G00 X97.0860 Y55.7340
G01 Z-2.1000
G01 Z0
G00 Z2.0000
G00 X101.6000 Y55.8800
G01 Z-2.1000
G01 Z0
G00 Z2.0000
G00 X97.0860 Y53.1940
G01 Z-2.1000
G01 Z0
G00 Z2.0000
G00 X97.0860 Y50.6540
G01 Z-2.1000
G01 Z0
G00 Z2.0000
G00 X97.0860 Y48.1140
G01 Z-2.1000
G01 Z0
G00 Z2.0000
G00 X97.6260 Y43.3040
G01 Z-2.1000
G01 Z0
G00 Z2.0000
G00 X92.8130 Y41.0730
G01 Z-2.1000
G01 Z0
G00 Z2.0000
G00 X91.1420 Y38.4830
G01 Z-2.1000
G01 Z0
G00 Z2.0000
G00 X82.9130 Y15.0620
G01 Z-2.1000
G01 Z0
G00 Z2.0000
G00 X82.9130 Y12.5220
G01 Z-2.1000
G01 Z0
G00 Z2.0000
G00 X75.2930 Y12.5220
G01 Z-2.1000
G01 Z0
G00 Z2.0000
G00 X75.2930 Y15.0620
G01 Z-2.1000
G01 Z0
G00 Z2.0000
G00 X66.5480 Y14.9860
G01 Z-2.1000
G01 Z0
G00 Z2.0000
G00 X66.5480 Y12.4460
G01 Z-2.1000
G01 Z0
G00 Z2.0000
G00 X58.9280 Y12.4460
G01 Z-2.1000
G01 Z0
G00 Z2.0000
G00 X58.9280 Y14.9860
G01 Z-2.1000
G01 Z0
G00 Z2.0000
G00 X43.8150 Y24.1300
G01 Z-2.1000
G01 Z0
G00 Z2.0000
G00 X41.2750 Y24.1300
G01 Z-2.1000
G01 Z0
G00 Z2.0000
G00 X43.8150 Y31.7500
G01 Z-2.1000
G01 Z0
G00 Z2.0000
G00 X41.2750 Y31.7500
G01 Z-2.1000
G01 Z0
G00 Z2.0000
G00 X34.7980 Y30.9880
G01 Z-2.1000
G01 Z0
G00 Z2.0000
G00 X27.1780 Y30.9880
G01 Z-2.1000
G01 Z0
G00 Z2.0000
G00 X30.3960 Y42.8740
G01 Z-2.1000
G01 Z0
G00 Z2.0000
M05
G00 Z50.00
G00 X0.0Y0.0

G04 P0 ( dwell for no time -- G64 should not smooth over this point )
G00 Z10.000 ( retract )

M5 ( Spindle off. )
M9 ( Coolant off. )
M2 ( Program end. )