(G-CODE GENERATED BY FLATCAM v8.904 - www.flatcam.org - Version Date: 2019/01/25)

(Name: BoardVer1.drl_mill_cnc)
(Type: G-code from Geometry)
(Units: MM)

(Created on Sunday, 27 January 2019 at 21:27)

(TOOL DIAMETER: 0.17 mm)
(Feedrate: 400.0 mm/min)
(Feedrate_Z: 350.0 mm/min)
(Feedrate rapids 800.0 mm/min)

(Z_Cut: -2.2 mm)
(Z_Move: 2.0 mm)
(Z Toolchange: 50.0 mm)
(X,Y Toolchange: 0.0000, 0.0000 mm)
(Z Start: 1.0 mm)
(Z End: 20.0 mm)
(Steps per circle: 64)
(Postprocessor Geometry: default)
(Spindle Speed: 18000 RPM)
G94 ( Millimeters per minute feed rate. )
G21 ( Units == Millimeters. )
G90 ( Absolute coordinates. )
G64 P0.01000 ( set maximum deviation from commanded toolpath )
G21
G90
G94
G21
G90
G94

G01 F400.00
G00 Z2.0000
G00 Z1.0000
M03 S18000
G00 X2.3891 Y1.9050
G01 F350.00
G01 Z-2.2000
G01 F400.00
G01 X2.3872 Y1.8849
G01 X2.3813 Y1.8655
G01 X2.3718 Y1.8477
G01 X2.3589 Y1.8321
G01 X2.3433 Y1.8192
G01 X2.3255 Y1.8097
G01 X2.3061 Y1.8038
G01 X2.2860 Y1.8018
G01 X2.2659 Y1.8038
G01 X2.2465 Y1.8097
G01 X2.2287 Y1.8192
G01 X2.2131 Y1.8321
G01 X2.2002 Y1.8477
G01 X2.1907 Y1.8655
G01 X2.1848 Y1.8849
G01 X2.1829 Y1.9050
G01 X2.1848 Y1.9251
G01 X2.1907 Y1.9445
G01 X2.2002 Y1.9623
G01 X2.2131 Y1.9779
G01 X2.2287 Y1.9908
G01 X2.2465 Y2.0003
G01 X2.2659 Y2.0062
G01 X2.2860 Y2.0082
G01 X2.3061 Y2.0062
G01 X2.3255 Y2.0003
G01 X2.3433 Y1.9908
G01 X2.3589 Y1.9779
G01 X2.3718 Y1.9623
G01 X2.3813 Y1.9445
G01 X2.3872 Y1.9251
G01 X2.3891 Y1.9050
G00 Z2.0000
G00 X8.2392 Y5.2240
G01 F350.00
G01 Z-2.2000
G01 F400.00
G01 X8.2334 Y5.1061
G01 X8.2160 Y4.9893
G01 X8.1873 Y4.8747
G01 X8.1476 Y4.7636
G01 X8.0971 Y4.6568
G01 X8.0364 Y4.5556
G01 X7.9660 Y4.4607
G01 X7.8868 Y4.3732
G01 X7.7993 Y4.2940
G01 X7.7044 Y4.2236
G01 X7.6032 Y4.1629
G01 X7.4964 Y4.1124
G01 X7.3853 Y4.0727
G01 X7.2707 Y4.0440
G01 X7.1539 Y4.0266
G01 X7.0360 Y4.0209
G01 X6.9181 Y4.0266
G01 X6.8013 Y4.0440
G01 X6.6867 Y4.0727
G01 X6.5756 Y4.1124
G01 X6.4688 Y4.1629
G01 X6.3676 Y4.2236
G01 X6.2727 Y4.2940
G01 X6.1852 Y4.3732
G01 X6.1060 Y4.4607
G01 X6.0356 Y4.5556
G01 X5.9749 Y4.6568
G01 X5.9244 Y4.7636
G01 X5.8847 Y4.8747
G01 X5.8560 Y4.9893
G01 X5.8386 Y5.1061
G01 X5.8328 Y5.2240
G01 X5.8386 Y5.3419
G01 X5.8560 Y5.4587
G01 X5.8847 Y5.5733
G01 X5.9244 Y5.6844
G01 X5.9749 Y5.7912
G01 X6.0356 Y5.8924
G01 X6.1060 Y5.9873
G01 X6.1852 Y6.0748
G01 X6.2727 Y6.1540
G01 X6.3676 Y6.2244
G01 X6.4688 Y6.2851
G01 X6.5756 Y6.3356
G01 X6.6867 Y6.3753
G01 X6.8013 Y6.4040
G01 X6.9181 Y6.4214
G01 X7.0360 Y6.4272
G01 X7.1539 Y6.4214
G01 X7.2707 Y6.4040
G01 X7.3853 Y6.3753
G01 X7.4964 Y6.3356
G01 X7.6032 Y6.2851
G01 X7.7044 Y6.2244
G01 X7.7993 Y6.1540
G01 X7.8868 Y6.0748
G01 X7.9660 Y5.9873
G01 X8.0364 Y5.8924
G01 X8.0971 Y5.7912
G01 X8.1476 Y5.6844
G01 X8.1873 Y5.5733
G01 X8.2160 Y5.4587
G01 X8.2334 Y5.3419
G01 X8.2392 Y5.2240
G00 Z2.0000
G00 X8.7772 Y12.6940
G01 F350.00
G01 Z-2.2000
G01 F400.00
G01 X8.7714 Y12.5761
G01 X8.7540 Y12.4593
G01 X8.7253 Y12.3447
G01 X8.6856 Y12.2336
G01 X8.6351 Y12.1268
G01 X8.5744 Y12.0256
G01 X8.5040 Y11.9307
G01 X8.4248 Y11.8432
G01 X8.3373 Y11.7640
G01 X8.2424 Y11.6936
G01 X8.1412 Y11.6329
G01 X8.0344 Y11.5824
G01 X7.9233 Y11.5427
G01 X7.8087 Y11.5140
G01 X7.6919 Y11.4966
G01 X7.5740 Y11.4909
G01 X7.4561 Y11.4966
G01 X7.3393 Y11.5140
G01 X7.2247 Y11.5427
G01 X7.1136 Y11.5824
G01 X7.0068 Y11.6329
G01 X6.9056 Y11.6936
G01 X6.8107 Y11.7640
G01 X6.7232 Y11.8432
G01 X6.6440 Y11.9307
G01 X6.5736 Y12.0256
G01 X6.5129 Y12.1268
G01 X6.4624 Y12.2336
G01 X6.4227 Y12.3447
G01 X6.3940 Y12.4593
G01 X6.3766 Y12.5761
G01 X6.3708 Y12.6940
G01 X6.3766 Y12.8119
G01 X6.3940 Y12.9287
G01 X6.4227 Y13.0433
G01 X6.4624 Y13.1544
G01 X6.5129 Y13.2612
G01 X6.5736 Y13.3624
G01 X6.6440 Y13.4573
G01 X6.7232 Y13.5448
G01 X6.8107 Y13.6240
G01 X6.9056 Y13.6944
G01 X7.0068 Y13.7551
G01 X7.1136 Y13.8056
G01 X7.2247 Y13.8453
G01 X7.3393 Y13.8740
G01 X7.4561 Y13.8914
G01 X7.5740 Y13.8972
G01 X7.6919 Y13.8914
G01 X7.8087 Y13.8740
G01 X7.9233 Y13.8453
G01 X8.0344 Y13.8056
G01 X8.1412 Y13.7551
G01 X8.2424 Y13.6944
G01 X8.3373 Y13.6240
G01 X8.4248 Y13.5448
G01 X8.5040 Y13.4573
G01 X8.5744 Y13.3624
G01 X8.6351 Y13.2612
G01 X8.6856 Y13.1544
G01 X8.7253 Y13.0433
G01 X8.7540 Y12.9287
G01 X8.7714 Y12.8119
G01 X8.7772 Y12.6940
G00 Z2.0000
G00 X7.9771 Y19.6540
G01 F350.00
G01 Z-2.2000
G01 F400.00
G01 X7.9752 Y19.6339
G01 X7.9693 Y19.6145
G01 X7.9598 Y19.5967
G01 X7.9469 Y19.5811
G01 X7.9313 Y19.5682
G01 X7.9135 Y19.5587
G01 X7.8941 Y19.5528
G01 X7.8740 Y19.5509
G01 X7.8539 Y19.5528
G01 X7.8345 Y19.5587
G01 X7.8167 Y19.5682
G01 X7.8011 Y19.5811
G01 X7.7882 Y19.5967
G01 X7.7787 Y19.6145
G01 X7.7728 Y19.6339
G01 X7.7708 Y19.6540
G01 X7.7728 Y19.6741
G01 X7.7787 Y19.6935
G01 X7.7882 Y19.7113
G01 X7.8011 Y19.7269
G01 X7.8167 Y19.7398
G01 X7.8345 Y19.7493
G01 X7.8539 Y19.7552
G01 X7.8740 Y19.7571
G01 X7.8941 Y19.7552
G01 X7.9135 Y19.7493
G01 X7.9313 Y19.7398
G01 X7.9469 Y19.7269
G01 X7.9598 Y19.7113
G01 X7.9693 Y19.6935
G01 X7.9752 Y19.6741
G01 X7.9771 Y19.6540
G00 Z2.0000
G00 X7.9771 Y22.4240
G01 F350.00
G01 Z-2.2000
G01 F400.00
G01 X7.9752 Y22.4039
G01 X7.9693 Y22.3845
G01 X7.9598 Y22.3667
G01 X7.9469 Y22.3511
G01 X7.9313 Y22.3382
G01 X7.9135 Y22.3287
G01 X7.8941 Y22.3228
G01 X7.8740 Y22.3209
G01 X7.8539 Y22.3228
G01 X7.8345 Y22.3287
G01 X7.8167 Y22.3382
G01 X7.8011 Y22.3511
G01 X7.7882 Y22.3667
G01 X7.7787 Y22.3845
G01 X7.7728 Y22.4039
G01 X7.7708 Y22.4240
G01 X7.7728 Y22.4441
G01 X7.7787 Y22.4635
G01 X7.7882 Y22.4813
G01 X7.8011 Y22.4969
G01 X7.8167 Y22.5098
G01 X7.8345 Y22.5193
G01 X7.8539 Y22.5252
G01 X7.8740 Y22.5271
G01 X7.8941 Y22.5252
G01 X7.9135 Y22.5193
G01 X7.9313 Y22.5098
G01 X7.9469 Y22.4969
G01 X7.9598 Y22.4813
G01 X7.9693 Y22.4635
G01 X7.9752 Y22.4441
G01 X7.9771 Y22.4240
G00 Z2.0000
G00 X7.9771 Y25.1940
G01 F350.00
G01 Z-2.2000
G01 F400.00
G01 X7.9752 Y25.1739
G01 X7.9693 Y25.1545
G01 X7.9598 Y25.1367
G01 X7.9469 Y25.1211
G01 X7.9313 Y25.1082
G01 X7.9135 Y25.0987
G01 X7.8941 Y25.0928
G01 X7.8740 Y25.0908
G01 X7.8539 Y25.0928
G01 X7.8345 Y25.0987
G01 X7.8167 Y25.1082
G01 X7.8011 Y25.1211
G01 X7.7882 Y25.1367
G01 X7.7787 Y25.1545
G01 X7.7728 Y25.1739
G01 X7.7708 Y25.1940
G01 X7.7728 Y25.2141
G01 X7.7787 Y25.2335
G01 X7.7882 Y25.2513
G01 X7.8011 Y25.2669
G01 X7.8167 Y25.2798
G01 X7.8345 Y25.2893
G01 X7.8539 Y25.2952
G01 X7.8740 Y25.2971
G01 X7.8941 Y25.2952
G01 X7.9135 Y25.2893
G01 X7.9313 Y25.2798
G01 X7.9469 Y25.2669
G01 X7.9598 Y25.2513
G01 X7.9693 Y25.2335
G01 X7.9752 Y25.2141
G01 X7.9771 Y25.1940
G00 Z2.0000
G00 X7.9771 Y27.9640
G01 F350.00
G01 Z-2.2000
G01 F400.00
G01 X7.9752 Y27.9439
G01 X7.9693 Y27.9245
G01 X7.9598 Y27.9067
G01 X7.9469 Y27.8911
G01 X7.9313 Y27.8782
G01 X7.9135 Y27.8687
G01 X7.8941 Y27.8628
G01 X7.8740 Y27.8608
G01 X7.8539 Y27.8628
G01 X7.8345 Y27.8687
G01 X7.8167 Y27.8782
G01 X7.8011 Y27.8911
G01 X7.7882 Y27.9067
G01 X7.7787 Y27.9245
G01 X7.7728 Y27.9439
G01 X7.7708 Y27.9640
G01 X7.7728 Y27.9841
G01 X7.7787 Y28.0035
G01 X7.7882 Y28.0213
G01 X7.8011 Y28.0369
G01 X7.8167 Y28.0498
G01 X7.8345 Y28.0593
G01 X7.8539 Y28.0652
G01 X7.8740 Y28.0671
G01 X7.8941 Y28.0652
G01 X7.9135 Y28.0593
G01 X7.9313 Y28.0498
G01 X7.9469 Y28.0369
G01 X7.9598 Y28.0213
G01 X7.9693 Y28.0035
G01 X7.9752 Y27.9841
G01 X7.9771 Y27.9640
G00 Z2.0000
G00 X7.9771 Y30.7340
G01 F350.00
G01 Z-2.2000
G01 F400.00
G01 X7.9752 Y30.7139
G01 X7.9693 Y30.6945
G01 X7.9598 Y30.6767
G01 X7.9469 Y30.6611
G01 X7.9313 Y30.6482
G01 X7.9135 Y30.6387
G01 X7.8941 Y30.6328
G01 X7.8740 Y30.6309
G01 X7.8539 Y30.6328
G01 X7.8345 Y30.6387
G01 X7.8167 Y30.6482
G01 X7.8011 Y30.6611
G01 X7.7882 Y30.6767
G01 X7.7787 Y30.6945
G01 X7.7728 Y30.7139
G01 X7.7708 Y30.7340
G01 X7.7728 Y30.7541
G01 X7.7787 Y30.7735
G01 X7.7882 Y30.7913
G01 X7.8011 Y30.8069
G01 X7.8167 Y30.8198
G01 X7.8345 Y30.8293
G01 X7.8539 Y30.8352
G01 X7.8740 Y30.8372
G01 X7.8941 Y30.8352
G01 X7.9135 Y30.8293
G01 X7.9313 Y30.8198
G01 X7.9469 Y30.8069
G01 X7.9598 Y30.7913
G01 X7.9693 Y30.7735
G01 X7.9752 Y30.7541
G01 X7.9771 Y30.7340
G00 Z2.0000
G00 X5.1372 Y29.3490
G01 F350.00
G01 Z-2.2000
G01 F400.00
G01 X5.1352 Y29.3289
G01 X5.1293 Y29.3095
G01 X5.1198 Y29.2917
G01 X5.1069 Y29.2761
G01 X5.0913 Y29.2632
G01 X5.0735 Y29.2537
G01 X5.0541 Y29.2478
G01 X5.0340 Y29.2459
G01 X5.0139 Y29.2478
G01 X4.9945 Y29.2537
G01 X4.9767 Y29.2632
G01 X4.9611 Y29.2761
G01 X4.9482 Y29.2917
G01 X4.9387 Y29.3095
G01 X4.9328 Y29.3289
G01 X4.9308 Y29.3490
G01 X4.9328 Y29.3691
G01 X4.9387 Y29.3885
G01 X4.9482 Y29.4063
G01 X4.9611 Y29.4219
G01 X4.9767 Y29.4348
G01 X4.9945 Y29.4443
G01 X5.0139 Y29.4502
G01 X5.0340 Y29.4521
G01 X5.0541 Y29.4502
G01 X5.0735 Y29.4443
G01 X5.0913 Y29.4348
G01 X5.1069 Y29.4219
G01 X5.1198 Y29.4063
G01 X5.1293 Y29.3885
G01 X5.1352 Y29.3691
G01 X5.1372 Y29.3490
G00 Z2.0000
G00 X5.1372 Y26.5790
G01 F350.00
G01 Z-2.2000
G01 F400.00
G01 X5.1352 Y26.5589
G01 X5.1293 Y26.5395
G01 X5.1198 Y26.5217
G01 X5.1069 Y26.5061
G01 X5.0913 Y26.4932
G01 X5.0735 Y26.4837
G01 X5.0541 Y26.4778
G01 X5.0340 Y26.4759
G01 X5.0139 Y26.4778
G01 X4.9945 Y26.4837
G01 X4.9767 Y26.4932
G01 X4.9611 Y26.5061
G01 X4.9482 Y26.5217
G01 X4.9387 Y26.5395
G01 X4.9328 Y26.5589
G01 X4.9308 Y26.5790
G01 X4.9328 Y26.5991
G01 X4.9387 Y26.6185
G01 X4.9482 Y26.6363
G01 X4.9611 Y26.6519
G01 X4.9767 Y26.6648
G01 X4.9945 Y26.6743
G01 X5.0139 Y26.6802
G01 X5.0340 Y26.6822
G01 X5.0541 Y26.6802
G01 X5.0735 Y26.6743
G01 X5.0913 Y26.6648
G01 X5.1069 Y26.6519
G01 X5.1198 Y26.6363
G01 X5.1293 Y26.6185
G01 X5.1352 Y26.5991
G01 X5.1372 Y26.5790
G00 Z2.0000
G00 X5.1372 Y23.8090
G01 F350.00
G01 Z-2.2000
G01 F400.00
G01 X5.1352 Y23.7889
G01 X5.1293 Y23.7695
G01 X5.1198 Y23.7517
G01 X5.1069 Y23.7361
G01 X5.0913 Y23.7232
G01 X5.0735 Y23.7137
G01 X5.0541 Y23.7078
G01 X5.0340 Y23.7059
G01 X5.0139 Y23.7078
G01 X4.9945 Y23.7137
G01 X4.9767 Y23.7232
G01 X4.9611 Y23.7361
G01 X4.9482 Y23.7517
G01 X4.9387 Y23.7695
G01 X4.9328 Y23.7889
G01 X4.9308 Y23.8090
G01 X4.9328 Y23.8291
G01 X4.9387 Y23.8485
G01 X4.9482 Y23.8663
G01 X4.9611 Y23.8819
G01 X4.9767 Y23.8948
G01 X4.9945 Y23.9043
G01 X5.0139 Y23.9102
G01 X5.0340 Y23.9122
G01 X5.0541 Y23.9102
G01 X5.0735 Y23.9043
G01 X5.0913 Y23.8948
G01 X5.1069 Y23.8819
G01 X5.1198 Y23.8663
G01 X5.1293 Y23.8485
G01 X5.1352 Y23.8291
G01 X5.1372 Y23.8090
G00 Z2.0000
G00 X5.1372 Y21.0390
G01 F350.00
G01 Z-2.2000
G01 F400.00
G01 X5.1352 Y21.0189
G01 X5.1293 Y20.9995
G01 X5.1198 Y20.9817
G01 X5.1069 Y20.9661
G01 X5.0913 Y20.9532
G01 X5.0735 Y20.9437
G01 X5.0541 Y20.9378
G01 X5.0340 Y20.9359
G01 X5.0139 Y20.9378
G01 X4.9945 Y20.9437
G01 X4.9767 Y20.9532
G01 X4.9611 Y20.9661
G01 X4.9482 Y20.9817
G01 X4.9387 Y20.9995
G01 X4.9328 Y21.0189
G01 X4.9308 Y21.0390
G01 X4.9328 Y21.0591
G01 X4.9387 Y21.0785
G01 X4.9482 Y21.0963
G01 X4.9611 Y21.1119
G01 X4.9767 Y21.1248
G01 X4.9945 Y21.1343
G01 X5.0139 Y21.1402
G01 X5.0340 Y21.1422
G01 X5.0541 Y21.1402
G01 X5.0735 Y21.1343
G01 X5.0913 Y21.1248
G01 X5.1069 Y21.1119
G01 X5.1198 Y21.0963
G01 X5.1293 Y21.0785
G01 X5.1352 Y21.0591
G01 X5.1372 Y21.0390
G00 Z2.0000
G00 X18.2642 Y19.3040
G01 F350.00
G01 Z-2.2000
G01 F400.00
G01 X18.2622 Y19.2839
G01 X18.2563 Y19.2645
G01 X18.2468 Y19.2467
G01 X18.2339 Y19.2311
G01 X18.2183 Y19.2182
G01 X18.2005 Y19.2087
G01 X18.1811 Y19.2028
G01 X18.1610 Y19.2008
G01 X18.1409 Y19.2028
G01 X18.1215 Y19.2087
G01 X18.1037 Y19.2182
G01 X18.0881 Y19.2311
G01 X18.0752 Y19.2467
G01 X18.0657 Y19.2645
G01 X18.0598 Y19.2839
G01 X18.0579 Y19.3040
G01 X18.0598 Y19.3241
G01 X18.0657 Y19.3435
G01 X18.0752 Y19.3613
G01 X18.0881 Y19.3769
G01 X18.1037 Y19.3898
G01 X18.1215 Y19.3993
G01 X18.1409 Y19.4052
G01 X18.1610 Y19.4071
G01 X18.1811 Y19.4052
G01 X18.2005 Y19.3993
G01 X18.2183 Y19.3898
G01 X18.2339 Y19.3769
G01 X18.2468 Y19.3613
G01 X18.2563 Y19.3435
G01 X18.2622 Y19.3241
G01 X18.2642 Y19.3040
G00 Z2.0000
G00 X18.2642 Y16.7640
G01 F350.00
G01 Z-2.2000
G01 F400.00
G01 X18.2622 Y16.7439
G01 X18.2563 Y16.7245
G01 X18.2468 Y16.7067
G01 X18.2339 Y16.6911
G01 X18.2183 Y16.6782
G01 X18.2005 Y16.6687
G01 X18.1811 Y16.6628
G01 X18.1610 Y16.6608
G01 X18.1409 Y16.6628
G01 X18.1215 Y16.6687
G01 X18.1037 Y16.6782
G01 X18.0881 Y16.6911
G01 X18.0752 Y16.7067
G01 X18.0657 Y16.7245
G01 X18.0598 Y16.7439
G01 X18.0579 Y16.7640
G01 X18.0598 Y16.7841
G01 X18.0657 Y16.8035
G01 X18.0752 Y16.8213
G01 X18.0881 Y16.8369
G01 X18.1037 Y16.8498
G01 X18.1215 Y16.8593
G01 X18.1409 Y16.8652
G01 X18.1610 Y16.8671
G01 X18.1811 Y16.8652
G01 X18.2005 Y16.8593
G01 X18.2183 Y16.8498
G01 X18.2339 Y16.8369
G01 X18.2468 Y16.8213
G01 X18.2563 Y16.8035
G01 X18.2622 Y16.7841
G01 X18.2642 Y16.7640
G00 Z2.0000
G00 X18.2642 Y14.2240
G01 F350.00
G01 Z-2.2000
G01 F400.00
G01 X18.2622 Y14.2039
G01 X18.2563 Y14.1845
G01 X18.2468 Y14.1667
G01 X18.2339 Y14.1511
G01 X18.2183 Y14.1382
G01 X18.2005 Y14.1287
G01 X18.1811 Y14.1228
G01 X18.1610 Y14.1209
G01 X18.1409 Y14.1228
G01 X18.1215 Y14.1287
G01 X18.1037 Y14.1382
G01 X18.0881 Y14.1511
G01 X18.0752 Y14.1667
G01 X18.0657 Y14.1845
G01 X18.0598 Y14.2039
G01 X18.0579 Y14.2240
G01 X18.0598 Y14.2441
G01 X18.0657 Y14.2635
G01 X18.0752 Y14.2813
G01 X18.0881 Y14.2969
G01 X18.1037 Y14.3098
G01 X18.1215 Y14.3193
G01 X18.1409 Y14.3252
G01 X18.1610 Y14.3271
G01 X18.1811 Y14.3252
G01 X18.2005 Y14.3193
G01 X18.2183 Y14.3098
G01 X18.2339 Y14.2969
G01 X18.2468 Y14.2813
G01 X18.2563 Y14.2635
G01 X18.2622 Y14.2441
G01 X18.2642 Y14.2240
G00 Z2.0000
G00 X18.2642 Y23.8760
G01 F350.00
G01 Z-2.2000
G01 F400.00
G01 X18.2622 Y23.8559
G01 X18.2563 Y23.8365
G01 X18.2468 Y23.8187
G01 X18.2339 Y23.8031
G01 X18.2183 Y23.7902
G01 X18.2005 Y23.7807
G01 X18.1811 Y23.7748
G01 X18.1610 Y23.7729
G01 X18.1409 Y23.7748
G01 X18.1215 Y23.7807
G01 X18.1037 Y23.7902
G01 X18.0881 Y23.8031
G01 X18.0752 Y23.8187
G01 X18.0657 Y23.8365
G01 X18.0598 Y23.8559
G01 X18.0579 Y23.8760
G01 X18.0598 Y23.8961
G01 X18.0657 Y23.9155
G01 X18.0752 Y23.9333
G01 X18.0881 Y23.9489
G01 X18.1037 Y23.9618
G01 X18.1215 Y23.9713
G01 X18.1409 Y23.9772
G01 X18.1610 Y23.9792
G01 X18.1811 Y23.9772
G01 X18.2005 Y23.9713
G01 X18.2183 Y23.9618
G01 X18.2339 Y23.9489
G01 X18.2468 Y23.9333
G01 X18.2563 Y23.9155
G01 X18.2622 Y23.8961
G01 X18.2642 Y23.8760
G00 Z2.0000
G00 X18.2642 Y26.4160
G01 F350.00
G01 Z-2.2000
G01 F400.00
G01 X18.2622 Y26.3959
G01 X18.2563 Y26.3765
G01 X18.2468 Y26.3587
G01 X18.2339 Y26.3431
G01 X18.2183 Y26.3302
G01 X18.2005 Y26.3207
G01 X18.1811 Y26.3148
G01 X18.1610 Y26.3129
G01 X18.1409 Y26.3148
G01 X18.1215 Y26.3207
G01 X18.1037 Y26.3302
G01 X18.0881 Y26.3431
G01 X18.0752 Y26.3587
G01 X18.0657 Y26.3765
G01 X18.0598 Y26.3959
G01 X18.0579 Y26.4160
G01 X18.0598 Y26.4361
G01 X18.0657 Y26.4555
G01 X18.0752 Y26.4733
G01 X18.0881 Y26.4889
G01 X18.1037 Y26.5018
G01 X18.1215 Y26.5113
G01 X18.1409 Y26.5172
G01 X18.1610 Y26.5191
G01 X18.1811 Y26.5172
G01 X18.2005 Y26.5113
G01 X18.2183 Y26.5018
G01 X18.2339 Y26.4889
G01 X18.2468 Y26.4733
G01 X18.2563 Y26.4555
G01 X18.2622 Y26.4361
G01 X18.2642 Y26.4160
G00 Z2.0000
G00 X18.2642 Y28.9560
G01 F350.00
G01 Z-2.2000
G01 F400.00
G01 X18.2622 Y28.9359
G01 X18.2563 Y28.9165
G01 X18.2468 Y28.8987
G01 X18.2339 Y28.8831
G01 X18.2183 Y28.8702
G01 X18.2005 Y28.8607
G01 X18.1811 Y28.8548
G01 X18.1610 Y28.8529
G01 X18.1409 Y28.8548
G01 X18.1215 Y28.8607
G01 X18.1037 Y28.8702
G01 X18.0881 Y28.8831
G01 X18.0752 Y28.8987
G01 X18.0657 Y28.9165
G01 X18.0598 Y28.9359
G01 X18.0579 Y28.9560
G01 X18.0598 Y28.9761
G01 X18.0657 Y28.9955
G01 X18.0752 Y29.0133
G01 X18.0881 Y29.0289
G01 X18.1037 Y29.0418
G01 X18.1215 Y29.0513
G01 X18.1409 Y29.0572
G01 X18.1610 Y29.0591
G01 X18.1811 Y29.0572
G01 X18.2005 Y29.0513
G01 X18.2183 Y29.0418
G01 X18.2339 Y29.0289
G01 X18.2468 Y29.0133
G01 X18.2563 Y28.9955
G01 X18.2622 Y28.9761
G01 X18.2642 Y28.9560
G00 Z2.0000
G00 X8.7772 Y37.6940
G01 F350.00
G01 Z-2.2000
G01 F400.00
G01 X8.7714 Y37.5761
G01 X8.7540 Y37.4593
G01 X8.7253 Y37.3447
G01 X8.6856 Y37.2336
G01 X8.6351 Y37.1268
G01 X8.5744 Y37.0256
G01 X8.5040 Y36.9307
G01 X8.4248 Y36.8432
G01 X8.3373 Y36.7640
G01 X8.2424 Y36.6936
G01 X8.1412 Y36.6329
G01 X8.0344 Y36.5824
G01 X7.9233 Y36.5427
G01 X7.8087 Y36.5140
G01 X7.6919 Y36.4966
G01 X7.5740 Y36.4909
G01 X7.4561 Y36.4966
G01 X7.3393 Y36.5140
G01 X7.2247 Y36.5427
G01 X7.1136 Y36.5824
G01 X7.0068 Y36.6329
G01 X6.9056 Y36.6936
G01 X6.8107 Y36.7640
G01 X6.7232 Y36.8432
G01 X6.6440 Y36.9307
G01 X6.5736 Y37.0256
G01 X6.5129 Y37.1268
G01 X6.4624 Y37.2336
G01 X6.4227 Y37.3447
G01 X6.3940 Y37.4593
G01 X6.3766 Y37.5761
G01 X6.3708 Y37.6940
G01 X6.3766 Y37.8119
G01 X6.3940 Y37.9287
G01 X6.4227 Y38.0433
G01 X6.4624 Y38.1544
G01 X6.5129 Y38.2612
G01 X6.5736 Y38.3624
G01 X6.6440 Y38.4573
G01 X6.7232 Y38.5448
G01 X6.8107 Y38.6240
G01 X6.9056 Y38.6944
G01 X7.0068 Y38.7551
G01 X7.1136 Y38.8056
G01 X7.2247 Y38.8453
G01 X7.3393 Y38.8740
G01 X7.4561 Y38.8914
G01 X7.5740 Y38.8972
G01 X7.6919 Y38.8914
G01 X7.8087 Y38.8740
G01 X7.9233 Y38.8453
G01 X8.0344 Y38.8056
G01 X8.1412 Y38.7551
G01 X8.2424 Y38.6944
G01 X8.3373 Y38.6240
G01 X8.4248 Y38.5448
G01 X8.5040 Y38.4573
G01 X8.5744 Y38.3624
G01 X8.6351 Y38.2612
G01 X8.6856 Y38.1544
G01 X8.7253 Y38.0433
G01 X8.7540 Y37.9287
G01 X8.7714 Y37.8119
G01 X8.7772 Y37.6940
G00 Z2.0000
G00 X6.2992 Y46.0000
G01 F350.00
G01 Z-2.2000
G01 F400.00
G01 X6.2982 Y45.9801
G01 X6.2952 Y45.9604
G01 X6.2904 Y45.9410
G01 X6.2837 Y45.9223
G01 X6.2752 Y45.9042
G01 X6.2649 Y45.8871
G01 X6.2530 Y45.8711
G01 X6.2396 Y45.8564
G01 X6.2249 Y45.8430
G01 X6.2089 Y45.8311
G01 X6.1918 Y45.8208
G01 X6.1737 Y45.8123
G01 X6.1550 Y45.8056
G01 X6.1356 Y45.8008
G01 X6.1159 Y45.7978
G01 X6.0960 Y45.7968
G01 X6.0761 Y45.7978
G01 X6.0564 Y45.8008
G01 X6.0370 Y45.8056
G01 X6.0183 Y45.8123
G01 X6.0002 Y45.8208
G01 X5.9831 Y45.8311
G01 X5.9671 Y45.8430
G01 X5.9524 Y45.8564
G01 X5.9390 Y45.8711
G01 X5.9271 Y45.8871
G01 X5.9168 Y45.9042
G01 X5.9083 Y45.9223
G01 X5.9016 Y45.9410
G01 X5.8968 Y45.9604
G01 X5.8938 Y45.9801
G01 X5.8929 Y46.0000
G01 X5.8938 Y46.0199
G01 X5.8968 Y46.0396
G01 X5.9016 Y46.0590
G01 X5.9083 Y46.0777
G01 X5.9168 Y46.0958
G01 X5.9271 Y46.1129
G01 X5.9390 Y46.1289
G01 X5.9524 Y46.1436
G01 X5.9671 Y46.1570
G01 X5.9831 Y46.1689
G01 X6.0002 Y46.1792
G01 X6.0183 Y46.1877
G01 X6.0370 Y46.1944
G01 X6.0564 Y46.1992
G01 X6.0761 Y46.2022
G01 X6.0960 Y46.2032
G01 X6.1159 Y46.2022
G01 X6.1356 Y46.1992
G01 X6.1550 Y46.1944
G01 X6.1737 Y46.1877
G01 X6.1918 Y46.1792
G01 X6.2089 Y46.1689
G01 X6.2249 Y46.1570
G01 X6.2396 Y46.1436
G01 X6.2530 Y46.1289
G01 X6.2649 Y46.1129
G01 X6.2752 Y46.0958
G01 X6.2837 Y46.0777
G01 X6.2904 Y46.0590
G01 X6.2952 Y46.0396
G01 X6.2982 Y46.0199
G01 X6.2992 Y46.0000
G00 Z2.0000
G00 X6.2992 Y49.5000
G01 F350.00
G01 Z-2.2000
G01 F400.00
G01 X6.2982 Y49.4801
G01 X6.2952 Y49.4604
G01 X6.2904 Y49.4410
G01 X6.2837 Y49.4223
G01 X6.2752 Y49.4042
G01 X6.2649 Y49.3871
G01 X6.2530 Y49.3711
G01 X6.2396 Y49.3564
G01 X6.2249 Y49.3430
G01 X6.2089 Y49.3311
G01 X6.1918 Y49.3208
G01 X6.1737 Y49.3123
G01 X6.1550 Y49.3056
G01 X6.1356 Y49.3008
G01 X6.1159 Y49.2978
G01 X6.0960 Y49.2968
G01 X6.0761 Y49.2978
G01 X6.0564 Y49.3008
G01 X6.0370 Y49.3056
G01 X6.0183 Y49.3123
G01 X6.0002 Y49.3208
G01 X5.9831 Y49.3311
G01 X5.9671 Y49.3430
G01 X5.9524 Y49.3564
G01 X5.9390 Y49.3711
G01 X5.9271 Y49.3871
G01 X5.9168 Y49.4042
G01 X5.9083 Y49.4223
G01 X5.9016 Y49.4410
G01 X5.8968 Y49.4604
G01 X5.8938 Y49.4801
G01 X5.8929 Y49.5000
G01 X5.8938 Y49.5199
G01 X5.8968 Y49.5396
G01 X5.9016 Y49.5590
G01 X5.9083 Y49.5777
G01 X5.9168 Y49.5958
G01 X5.9271 Y49.6129
G01 X5.9390 Y49.6289
G01 X5.9524 Y49.6436
G01 X5.9671 Y49.6570
G01 X5.9831 Y49.6689
G01 X6.0002 Y49.6792
G01 X6.0183 Y49.6877
G01 X6.0370 Y49.6944
G01 X6.0564 Y49.6992
G01 X6.0761 Y49.7022
G01 X6.0960 Y49.7032
G01 X6.1159 Y49.7022
G01 X6.1356 Y49.6992
G01 X6.1550 Y49.6944
G01 X6.1737 Y49.6877
G01 X6.1918 Y49.6792
G01 X6.2089 Y49.6689
G01 X6.2249 Y49.6570
G01 X6.2396 Y49.6436
G01 X6.2530 Y49.6289
G01 X6.2649 Y49.6129
G01 X6.2752 Y49.5958
G01 X6.2837 Y49.5777
G01 X6.2904 Y49.5590
G01 X6.2952 Y49.5396
G01 X6.2982 Y49.5199
G01 X6.2992 Y49.5000
G00 Z2.0000
G00 X6.2992 Y53.0000
G01 F350.00
G01 Z-2.2000
G01 F400.00
G01 X6.2982 Y52.9801
G01 X6.2952 Y52.9604
G01 X6.2904 Y52.9410
G01 X6.2837 Y52.9223
G01 X6.2752 Y52.9042
G01 X6.2649 Y52.8871
G01 X6.2530 Y52.8711
G01 X6.2396 Y52.8564
G01 X6.2249 Y52.8430
G01 X6.2089 Y52.8311
G01 X6.1918 Y52.8208
G01 X6.1737 Y52.8123
G01 X6.1550 Y52.8056
G01 X6.1356 Y52.8008
G01 X6.1159 Y52.7978
G01 X6.0960 Y52.7968
G01 X6.0761 Y52.7978
G01 X6.0564 Y52.8008
G01 X6.0370 Y52.8056
G01 X6.0183 Y52.8123
G01 X6.0002 Y52.8208
G01 X5.9831 Y52.8311
G01 X5.9671 Y52.8430
G01 X5.9524 Y52.8564
G01 X5.9390 Y52.8711
G01 X5.9271 Y52.8871
G01 X5.9168 Y52.9042
G01 X5.9083 Y52.9223
G01 X5.9016 Y52.9410
G01 X5.8968 Y52.9604
G01 X5.8938 Y52.9801
G01 X5.8929 Y53.0000
G01 X5.8938 Y53.0199
G01 X5.8968 Y53.0396
G01 X5.9016 Y53.0590
G01 X5.9083 Y53.0777
G01 X5.9168 Y53.0958
G01 X5.9271 Y53.1129
G01 X5.9390 Y53.1289
G01 X5.9524 Y53.1436
G01 X5.9671 Y53.1570
G01 X5.9831 Y53.1689
G01 X6.0002 Y53.1792
G01 X6.0183 Y53.1877
G01 X6.0370 Y53.1944
G01 X6.0564 Y53.1992
G01 X6.0761 Y53.2022
G01 X6.0960 Y53.2032
G01 X6.1159 Y53.2022
G01 X6.1356 Y53.1992
G01 X6.1550 Y53.1944
G01 X6.1737 Y53.1877
G01 X6.1918 Y53.1792
G01 X6.2089 Y53.1689
G01 X6.2249 Y53.1570
G01 X6.2396 Y53.1436
G01 X6.2530 Y53.1289
G01 X6.2649 Y53.1129
G01 X6.2752 Y53.0958
G01 X6.2837 Y53.0777
G01 X6.2904 Y53.0590
G01 X6.2952 Y53.0396
G01 X6.2982 Y53.0199
G01 X6.2992 Y53.0000
G00 Z2.0000
G00 X6.2992 Y56.5000
G01 F350.00
G01 Z-2.2000
G01 F400.00
G01 X6.2982 Y56.4801
G01 X6.2952 Y56.4604
G01 X6.2904 Y56.4410
G01 X6.2837 Y56.4223
G01 X6.2752 Y56.4042
G01 X6.2649 Y56.3871
G01 X6.2530 Y56.3711
G01 X6.2396 Y56.3564
G01 X6.2249 Y56.3430
G01 X6.2089 Y56.3311
G01 X6.1918 Y56.3208
G01 X6.1737 Y56.3123
G01 X6.1550 Y56.3056
G01 X6.1356 Y56.3008
G01 X6.1159 Y56.2978
G01 X6.0960 Y56.2968
G01 X6.0761 Y56.2978
G01 X6.0564 Y56.3008
G01 X6.0370 Y56.3056
G01 X6.0183 Y56.3123
G01 X6.0002 Y56.3208
G01 X5.9831 Y56.3311
G01 X5.9671 Y56.3430
G01 X5.9524 Y56.3564
G01 X5.9390 Y56.3711
G01 X5.9271 Y56.3871
G01 X5.9168 Y56.4042
G01 X5.9083 Y56.4223
G01 X5.9016 Y56.4410
G01 X5.8968 Y56.4604
G01 X5.8938 Y56.4801
G01 X5.8929 Y56.5000
G01 X5.8938 Y56.5199
G01 X5.8968 Y56.5396
G01 X5.9016 Y56.5590
G01 X5.9083 Y56.5777
G01 X5.9168 Y56.5958
G01 X5.9271 Y56.6129
G01 X5.9390 Y56.6289
G01 X5.9524 Y56.6436
G01 X5.9671 Y56.6570
G01 X5.9831 Y56.6689
G01 X6.0002 Y56.6792
G01 X6.0183 Y56.6877
G01 X6.0370 Y56.6944
G01 X6.0564 Y56.6992
G01 X6.0761 Y56.7022
G01 X6.0960 Y56.7032
G01 X6.1159 Y56.7022
G01 X6.1356 Y56.6992
G01 X6.1550 Y56.6944
G01 X6.1737 Y56.6877
G01 X6.1918 Y56.6792
G01 X6.2089 Y56.6689
G01 X6.2249 Y56.6570
G01 X6.2396 Y56.6436
G01 X6.2530 Y56.6289
G01 X6.2649 Y56.6129
G01 X6.2752 Y56.5958
G01 X6.2837 Y56.5777
G01 X6.2904 Y56.5590
G01 X6.2952 Y56.5396
G01 X6.2982 Y56.5199
G01 X6.2992 Y56.5000
G00 Z2.0000
G00 X6.2992 Y60.0000
G01 F350.00
G01 Z-2.2000
G01 F400.00
G01 X6.2982 Y59.9801
G01 X6.2952 Y59.9604
G01 X6.2904 Y59.9410
G01 X6.2837 Y59.9223
G01 X6.2752 Y59.9042
G01 X6.2649 Y59.8871
G01 X6.2530 Y59.8711
G01 X6.2396 Y59.8564
G01 X6.2249 Y59.8430
G01 X6.2089 Y59.8311
G01 X6.1918 Y59.8208
G01 X6.1737 Y59.8123
G01 X6.1550 Y59.8056
G01 X6.1356 Y59.8008
G01 X6.1159 Y59.7978
G01 X6.0960 Y59.7968
G01 X6.0761 Y59.7978
G01 X6.0564 Y59.8008
G01 X6.0370 Y59.8056
G01 X6.0183 Y59.8123
G01 X6.0002 Y59.8208
G01 X5.9831 Y59.8311
G01 X5.9671 Y59.8430
G01 X5.9524 Y59.8564
G01 X5.9390 Y59.8711
G01 X5.9271 Y59.8871
G01 X5.9168 Y59.9042
G01 X5.9083 Y59.9223
G01 X5.9016 Y59.9410
G01 X5.8968 Y59.9604
G01 X5.8938 Y59.9801
G01 X5.8929 Y60.0000
G01 X5.8938 Y60.0199
G01 X5.8968 Y60.0396
G01 X5.9016 Y60.0590
G01 X5.9083 Y60.0777
G01 X5.9168 Y60.0958
G01 X5.9271 Y60.1129
G01 X5.9390 Y60.1289
G01 X5.9524 Y60.1436
G01 X5.9671 Y60.1570
G01 X5.9831 Y60.1689
G01 X6.0002 Y60.1792
G01 X6.0183 Y60.1877
G01 X6.0370 Y60.1944
G01 X6.0564 Y60.1992
G01 X6.0761 Y60.2022
G01 X6.0960 Y60.2032
G01 X6.1159 Y60.2022
G01 X6.1356 Y60.1992
G01 X6.1550 Y60.1944
G01 X6.1737 Y60.1877
G01 X6.1918 Y60.1792
G01 X6.2089 Y60.1689
G01 X6.2249 Y60.1570
G01 X6.2396 Y60.1436
G01 X6.2530 Y60.1289
G01 X6.2649 Y60.1129
G01 X6.2752 Y60.0958
G01 X6.2837 Y60.0777
G01 X6.2904 Y60.0590
G01 X6.2952 Y60.0396
G01 X6.2982 Y60.0199
G01 X6.2992 Y60.0000
G00 Z2.0000
G00 X6.2992 Y63.5000
G01 F350.00
G01 Z-2.2000
G01 F400.00
G01 X6.2982 Y63.4801
G01 X6.2952 Y63.4604
G01 X6.2904 Y63.4410
G01 X6.2837 Y63.4223
G01 X6.2752 Y63.4042
G01 X6.2649 Y63.3871
G01 X6.2530 Y63.3711
G01 X6.2396 Y63.3564
G01 X6.2249 Y63.3430
G01 X6.2089 Y63.3311
G01 X6.1918 Y63.3208
G01 X6.1737 Y63.3123
G01 X6.1550 Y63.3056
G01 X6.1356 Y63.3008
G01 X6.1159 Y63.2978
G01 X6.0960 Y63.2968
G01 X6.0761 Y63.2978
G01 X6.0564 Y63.3008
G01 X6.0370 Y63.3056
G01 X6.0183 Y63.3123
G01 X6.0002 Y63.3208
G01 X5.9831 Y63.3311
G01 X5.9671 Y63.3430
G01 X5.9524 Y63.3564
G01 X5.9390 Y63.3711
G01 X5.9271 Y63.3871
G01 X5.9168 Y63.4042
G01 X5.9083 Y63.4223
G01 X5.9016 Y63.4410
G01 X5.8968 Y63.4604
G01 X5.8938 Y63.4801
G01 X5.8929 Y63.5000
G01 X5.8938 Y63.5199
G01 X5.8968 Y63.5396
G01 X5.9016 Y63.5590
G01 X5.9083 Y63.5777
G01 X5.9168 Y63.5958
G01 X5.9271 Y63.6129
G01 X5.9390 Y63.6289
G01 X5.9524 Y63.6436
G01 X5.9671 Y63.6570
G01 X5.9831 Y63.6689
G01 X6.0002 Y63.6792
G01 X6.0183 Y63.6877
G01 X6.0370 Y63.6944
G01 X6.0564 Y63.6992
G01 X6.0761 Y63.7022
G01 X6.0960 Y63.7032
G01 X6.1159 Y63.7022
G01 X6.1356 Y63.6992
G01 X6.1550 Y63.6944
G01 X6.1737 Y63.6877
G01 X6.1918 Y63.6792
G01 X6.2089 Y63.6689
G01 X6.2249 Y63.6570
G01 X6.2396 Y63.6436
G01 X6.2530 Y63.6289
G01 X6.2649 Y63.6129
G01 X6.2752 Y63.5958
G01 X6.2837 Y63.5777
G01 X6.2904 Y63.5590
G01 X6.2952 Y63.5396
G01 X6.2982 Y63.5199
G01 X6.2992 Y63.5000
G00 Z2.0000
G00 X6.2992 Y67.0000
G01 F350.00
G01 Z-2.2000
G01 F400.00
G01 X6.2982 Y66.9801
G01 X6.2952 Y66.9604
G01 X6.2904 Y66.9410
G01 X6.2837 Y66.9223
G01 X6.2752 Y66.9042
G01 X6.2649 Y66.8871
G01 X6.2530 Y66.8711
G01 X6.2396 Y66.8564
G01 X6.2249 Y66.8430
G01 X6.2089 Y66.8311
G01 X6.1918 Y66.8208
G01 X6.1737 Y66.8123
G01 X6.1550 Y66.8056
G01 X6.1356 Y66.8008
G01 X6.1159 Y66.7978
G01 X6.0960 Y66.7969
G01 X6.0761 Y66.7978
G01 X6.0564 Y66.8008
G01 X6.0370 Y66.8056
G01 X6.0183 Y66.8123
G01 X6.0002 Y66.8208
G01 X5.9831 Y66.8311
G01 X5.9671 Y66.8430
G01 X5.9524 Y66.8564
G01 X5.9390 Y66.8711
G01 X5.9271 Y66.8871
G01 X5.9168 Y66.9042
G01 X5.9083 Y66.9223
G01 X5.9016 Y66.9410
G01 X5.8968 Y66.9604
G01 X5.8938 Y66.9801
G01 X5.8929 Y67.0000
G01 X5.8938 Y67.0199
G01 X5.8968 Y67.0396
G01 X5.9016 Y67.0590
G01 X5.9083 Y67.0777
G01 X5.9168 Y67.0958
G01 X5.9271 Y67.1129
G01 X5.9390 Y67.1289
G01 X5.9524 Y67.1436
G01 X5.9671 Y67.1570
G01 X5.9831 Y67.1689
G01 X6.0002 Y67.1792
G01 X6.0183 Y67.1877
G01 X6.0370 Y67.1944
G01 X6.0564 Y67.1992
G01 X6.0761 Y67.2022
G01 X6.0960 Y67.2031
G01 X6.1159 Y67.2022
G01 X6.1356 Y67.1992
G01 X6.1550 Y67.1944
G01 X6.1737 Y67.1877
G01 X6.1918 Y67.1792
G01 X6.2089 Y67.1689
G01 X6.2249 Y67.1570
G01 X6.2396 Y67.1436
G01 X6.2530 Y67.1289
G01 X6.2649 Y67.1129
G01 X6.2752 Y67.0958
G01 X6.2837 Y67.0777
G01 X6.2904 Y67.0590
G01 X6.2952 Y67.0396
G01 X6.2982 Y67.0199
G01 X6.2992 Y67.0000
G00 Z2.0000
G00 X6.2992 Y70.5000
G01 F350.00
G01 Z-2.2000
G01 F400.00
G01 X6.2982 Y70.4801
G01 X6.2952 Y70.4604
G01 X6.2904 Y70.4410
G01 X6.2837 Y70.4223
G01 X6.2752 Y70.4042
G01 X6.2649 Y70.3871
G01 X6.2530 Y70.3711
G01 X6.2396 Y70.3564
G01 X6.2249 Y70.3430
G01 X6.2089 Y70.3311
G01 X6.1918 Y70.3208
G01 X6.1737 Y70.3123
G01 X6.1550 Y70.3056
G01 X6.1356 Y70.3008
G01 X6.1159 Y70.2978
G01 X6.0960 Y70.2969
G01 X6.0761 Y70.2978
G01 X6.0564 Y70.3008
G01 X6.0370 Y70.3056
G01 X6.0183 Y70.3123
G01 X6.0002 Y70.3208
G01 X5.9831 Y70.3311
G01 X5.9671 Y70.3430
G01 X5.9524 Y70.3564
G01 X5.9390 Y70.3711
G01 X5.9271 Y70.3871
G01 X5.9168 Y70.4042
G01 X5.9083 Y70.4223
G01 X5.9016 Y70.4410
G01 X5.8968 Y70.4604
G01 X5.8938 Y70.4801
G01 X5.8929 Y70.5000
G01 X5.8938 Y70.5199
G01 X5.8968 Y70.5396
G01 X5.9016 Y70.5590
G01 X5.9083 Y70.5777
G01 X5.9168 Y70.5958
G01 X5.9271 Y70.6129
G01 X5.9390 Y70.6289
G01 X5.9524 Y70.6436
G01 X5.9671 Y70.6570
G01 X5.9831 Y70.6689
G01 X6.0002 Y70.6792
G01 X6.0183 Y70.6877
G01 X6.0370 Y70.6944
G01 X6.0564 Y70.6992
G01 X6.0761 Y70.7022
G01 X6.0960 Y70.7031
G01 X6.1159 Y70.7022
G01 X6.1356 Y70.6992
G01 X6.1550 Y70.6944
G01 X6.1737 Y70.6877
G01 X6.1918 Y70.6792
G01 X6.2089 Y70.6689
G01 X6.2249 Y70.6570
G01 X6.2396 Y70.6436
G01 X6.2530 Y70.6289
G01 X6.2649 Y70.6129
G01 X6.2752 Y70.5958
G01 X6.2837 Y70.5777
G01 X6.2904 Y70.5590
G01 X6.2952 Y70.5396
G01 X6.2982 Y70.5199
G01 X6.2992 Y70.5000
G00 Z2.0000
G00 X6.2992 Y74.0000
G01 F350.00
G01 Z-2.2000
G01 F400.00
G01 X6.2982 Y73.9801
G01 X6.2952 Y73.9604
G01 X6.2904 Y73.9410
G01 X6.2837 Y73.9223
G01 X6.2752 Y73.9042
G01 X6.2649 Y73.8871
G01 X6.2530 Y73.8711
G01 X6.2396 Y73.8564
G01 X6.2249 Y73.8430
G01 X6.2089 Y73.8311
G01 X6.1918 Y73.8208
G01 X6.1737 Y73.8123
G01 X6.1550 Y73.8056
G01 X6.1356 Y73.8008
G01 X6.1159 Y73.7978
G01 X6.0960 Y73.7969
G01 X6.0761 Y73.7978
G01 X6.0564 Y73.8008
G01 X6.0370 Y73.8056
G01 X6.0183 Y73.8123
G01 X6.0002 Y73.8208
G01 X5.9831 Y73.8311
G01 X5.9671 Y73.8430
G01 X5.9524 Y73.8564
G01 X5.9390 Y73.8711
G01 X5.9271 Y73.8871
G01 X5.9168 Y73.9042
G01 X5.9083 Y73.9223
G01 X5.9016 Y73.9410
G01 X5.8968 Y73.9604
G01 X5.8938 Y73.9801
G01 X5.8929 Y74.0000
G01 X5.8938 Y74.0199
G01 X5.8968 Y74.0396
G01 X5.9016 Y74.0590
G01 X5.9083 Y74.0777
G01 X5.9168 Y74.0958
G01 X5.9271 Y74.1129
G01 X5.9390 Y74.1289
G01 X5.9524 Y74.1436
G01 X5.9671 Y74.1570
G01 X5.9831 Y74.1689
G01 X6.0002 Y74.1792
G01 X6.0183 Y74.1877
G01 X6.0370 Y74.1944
G01 X6.0564 Y74.1992
G01 X6.0761 Y74.2022
G01 X6.0960 Y74.2031
G01 X6.1159 Y74.2022
G01 X6.1356 Y74.1992
G01 X6.1550 Y74.1944
G01 X6.1737 Y74.1877
G01 X6.1918 Y74.1792
G01 X6.2089 Y74.1689
G01 X6.2249 Y74.1570
G01 X6.2396 Y74.1436
G01 X6.2530 Y74.1289
G01 X6.2649 Y74.1129
G01 X6.2752 Y74.0958
G01 X6.2837 Y74.0777
G01 X6.2904 Y74.0590
G01 X6.2952 Y74.0396
G01 X6.2982 Y74.0199
G01 X6.2992 Y74.0000
G00 Z2.0000
G00 X6.2992 Y77.5000
G01 F350.00
G01 Z-2.2000
G01 F400.00
G01 X6.2982 Y77.4801
G01 X6.2952 Y77.4604
G01 X6.2904 Y77.4410
G01 X6.2837 Y77.4223
G01 X6.2752 Y77.4042
G01 X6.2649 Y77.3871
G01 X6.2530 Y77.3711
G01 X6.2396 Y77.3564
G01 X6.2249 Y77.3430
G01 X6.2089 Y77.3311
G01 X6.1918 Y77.3208
G01 X6.1737 Y77.3123
G01 X6.1550 Y77.3056
G01 X6.1356 Y77.3008
G01 X6.1159 Y77.2978
G01 X6.0960 Y77.2969
G01 X6.0761 Y77.2978
G01 X6.0564 Y77.3008
G01 X6.0370 Y77.3056
G01 X6.0183 Y77.3123
G01 X6.0002 Y77.3208
G01 X5.9831 Y77.3311
G01 X5.9671 Y77.3430
G01 X5.9524 Y77.3564
G01 X5.9390 Y77.3711
G01 X5.9271 Y77.3871
G01 X5.9168 Y77.4042
G01 X5.9083 Y77.4223
G01 X5.9016 Y77.4410
G01 X5.8968 Y77.4604
G01 X5.8938 Y77.4801
G01 X5.8929 Y77.5000
G01 X5.8938 Y77.5199
G01 X5.8968 Y77.5396
G01 X5.9016 Y77.5590
G01 X5.9083 Y77.5777
G01 X5.9168 Y77.5958
G01 X5.9271 Y77.6129
G01 X5.9390 Y77.6289
G01 X5.9524 Y77.6436
G01 X5.9671 Y77.6570
G01 X5.9831 Y77.6689
G01 X6.0002 Y77.6792
G01 X6.0183 Y77.6877
G01 X6.0370 Y77.6944
G01 X6.0564 Y77.6992
G01 X6.0761 Y77.7022
G01 X6.0960 Y77.7031
G01 X6.1159 Y77.7022
G01 X6.1356 Y77.6992
G01 X6.1550 Y77.6944
G01 X6.1737 Y77.6877
G01 X6.1918 Y77.6792
G01 X6.2089 Y77.6689
G01 X6.2249 Y77.6570
G01 X6.2396 Y77.6436
G01 X6.2530 Y77.6289
G01 X6.2649 Y77.6129
G01 X6.2752 Y77.5958
G01 X6.2837 Y77.5777
G01 X6.2904 Y77.5590
G01 X6.2952 Y77.5396
G01 X6.2982 Y77.5199
G01 X6.2992 Y77.5000
G00 Z2.0000
G00 X6.2992 Y81.0000
G01 F350.00
G01 Z-2.2000
G01 F400.00
G01 X6.2982 Y80.9801
G01 X6.2952 Y80.9604
G01 X6.2904 Y80.9410
G01 X6.2837 Y80.9223
G01 X6.2752 Y80.9042
G01 X6.2649 Y80.8871
G01 X6.2530 Y80.8711
G01 X6.2396 Y80.8564
G01 X6.2249 Y80.8430
G01 X6.2089 Y80.8311
G01 X6.1918 Y80.8208
G01 X6.1737 Y80.8123
G01 X6.1550 Y80.8056
G01 X6.1356 Y80.8008
G01 X6.1159 Y80.7978
G01 X6.0960 Y80.7969
G01 X6.0761 Y80.7978
G01 X6.0564 Y80.8008
G01 X6.0370 Y80.8056
G01 X6.0183 Y80.8123
G01 X6.0002 Y80.8208
G01 X5.9831 Y80.8311
G01 X5.9671 Y80.8430
G01 X5.9524 Y80.8564
G01 X5.9390 Y80.8711
G01 X5.9271 Y80.8871
G01 X5.9168 Y80.9042
G01 X5.9083 Y80.9223
G01 X5.9016 Y80.9410
G01 X5.8968 Y80.9604
G01 X5.8938 Y80.9801
G01 X5.8929 Y81.0000
G01 X5.8938 Y81.0199
G01 X5.8968 Y81.0396
G01 X5.9016 Y81.0590
G01 X5.9083 Y81.0777
G01 X5.9168 Y81.0958
G01 X5.9271 Y81.1129
G01 X5.9390 Y81.1289
G01 X5.9524 Y81.1436
G01 X5.9671 Y81.1570
G01 X5.9831 Y81.1689
G01 X6.0002 Y81.1792
G01 X6.0183 Y81.1877
G01 X6.0370 Y81.1944
G01 X6.0564 Y81.1992
G01 X6.0761 Y81.2022
G01 X6.0960 Y81.2031
G01 X6.1159 Y81.2022
G01 X6.1356 Y81.1992
G01 X6.1550 Y81.1944
G01 X6.1737 Y81.1877
G01 X6.1918 Y81.1792
G01 X6.2089 Y81.1689
G01 X6.2249 Y81.1570
G01 X6.2396 Y81.1436
G01 X6.2530 Y81.1289
G01 X6.2649 Y81.1129
G01 X6.2752 Y81.0958
G01 X6.2837 Y81.0777
G01 X6.2904 Y81.0590
G01 X6.2952 Y81.0396
G01 X6.2982 Y81.0199
G01 X6.2992 Y81.0000
G00 Z2.0000
G00 X6.2992 Y84.5000
G01 F350.00
G01 Z-2.2000
G01 F400.00
G01 X6.2982 Y84.4801
G01 X6.2952 Y84.4604
G01 X6.2904 Y84.4410
G01 X6.2837 Y84.4223
G01 X6.2752 Y84.4042
G01 X6.2649 Y84.3871
G01 X6.2530 Y84.3711
G01 X6.2396 Y84.3564
G01 X6.2249 Y84.3430
G01 X6.2089 Y84.3311
G01 X6.1918 Y84.3208
G01 X6.1737 Y84.3123
G01 X6.1550 Y84.3056
G01 X6.1356 Y84.3008
G01 X6.1159 Y84.2978
G01 X6.0960 Y84.2969
G01 X6.0761 Y84.2978
G01 X6.0564 Y84.3008
G01 X6.0370 Y84.3056
G01 X6.0183 Y84.3123
G01 X6.0002 Y84.3208
G01 X5.9831 Y84.3311
G01 X5.9671 Y84.3430
G01 X5.9524 Y84.3564
G01 X5.9390 Y84.3711
G01 X5.9271 Y84.3871
G01 X5.9168 Y84.4042
G01 X5.9083 Y84.4223
G01 X5.9016 Y84.4410
G01 X5.8968 Y84.4604
G01 X5.8938 Y84.4801
G01 X5.8929 Y84.5000
G01 X5.8938 Y84.5199
G01 X5.8968 Y84.5396
G01 X5.9016 Y84.5590
G01 X5.9083 Y84.5777
G01 X5.9168 Y84.5958
G01 X5.9271 Y84.6129
G01 X5.9390 Y84.6289
G01 X5.9524 Y84.6436
G01 X5.9671 Y84.6570
G01 X5.9831 Y84.6689
G01 X6.0002 Y84.6792
G01 X6.0183 Y84.6877
G01 X6.0370 Y84.6944
G01 X6.0564 Y84.6992
G01 X6.0761 Y84.7022
G01 X6.0960 Y84.7031
G01 X6.1159 Y84.7022
G01 X6.1356 Y84.6992
G01 X6.1550 Y84.6944
G01 X6.1737 Y84.6877
G01 X6.1918 Y84.6792
G01 X6.2089 Y84.6689
G01 X6.2249 Y84.6570
G01 X6.2396 Y84.6436
G01 X6.2530 Y84.6289
G01 X6.2649 Y84.6129
G01 X6.2752 Y84.5958
G01 X6.2837 Y84.5777
G01 X6.2904 Y84.5590
G01 X6.2952 Y84.5396
G01 X6.2982 Y84.5199
G01 X6.2992 Y84.5000
G00 Z2.0000
G00 X8.2392 Y91.2240
G01 F350.00
G01 Z-2.2000
G01 F400.00
G01 X8.2334 Y91.1061
G01 X8.2160 Y90.9893
G01 X8.1873 Y90.8747
G01 X8.1476 Y90.7636
G01 X8.0971 Y90.6568
G01 X8.0364 Y90.5556
G01 X7.9660 Y90.4607
G01 X7.8868 Y90.3732
G01 X7.7993 Y90.2940
G01 X7.7044 Y90.2236
G01 X7.6032 Y90.1629
G01 X7.4964 Y90.1124
G01 X7.3853 Y90.0727
G01 X7.2707 Y90.0440
G01 X7.1539 Y90.0266
G01 X7.0360 Y90.0209
G01 X6.9181 Y90.0266
G01 X6.8013 Y90.0440
G01 X6.6867 Y90.0727
G01 X6.5756 Y90.1124
G01 X6.4688 Y90.1629
G01 X6.3676 Y90.2236
G01 X6.2727 Y90.2940
G01 X6.1852 Y90.3732
G01 X6.1060 Y90.4607
G01 X6.0356 Y90.5556
G01 X5.9749 Y90.6568
G01 X5.9244 Y90.7636
G01 X5.8847 Y90.8747
G01 X5.8560 Y90.9893
G01 X5.8386 Y91.1061
G01 X5.8328 Y91.2240
G01 X5.8386 Y91.3419
G01 X5.8560 Y91.4587
G01 X5.8847 Y91.5733
G01 X5.9244 Y91.6844
G01 X5.9749 Y91.7912
G01 X6.0356 Y91.8924
G01 X6.1060 Y91.9873
G01 X6.1852 Y92.0748
G01 X6.2727 Y92.1540
G01 X6.3676 Y92.2244
G01 X6.4688 Y92.2851
G01 X6.5756 Y92.3356
G01 X6.6867 Y92.3753
G01 X6.8013 Y92.4040
G01 X6.9181 Y92.4214
G01 X7.0360 Y92.4271
G01 X7.1539 Y92.4214
G01 X7.2707 Y92.4040
G01 X7.3853 Y92.3753
G01 X7.4964 Y92.3356
G01 X7.6032 Y92.2851
G01 X7.7044 Y92.2244
G01 X7.7993 Y92.1540
G01 X7.8868 Y92.0748
G01 X7.9660 Y91.9873
G01 X8.0364 Y91.8924
G01 X8.0971 Y91.7912
G01 X8.1476 Y91.6844
G01 X8.1873 Y91.5733
G01 X8.2160 Y91.4587
G01 X8.2334 Y91.3419
G01 X8.2392 Y91.2240
G00 Z2.0000
G00 X25.6302 Y92.0750
G01 F350.00
G01 Z-2.2000
G01 F400.00
G01 X25.6282 Y92.0549
G01 X25.6223 Y92.0355
G01 X25.6128 Y92.0177
G01 X25.5999 Y92.0021
G01 X25.5843 Y91.9892
G01 X25.5665 Y91.9797
G01 X25.5471 Y91.9738
G01 X25.5270 Y91.9719
G01 X25.5069 Y91.9738
G01 X25.4875 Y91.9797
G01 X25.4697 Y91.9892
G01 X25.4541 Y92.0021
G01 X25.4412 Y92.0177
G01 X25.4317 Y92.0355
G01 X25.4258 Y92.0549
G01 X25.4239 Y92.0750
G01 X25.4258 Y92.0951
G01 X25.4317 Y92.1145
G01 X25.4412 Y92.1323
G01 X25.4541 Y92.1479
G01 X25.4697 Y92.1608
G01 X25.4875 Y92.1703
G01 X25.5069 Y92.1762
G01 X25.5270 Y92.1782
G01 X25.5471 Y92.1762
G01 X25.5665 Y92.1703
G01 X25.5843 Y92.1608
G01 X25.5999 Y92.1479
G01 X25.6128 Y92.1323
G01 X25.6223 Y92.1145
G01 X25.6282 Y92.0951
G01 X25.6302 Y92.0750
G00 Z2.0000
G00 X30.7101 Y92.0750
G01 F350.00
G01 Z-2.2000
G01 F400.00
G01 X30.7082 Y92.0549
G01 X30.7023 Y92.0355
G01 X30.6928 Y92.0177
G01 X30.6799 Y92.0021
G01 X30.6643 Y91.9892
G01 X30.6465 Y91.9797
G01 X30.6271 Y91.9738
G01 X30.6070 Y91.9719
G01 X30.5869 Y91.9738
G01 X30.5675 Y91.9797
G01 X30.5497 Y91.9892
G01 X30.5341 Y92.0021
G01 X30.5212 Y92.0177
G01 X30.5117 Y92.0355
G01 X30.5058 Y92.0549
G01 X30.5038 Y92.0750
G01 X30.5058 Y92.0951
G01 X30.5117 Y92.1145
G01 X30.5212 Y92.1323
G01 X30.5341 Y92.1479
G01 X30.5497 Y92.1608
G01 X30.5675 Y92.1703
G01 X30.5869 Y92.1762
G01 X30.6070 Y92.1782
G01 X30.6271 Y92.1762
G01 X30.6465 Y92.1703
G01 X30.6643 Y92.1608
G01 X30.6799 Y92.1479
G01 X30.6928 Y92.1323
G01 X30.7023 Y92.1145
G01 X30.7082 Y92.0951
G01 X30.7101 Y92.0750
G00 Z2.0000
G00 X36.0442 Y92.0750
G01 F350.00
G01 Z-2.2000
G01 F400.00
G01 X36.0422 Y92.0549
G01 X36.0363 Y92.0355
G01 X36.0268 Y92.0177
G01 X36.0139 Y92.0021
G01 X35.9983 Y91.9892
G01 X35.9805 Y91.9797
G01 X35.9611 Y91.9738
G01 X35.9410 Y91.9719
G01 X35.9209 Y91.9738
G01 X35.9015 Y91.9797
G01 X35.8837 Y91.9892
G01 X35.8681 Y92.0021
G01 X35.8552 Y92.0177
G01 X35.8457 Y92.0355
G01 X35.8398 Y92.0549
G01 X35.8379 Y92.0750
G01 X35.8398 Y92.0951
G01 X35.8457 Y92.1145
G01 X35.8552 Y92.1323
G01 X35.8681 Y92.1479
G01 X35.8837 Y92.1608
G01 X35.9015 Y92.1703
G01 X35.9209 Y92.1762
G01 X35.9410 Y92.1782
G01 X35.9611 Y92.1762
G01 X35.9805 Y92.1703
G01 X35.9983 Y92.1608
G01 X36.0139 Y92.1479
G01 X36.0268 Y92.1323
G01 X36.0363 Y92.1145
G01 X36.0422 Y92.0951
G01 X36.0442 Y92.0750
G00 Z2.0000
G00 X54.2392 Y91.2240
G01 F350.00
G01 Z-2.2000
G01 F400.00
G01 X54.2334 Y91.1061
G01 X54.2160 Y90.9893
G01 X54.1873 Y90.8747
G01 X54.1476 Y90.7636
G01 X54.0971 Y90.6568
G01 X54.0364 Y90.5556
G01 X53.9660 Y90.4607
G01 X53.8868 Y90.3732
G01 X53.7993 Y90.2940
G01 X53.7044 Y90.2236
G01 X53.6032 Y90.1629
G01 X53.4964 Y90.1124
G01 X53.3853 Y90.0727
G01 X53.2707 Y90.0440
G01 X53.1539 Y90.0266
G01 X53.0360 Y90.0209
G01 X52.9181 Y90.0266
G01 X52.8013 Y90.0440
G01 X52.6867 Y90.0727
G01 X52.5756 Y90.1124
G01 X52.4688 Y90.1629
G01 X52.3676 Y90.2236
G01 X52.2727 Y90.2940
G01 X52.1852 Y90.3732
G01 X52.1060 Y90.4607
G01 X52.0356 Y90.5556
G01 X51.9749 Y90.6568
G01 X51.9244 Y90.7636
G01 X51.8847 Y90.8747
G01 X51.8560 Y90.9893
G01 X51.8386 Y91.1061
G01 X51.8329 Y91.2240
G01 X51.8386 Y91.3419
G01 X51.8560 Y91.4587
G01 X51.8847 Y91.5733
G01 X51.9244 Y91.6844
G01 X51.9749 Y91.7912
G01 X52.0356 Y91.8924
G01 X52.1060 Y91.9873
G01 X52.1852 Y92.0748
G01 X52.2727 Y92.1540
G01 X52.3676 Y92.2244
G01 X52.4688 Y92.2851
G01 X52.5756 Y92.3356
G01 X52.6867 Y92.3753
G01 X52.8013 Y92.4040
G01 X52.9181 Y92.4214
G01 X53.0360 Y92.4271
G01 X53.1539 Y92.4214
G01 X53.2707 Y92.4040
G01 X53.3853 Y92.3753
G01 X53.4964 Y92.3356
G01 X53.6032 Y92.2851
G01 X53.7044 Y92.2244
G01 X53.7993 Y92.1540
G01 X53.8868 Y92.0748
G01 X53.9660 Y91.9873
G01 X54.0364 Y91.8924
G01 X54.0971 Y91.7912
G01 X54.1476 Y91.6844
G01 X54.1873 Y91.5733
G01 X54.2160 Y91.4587
G01 X54.2334 Y91.3419
G01 X54.2392 Y91.2240
G00 Z2.0000
G00 X81.8742 Y83.6740
G01 F350.00
G01 Z-2.2000
G01 F400.00
G01 X81.8736 Y83.6685
G01 X81.8720 Y83.6632
G01 X81.8694 Y83.6584
G01 X81.8659 Y83.6541
G01 X81.8616 Y83.6506
G01 X81.8568 Y83.6480
G01 X81.8515 Y83.6464
G01 X81.8460 Y83.6459
G01 X81.8405 Y83.6464
G01 X81.8352 Y83.6480
G01 X81.8304 Y83.6506
G01 X81.8261 Y83.6541
G01 X81.8226 Y83.6584
G01 X81.8200 Y83.6632
G01 X81.8184 Y83.6685
G01 X81.8179 Y83.6740
G01 X81.8184 Y83.6795
G01 X81.8200 Y83.6848
G01 X81.8226 Y83.6896
G01 X81.8261 Y83.6939
G01 X81.8304 Y83.6974
G01 X81.8352 Y83.7000
G01 X81.8405 Y83.7016
G01 X81.8460 Y83.7022
G01 X81.8515 Y83.7016
G01 X81.8568 Y83.7000
G01 X81.8616 Y83.6974
G01 X81.8659 Y83.6939
G01 X81.8694 Y83.6896
G01 X81.8720 Y83.6848
G01 X81.8736 Y83.6795
G01 X81.8742 Y83.6740
G00 Z2.0000
G00 X100.2391 Y91.2240
G01 F350.00
G01 Z-2.2000
G01 F400.00
G01 X100.2334 Y91.1061
G01 X100.2160 Y90.9893
G01 X100.1873 Y90.8747
G01 X100.1476 Y90.7636
G01 X100.0971 Y90.6568
G01 X100.0364 Y90.5556
G01 X99.9660 Y90.4607
G01 X99.8868 Y90.3732
G01 X99.7993 Y90.2940
G01 X99.7044 Y90.2236
G01 X99.6032 Y90.1629
G01 X99.4964 Y90.1124
G01 X99.3853 Y90.0727
G01 X99.2707 Y90.0440
G01 X99.1539 Y90.0266
G01 X99.0360 Y90.0209
G01 X98.9181 Y90.0266
G01 X98.8013 Y90.0440
G01 X98.6867 Y90.0727
G01 X98.5756 Y90.1124
G01 X98.4688 Y90.1629
G01 X98.3676 Y90.2236
G01 X98.2727 Y90.2940
G01 X98.1852 Y90.3732
G01 X98.1060 Y90.4607
G01 X98.0356 Y90.5556
G01 X97.9749 Y90.6568
G01 X97.9244 Y90.7636
G01 X97.8847 Y90.8747
G01 X97.8560 Y90.9893
G01 X97.8386 Y91.1061
G01 X97.8329 Y91.2240
G01 X97.8386 Y91.3419
G01 X97.8560 Y91.4587
G01 X97.8847 Y91.5733
G01 X97.9244 Y91.6844
G01 X97.9749 Y91.7912
G01 X98.0356 Y91.8924
G01 X98.1060 Y91.9873
G01 X98.1852 Y92.0748
G01 X98.2727 Y92.1540
G01 X98.3676 Y92.2244
G01 X98.4688 Y92.2851
G01 X98.5756 Y92.3356
G01 X98.6867 Y92.3753
G01 X98.8013 Y92.4040
G01 X98.9181 Y92.4214
G01 X99.0360 Y92.4271
G01 X99.1539 Y92.4214
G01 X99.2707 Y92.4040
G01 X99.3853 Y92.3753
G01 X99.4964 Y92.3356
G01 X99.6032 Y92.2851
G01 X99.7044 Y92.2244
G01 X99.7993 Y92.1540
G01 X99.8868 Y92.0748
G01 X99.9660 Y91.9873
G01 X100.0364 Y91.8924
G01 X100.0971 Y91.7912
G01 X100.1476 Y91.6844
G01 X100.1873 Y91.5733
G01 X100.2160 Y91.4587
G01 X100.2334 Y91.3419
G01 X100.2391 Y91.2240
G00 Z2.0000
G00 X110.3452 Y92.7100
G01 F350.00
G01 Z-2.2000
G01 F400.00
G01 X110.3434 Y92.6744
G01 X110.3382 Y92.6392
G01 X110.3295 Y92.6046
G01 X110.3175 Y92.5710
G01 X110.3023 Y92.5388
G01 X110.2839 Y92.5082
G01 X110.2627 Y92.4796
G01 X110.2388 Y92.4532
G01 X110.2124 Y92.4293
G01 X110.1838 Y92.4081
G01 X110.1532 Y92.3897
G01 X110.1210 Y92.3745
G01 X110.0874 Y92.3625
G01 X110.0528 Y92.3538
G01 X110.0176 Y92.3486
G01 X109.9820 Y92.3468
G01 X109.9464 Y92.3486
G01 X109.9112 Y92.3538
G01 X109.8766 Y92.3625
G01 X109.8430 Y92.3745
G01 X109.8108 Y92.3897
G01 X109.7802 Y92.4081
G01 X109.7516 Y92.4293
G01 X109.7252 Y92.4532
G01 X109.7013 Y92.4796
G01 X109.6801 Y92.5082
G01 X109.6617 Y92.5388
G01 X109.6465 Y92.5710
G01 X109.6345 Y92.6046
G01 X109.6258 Y92.6392
G01 X109.6206 Y92.6744
G01 X109.6188 Y92.7100
G01 X109.6206 Y92.7456
G01 X109.6258 Y92.7808
G01 X109.6345 Y92.8154
G01 X109.6465 Y92.8490
G01 X109.6617 Y92.8812
G01 X109.6801 Y92.9118
G01 X109.7013 Y92.9404
G01 X109.7252 Y92.9668
G01 X109.7516 Y92.9907
G01 X109.7802 Y93.0119
G01 X109.8108 Y93.0303
G01 X109.8430 Y93.0455
G01 X109.8766 Y93.0575
G01 X109.9112 Y93.0662
G01 X109.9464 Y93.0714
G01 X109.9820 Y93.0731
G01 X110.0176 Y93.0714
G01 X110.0528 Y93.0662
G01 X110.0874 Y93.0575
G01 X110.1210 Y93.0455
G01 X110.1532 Y93.0303
G01 X110.1838 Y93.0119
G01 X110.2124 Y92.9907
G01 X110.2388 Y92.9668
G01 X110.2627 Y92.9404
G01 X110.2839 Y92.9118
G01 X110.3023 Y92.8812
G01 X110.3175 Y92.8490
G01 X110.3295 Y92.8154
G01 X110.3382 Y92.7808
G01 X110.3434 Y92.7456
G01 X110.3452 Y92.7100
G00 Z2.0000
G00 X110.3452 Y87.6300
G01 F350.00
G01 Z-2.2000
G01 F400.00
G01 X110.3434 Y87.5944
G01 X110.3382 Y87.5592
G01 X110.3295 Y87.5246
G01 X110.3175 Y87.4910
G01 X110.3023 Y87.4588
G01 X110.2839 Y87.4282
G01 X110.2627 Y87.3996
G01 X110.2388 Y87.3732
G01 X110.2124 Y87.3493
G01 X110.1838 Y87.3281
G01 X110.1532 Y87.3097
G01 X110.1210 Y87.2945
G01 X110.0874 Y87.2825
G01 X110.0528 Y87.2738
G01 X110.0176 Y87.2686
G01 X109.9820 Y87.2668
G01 X109.9464 Y87.2686
G01 X109.9112 Y87.2738
G01 X109.8766 Y87.2825
G01 X109.8430 Y87.2945
G01 X109.8108 Y87.3097
G01 X109.7802 Y87.3281
G01 X109.7516 Y87.3493
G01 X109.7252 Y87.3732
G01 X109.7013 Y87.3996
G01 X109.6801 Y87.4282
G01 X109.6617 Y87.4588
G01 X109.6465 Y87.4910
G01 X109.6345 Y87.5246
G01 X109.6258 Y87.5592
G01 X109.6206 Y87.5944
G01 X109.6188 Y87.6300
G01 X109.6206 Y87.6656
G01 X109.6258 Y87.7008
G01 X109.6345 Y87.7354
G01 X109.6465 Y87.7690
G01 X109.6617 Y87.8012
G01 X109.6801 Y87.8318
G01 X109.7013 Y87.8604
G01 X109.7252 Y87.8868
G01 X109.7516 Y87.9107
G01 X109.7802 Y87.9319
G01 X109.8108 Y87.9503
G01 X109.8430 Y87.9655
G01 X109.8766 Y87.9775
G01 X109.9112 Y87.9862
G01 X109.9464 Y87.9914
G01 X109.9820 Y87.9931
G01 X110.0176 Y87.9914
G01 X110.0528 Y87.9862
G01 X110.0874 Y87.9775
G01 X110.1210 Y87.9655
G01 X110.1532 Y87.9503
G01 X110.1838 Y87.9319
G01 X110.2124 Y87.9107
G01 X110.2388 Y87.8868
G01 X110.2627 Y87.8604
G01 X110.2839 Y87.8318
G01 X110.3023 Y87.8012
G01 X110.3175 Y87.7690
G01 X110.3295 Y87.7354
G01 X110.3382 Y87.7008
G01 X110.3434 Y87.6656
G01 X110.3452 Y87.6300
G00 Z2.0000
G00 X73.7631 Y28.7020
G01 F350.00
G01 Z-2.2000
G01 F400.00
G01 X73.7612 Y28.6819
G01 X73.7553 Y28.6625
G01 X73.7458 Y28.6447
G01 X73.7329 Y28.6291
G01 X73.7173 Y28.6162
G01 X73.6995 Y28.6067
G01 X73.6801 Y28.6008
G01 X73.6600 Y28.5989
G01 X73.6399 Y28.6008
G01 X73.6205 Y28.6067
G01 X73.6027 Y28.6162
G01 X73.5871 Y28.6291
G01 X73.5742 Y28.6447
G01 X73.5647 Y28.6625
G01 X73.5588 Y28.6819
G01 X73.5568 Y28.7020
G01 X73.5588 Y28.7221
G01 X73.5647 Y28.7415
G01 X73.5742 Y28.7593
G01 X73.5871 Y28.7749
G01 X73.6027 Y28.7878
G01 X73.6205 Y28.7973
G01 X73.6399 Y28.8032
G01 X73.6600 Y28.8052
G01 X73.6801 Y28.8032
G01 X73.6995 Y28.7973
G01 X73.7173 Y28.7878
G01 X73.7329 Y28.7749
G01 X73.7458 Y28.7593
G01 X73.7553 Y28.7415
G01 X73.7612 Y28.7221
G01 X73.7631 Y28.7020
G00 Z2.0000
G00 X71.2232 Y28.7020
G01 F350.00
G01 Z-2.2000
G01 F400.00
G01 X71.2212 Y28.6819
G01 X71.2153 Y28.6625
G01 X71.2058 Y28.6447
G01 X71.1929 Y28.6291
G01 X71.1773 Y28.6162
G01 X71.1595 Y28.6067
G01 X71.1401 Y28.6008
G01 X71.1200 Y28.5989
G01 X71.0999 Y28.6008
G01 X71.0805 Y28.6067
G01 X71.0627 Y28.6162
G01 X71.0471 Y28.6291
G01 X71.0342 Y28.6447
G01 X71.0247 Y28.6625
G01 X71.0188 Y28.6819
G01 X71.0169 Y28.7020
G01 X71.0188 Y28.7221
G01 X71.0247 Y28.7415
G01 X71.0342 Y28.7593
G01 X71.0471 Y28.7749
G01 X71.0627 Y28.7878
G01 X71.0805 Y28.7973
G01 X71.0999 Y28.8032
G01 X71.1200 Y28.8052
G01 X71.1401 Y28.8032
G01 X71.1595 Y28.7973
G01 X71.1773 Y28.7878
G01 X71.1929 Y28.7749
G01 X71.2058 Y28.7593
G01 X71.2153 Y28.7415
G01 X71.2212 Y28.7221
G01 X71.2232 Y28.7020
G00 Z2.0000
G00 X68.6831 Y28.7020
G01 F350.00
G01 Z-2.2000
G01 F400.00
G01 X68.6812 Y28.6819
G01 X68.6753 Y28.6625
G01 X68.6658 Y28.6447
G01 X68.6529 Y28.6291
G01 X68.6373 Y28.6162
G01 X68.6195 Y28.6067
G01 X68.6001 Y28.6008
G01 X68.5800 Y28.5989
G01 X68.5599 Y28.6008
G01 X68.5405 Y28.6067
G01 X68.5227 Y28.6162
G01 X68.5071 Y28.6291
G01 X68.4942 Y28.6447
G01 X68.4847 Y28.6625
G01 X68.4788 Y28.6819
G01 X68.4768 Y28.7020
G01 X68.4788 Y28.7221
G01 X68.4847 Y28.7415
G01 X68.4942 Y28.7593
G01 X68.5071 Y28.7749
G01 X68.5227 Y28.7878
G01 X68.5405 Y28.7973
G01 X68.5599 Y28.8032
G01 X68.5800 Y28.8052
G01 X68.6001 Y28.8032
G01 X68.6195 Y28.7973
G01 X68.6373 Y28.7878
G01 X68.6529 Y28.7749
G01 X68.6658 Y28.7593
G01 X68.6753 Y28.7415
G01 X68.6812 Y28.7221
G01 X68.6831 Y28.7020
G00 Z2.0000
G00 X57.8312 Y34.7980
G01 F350.00
G01 Z-2.2000
G01 F400.00
G01 X57.8299 Y34.7732
G01 X57.8263 Y34.7486
G01 X57.8202 Y34.7245
G01 X57.8119 Y34.7011
G01 X57.8013 Y34.6787
G01 X57.7885 Y34.6574
G01 X57.7737 Y34.6374
G01 X57.7570 Y34.6190
G01 X57.7386 Y34.6023
G01 X57.7186 Y34.5875
G01 X57.6973 Y34.5747
G01 X57.6749 Y34.5641
G01 X57.6515 Y34.5558
G01 X57.6274 Y34.5497
G01 X57.6028 Y34.5461
G01 X57.5780 Y34.5449
G01 X57.5532 Y34.5461
G01 X57.5286 Y34.5497
G01 X57.5045 Y34.5558
G01 X57.4811 Y34.5641
G01 X57.4587 Y34.5747
G01 X57.4374 Y34.5875
G01 X57.4174 Y34.6023
G01 X57.3990 Y34.6190
G01 X57.3823 Y34.6374
G01 X57.3675 Y34.6574
G01 X57.3547 Y34.6787
G01 X57.3441 Y34.7011
G01 X57.3358 Y34.7245
G01 X57.3297 Y34.7486
G01 X57.3261 Y34.7732
G01 X57.3249 Y34.7980
G01 X57.3261 Y34.8228
G01 X57.3297 Y34.8474
G01 X57.3358 Y34.8715
G01 X57.3441 Y34.8949
G01 X57.3547 Y34.9173
G01 X57.3675 Y34.9386
G01 X57.3823 Y34.9586
G01 X57.3990 Y34.9770
G01 X57.4174 Y34.9937
G01 X57.4374 Y35.0085
G01 X57.4587 Y35.0213
G01 X57.4811 Y35.0319
G01 X57.5045 Y35.0402
G01 X57.5286 Y35.0463
G01 X57.5532 Y35.0499
G01 X57.5780 Y35.0511
G01 X57.6028 Y35.0499
G01 X57.6274 Y35.0463
G01 X57.6515 Y35.0402
G01 X57.6749 Y35.0319
G01 X57.6973 Y35.0213
G01 X57.7186 Y35.0085
G01 X57.7386 Y34.9937
G01 X57.7570 Y34.9770
G01 X57.7737 Y34.9586
G01 X57.7885 Y34.9386
G01 X57.8013 Y34.9173
G01 X57.8119 Y34.8949
G01 X57.8202 Y34.8715
G01 X57.8263 Y34.8474
G01 X57.8299 Y34.8228
G01 X57.8312 Y34.7980
G00 Z2.0000
G00 X52.8312 Y34.7980
G01 F350.00
G01 Z-2.2000
G01 F400.00
G01 X52.8299 Y34.7732
G01 X52.8263 Y34.7486
G01 X52.8202 Y34.7245
G01 X52.8119 Y34.7011
G01 X52.8013 Y34.6787
G01 X52.7885 Y34.6574
G01 X52.7737 Y34.6374
G01 X52.7570 Y34.6190
G01 X52.7386 Y34.6023
G01 X52.7186 Y34.5875
G01 X52.6973 Y34.5747
G01 X52.6749 Y34.5641
G01 X52.6515 Y34.5558
G01 X52.6274 Y34.5497
G01 X52.6028 Y34.5461
G01 X52.5780 Y34.5449
G01 X52.5532 Y34.5461
G01 X52.5286 Y34.5497
G01 X52.5045 Y34.5558
G01 X52.4811 Y34.5641
G01 X52.4587 Y34.5747
G01 X52.4374 Y34.5875
G01 X52.4174 Y34.6023
G01 X52.3990 Y34.6190
G01 X52.3823 Y34.6374
G01 X52.3675 Y34.6574
G01 X52.3547 Y34.6787
G01 X52.3441 Y34.7011
G01 X52.3358 Y34.7245
G01 X52.3297 Y34.7486
G01 X52.3261 Y34.7732
G01 X52.3249 Y34.7980
G01 X52.3261 Y34.8228
G01 X52.3297 Y34.8474
G01 X52.3358 Y34.8715
G01 X52.3441 Y34.8949
G01 X52.3547 Y34.9173
G01 X52.3675 Y34.9386
G01 X52.3823 Y34.9586
G01 X52.3990 Y34.9770
G01 X52.4174 Y34.9937
G01 X52.4374 Y35.0085
G01 X52.4587 Y35.0213
G01 X52.4811 Y35.0319
G01 X52.5045 Y35.0402
G01 X52.5286 Y35.0463
G01 X52.5532 Y35.0499
G01 X52.5780 Y35.0511
G01 X52.6028 Y35.0499
G01 X52.6274 Y35.0463
G01 X52.6515 Y35.0402
G01 X52.6749 Y35.0319
G01 X52.6973 Y35.0213
G01 X52.7186 Y35.0085
G01 X52.7386 Y34.9937
G01 X52.7570 Y34.9770
G01 X52.7737 Y34.9586
G01 X52.7885 Y34.9386
G01 X52.8013 Y34.9173
G01 X52.8119 Y34.8949
G01 X52.8202 Y34.8715
G01 X52.8263 Y34.8474
G01 X52.8299 Y34.8228
G01 X52.8312 Y34.7980
G00 Z2.0000
G00 X55.3312 Y39.7980
G01 F350.00
G01 Z-2.2000
G01 F400.00
G01 X55.3299 Y39.7732
G01 X55.3263 Y39.7486
G01 X55.3202 Y39.7245
G01 X55.3119 Y39.7011
G01 X55.3013 Y39.6787
G01 X55.2885 Y39.6574
G01 X55.2737 Y39.6374
G01 X55.2570 Y39.6190
G01 X55.2386 Y39.6023
G01 X55.2186 Y39.5875
G01 X55.1973 Y39.5747
G01 X55.1749 Y39.5641
G01 X55.1515 Y39.5558
G01 X55.1274 Y39.5497
G01 X55.1028 Y39.5461
G01 X55.0780 Y39.5449
G01 X55.0532 Y39.5461
G01 X55.0286 Y39.5497
G01 X55.0045 Y39.5558
G01 X54.9811 Y39.5641
G01 X54.9587 Y39.5747
G01 X54.9374 Y39.5875
G01 X54.9174 Y39.6023
G01 X54.8990 Y39.6190
G01 X54.8823 Y39.6374
G01 X54.8675 Y39.6574
G01 X54.8547 Y39.6787
G01 X54.8441 Y39.7011
G01 X54.8358 Y39.7245
G01 X54.8297 Y39.7486
G01 X54.8261 Y39.7732
G01 X54.8249 Y39.7980
G01 X54.8261 Y39.8228
G01 X54.8297 Y39.8474
G01 X54.8358 Y39.8715
G01 X54.8441 Y39.8949
G01 X54.8547 Y39.9173
G01 X54.8675 Y39.9386
G01 X54.8823 Y39.9586
G01 X54.8990 Y39.9770
G01 X54.9174 Y39.9937
G01 X54.9374 Y40.0085
G01 X54.9587 Y40.0213
G01 X54.9811 Y40.0319
G01 X55.0045 Y40.0402
G01 X55.0286 Y40.0463
G01 X55.0532 Y40.0499
G01 X55.0780 Y40.0511
G01 X55.1028 Y40.0499
G01 X55.1274 Y40.0463
G01 X55.1515 Y40.0402
G01 X55.1749 Y40.0319
G01 X55.1973 Y40.0213
G01 X55.2186 Y40.0085
G01 X55.2386 Y39.9937
G01 X55.2570 Y39.9770
G01 X55.2737 Y39.9586
G01 X55.2885 Y39.9386
G01 X55.3013 Y39.9173
G01 X55.3119 Y39.8949
G01 X55.3202 Y39.8715
G01 X55.3263 Y39.8474
G01 X55.3299 Y39.8228
G01 X55.3312 Y39.7980
G00 Z2.0000
G00 X54.2392 Y5.2240
G01 F350.00
G01 Z-2.2000
G01 F400.00
G01 X54.2334 Y5.1061
G01 X54.2160 Y4.9893
G01 X54.1873 Y4.8747
G01 X54.1476 Y4.7636
G01 X54.0971 Y4.6568
G01 X54.0364 Y4.5556
G01 X53.9660 Y4.4607
G01 X53.8868 Y4.3732
G01 X53.7993 Y4.2940
G01 X53.7044 Y4.2236
G01 X53.6032 Y4.1629
G01 X53.4964 Y4.1124
G01 X53.3853 Y4.0727
G01 X53.2707 Y4.0440
G01 X53.1539 Y4.0266
G01 X53.0360 Y4.0209
G01 X52.9181 Y4.0266
G01 X52.8013 Y4.0440
G01 X52.6867 Y4.0727
G01 X52.5756 Y4.1124
G01 X52.4688 Y4.1629
G01 X52.3676 Y4.2236
G01 X52.2727 Y4.2940
G01 X52.1852 Y4.3732
G01 X52.1060 Y4.4607
G01 X52.0356 Y4.5556
G01 X51.9749 Y4.6568
G01 X51.9244 Y4.7636
G01 X51.8847 Y4.8747
G01 X51.8560 Y4.9893
G01 X51.8386 Y5.1061
G01 X51.8329 Y5.2240
G01 X51.8386 Y5.3419
G01 X51.8560 Y5.4587
G01 X51.8847 Y5.5733
G01 X51.9244 Y5.6844
G01 X51.9749 Y5.7912
G01 X52.0356 Y5.8924
G01 X52.1060 Y5.9873
G01 X52.1852 Y6.0748
G01 X52.2727 Y6.1540
G01 X52.3676 Y6.2244
G01 X52.4688 Y6.2851
G01 X52.5756 Y6.3356
G01 X52.6867 Y6.3753
G01 X52.8013 Y6.4040
G01 X52.9181 Y6.4214
G01 X53.0360 Y6.4272
G01 X53.1539 Y6.4214
G01 X53.2707 Y6.4040
G01 X53.3853 Y6.3753
G01 X53.4964 Y6.3356
G01 X53.6032 Y6.2851
G01 X53.7044 Y6.2244
G01 X53.7993 Y6.1540
G01 X53.8868 Y6.0748
G01 X53.9660 Y5.9873
G01 X54.0364 Y5.8924
G01 X54.0971 Y5.7912
G01 X54.1476 Y5.6844
G01 X54.1873 Y5.5733
G01 X54.2160 Y5.4587
G01 X54.2334 Y5.3419
G01 X54.2392 Y5.2240
G00 Z2.0000
G00 X21.1912 Y4.5720
G01 F350.00
G01 Z-2.2000
G01 F400.00
G01 X21.1894 Y4.5364
G01 X21.1842 Y4.5012
G01 X21.1755 Y4.4666
G01 X21.1635 Y4.4330
G01 X21.1483 Y4.4008
G01 X21.1299 Y4.3702
G01 X21.1087 Y4.3416
G01 X21.0848 Y4.3152
G01 X21.0584 Y4.2913
G01 X21.0298 Y4.2701
G01 X20.9992 Y4.2517
G01 X20.9670 Y4.2365
G01 X20.9334 Y4.2245
G01 X20.8988 Y4.2158
G01 X20.8636 Y4.2106
G01 X20.8280 Y4.2088
G01 X20.7924 Y4.2106
G01 X20.7572 Y4.2158
G01 X20.7226 Y4.2245
G01 X20.6890 Y4.2365
G01 X20.6568 Y4.2517
G01 X20.6262 Y4.2701
G01 X20.5976 Y4.2913
G01 X20.5712 Y4.3152
G01 X20.5473 Y4.3416
G01 X20.5261 Y4.3702
G01 X20.5077 Y4.4008
G01 X20.4925 Y4.4330
G01 X20.4805 Y4.4666
G01 X20.4718 Y4.5012
G01 X20.4666 Y4.5364
G01 X20.4648 Y4.5720
G01 X20.4666 Y4.6076
G01 X20.4718 Y4.6428
G01 X20.4805 Y4.6774
G01 X20.4925 Y4.7110
G01 X20.5077 Y4.7432
G01 X20.5261 Y4.7738
G01 X20.5473 Y4.8024
G01 X20.5712 Y4.8288
G01 X20.5976 Y4.8527
G01 X20.6262 Y4.8739
G01 X20.6568 Y4.8923
G01 X20.6890 Y4.9075
G01 X20.7226 Y4.9195
G01 X20.7572 Y4.9282
G01 X20.7924 Y4.9334
G01 X20.8280 Y4.9352
G01 X20.8636 Y4.9334
G01 X20.8988 Y4.9282
G01 X20.9334 Y4.9195
G01 X20.9670 Y4.9075
G01 X20.9992 Y4.8923
G01 X21.0298 Y4.8739
G01 X21.0584 Y4.8527
G01 X21.0848 Y4.8288
G01 X21.1087 Y4.8024
G01 X21.1299 Y4.7738
G01 X21.1483 Y4.7432
G01 X21.1635 Y4.7110
G01 X21.1755 Y4.6774
G01 X21.1842 Y4.6428
G01 X21.1894 Y4.6076
G01 X21.1912 Y4.5720
G00 Z2.0000
G00 X16.1111 Y4.5720
G01 F350.00
G01 Z-2.2000
G01 F400.00
G01 X16.1094 Y4.5364
G01 X16.1042 Y4.5012
G01 X16.0955 Y4.4666
G01 X16.0835 Y4.4330
G01 X16.0683 Y4.4008
G01 X16.0499 Y4.3702
G01 X16.0287 Y4.3416
G01 X16.0048 Y4.3152
G01 X15.9784 Y4.2913
G01 X15.9498 Y4.2701
G01 X15.9192 Y4.2517
G01 X15.8870 Y4.2365
G01 X15.8534 Y4.2245
G01 X15.8188 Y4.2158
G01 X15.7836 Y4.2106
G01 X15.7480 Y4.2088
G01 X15.7124 Y4.2106
G01 X15.6772 Y4.2158
G01 X15.6426 Y4.2245
G01 X15.6090 Y4.2365
G01 X15.5768 Y4.2517
G01 X15.5462 Y4.2701
G01 X15.5176 Y4.2913
G01 X15.4912 Y4.3152
G01 X15.4673 Y4.3416
G01 X15.4461 Y4.3702
G01 X15.4277 Y4.4008
G01 X15.4125 Y4.4330
G01 X15.4005 Y4.4666
G01 X15.3918 Y4.5012
G01 X15.3866 Y4.5364
G01 X15.3849 Y4.5720
G01 X15.3866 Y4.6076
G01 X15.3918 Y4.6428
G01 X15.4005 Y4.6774
G01 X15.4125 Y4.7110
G01 X15.4277 Y4.7432
G01 X15.4461 Y4.7738
G01 X15.4673 Y4.8024
G01 X15.4912 Y4.8288
G01 X15.5176 Y4.8527
G01 X15.5462 Y4.8739
G01 X15.5768 Y4.8923
G01 X15.6090 Y4.9075
G01 X15.6426 Y4.9195
G01 X15.6772 Y4.9282
G01 X15.7124 Y4.9334
G01 X15.7480 Y4.9352
G01 X15.7836 Y4.9334
G01 X15.8188 Y4.9282
G01 X15.8534 Y4.9195
G01 X15.8870 Y4.9075
G01 X15.9192 Y4.8923
G01 X15.9498 Y4.8739
G01 X15.9784 Y4.8527
G01 X16.0048 Y4.8288
G01 X16.0287 Y4.8024
G01 X16.0499 Y4.7738
G01 X16.0683 Y4.7432
G01 X16.0835 Y4.7110
G01 X16.0955 Y4.6774
G01 X16.1042 Y4.6428
G01 X16.1094 Y4.6076
G01 X16.1111 Y4.5720
G00 Z2.0000
G00 X13.6921 Y59.8170
G01 F350.00
G01 Z-2.2000
G01 F400.00
G01 X13.6902 Y59.7969
G01 X13.6843 Y59.7775
G01 X13.6748 Y59.7597
G01 X13.6619 Y59.7441
G01 X13.6463 Y59.7312
G01 X13.6285 Y59.7217
G01 X13.6091 Y59.7158
G01 X13.5890 Y59.7139
G01 X13.5689 Y59.7158
G01 X13.5495 Y59.7217
G01 X13.5317 Y59.7312
G01 X13.5161 Y59.7441
G01 X13.5032 Y59.7597
G01 X13.4937 Y59.7775
G01 X13.4878 Y59.7969
G01 X13.4859 Y59.8170
G01 X13.4878 Y59.8371
G01 X13.4937 Y59.8565
G01 X13.5032 Y59.8743
G01 X13.5161 Y59.8899
G01 X13.5317 Y59.9028
G01 X13.5495 Y59.9123
G01 X13.5689 Y59.9182
G01 X13.5890 Y59.9201
G01 X13.6091 Y59.9182
G01 X13.6285 Y59.9123
G01 X13.6463 Y59.9028
G01 X13.6619 Y59.8899
G01 X13.6748 Y59.8743
G01 X13.6843 Y59.8565
G01 X13.6902 Y59.8371
G01 X13.6921 Y59.8170
G00 Z2.0000
G00 X11.6601 Y60.0710
G01 F350.00
G01 Z-2.2000
G01 F400.00
G01 X11.6582 Y60.0509
G01 X11.6523 Y60.0315
G01 X11.6428 Y60.0137
G01 X11.6299 Y59.9981
G01 X11.6143 Y59.9852
G01 X11.5965 Y59.9757
G01 X11.5771 Y59.9698
G01 X11.5570 Y59.9678
G01 X11.5369 Y59.9698
G01 X11.5175 Y59.9757
G01 X11.4997 Y59.9852
G01 X11.4841 Y59.9981
G01 X11.4712 Y60.0137
G01 X11.4617 Y60.0315
G01 X11.4558 Y60.0509
G01 X11.4539 Y60.0710
G01 X11.4558 Y60.0911
G01 X11.4617 Y60.1105
G01 X11.4712 Y60.1283
G01 X11.4841 Y60.1439
G01 X11.4997 Y60.1568
G01 X11.5175 Y60.1663
G01 X11.5369 Y60.1722
G01 X11.5570 Y60.1741
G01 X11.5771 Y60.1722
G01 X11.5965 Y60.1663
G01 X11.6143 Y60.1568
G01 X11.6299 Y60.1439
G01 X11.6428 Y60.1283
G01 X11.6523 Y60.1105
G01 X11.6582 Y60.0911
G01 X11.6601 Y60.0710
G00 Z2.0000
G00 X10.1361 Y63.6270
G01 F350.00
G01 Z-2.2000
G01 F400.00
G01 X10.1342 Y63.6069
G01 X10.1283 Y63.5875
G01 X10.1188 Y63.5697
G01 X10.1059 Y63.5541
G01 X10.0903 Y63.5412
G01 X10.0725 Y63.5317
G01 X10.0531 Y63.5258
G01 X10.0330 Y63.5239
G01 X10.0129 Y63.5258
G01 X9.9935 Y63.5317
G01 X9.9757 Y63.5412
G01 X9.9601 Y63.5541
G01 X9.9472 Y63.5697
G01 X9.9377 Y63.5875
G01 X9.9318 Y63.6069
G01 X9.9299 Y63.6270
G01 X9.9318 Y63.6471
G01 X9.9377 Y63.6665
G01 X9.9472 Y63.6843
G01 X9.9601 Y63.6999
G01 X9.9757 Y63.7128
G01 X9.9935 Y63.7223
G01 X10.0129 Y63.7282
G01 X10.0330 Y63.7302
G01 X10.0531 Y63.7282
G01 X10.0725 Y63.7223
G01 X10.0903 Y63.7128
G01 X10.1059 Y63.6999
G01 X10.1188 Y63.6843
G01 X10.1283 Y63.6665
G01 X10.1342 Y63.6471
G01 X10.1361 Y63.6270
G00 Z2.0000
G00 X15.9781 Y60.9600
G01 F350.00
G01 Z-2.2000
G01 F400.00
G01 X15.9762 Y60.9399
G01 X15.9703 Y60.9205
G01 X15.9608 Y60.9027
G01 X15.9479 Y60.8871
G01 X15.9323 Y60.8742
G01 X15.9145 Y60.8647
G01 X15.8951 Y60.8588
G01 X15.8750 Y60.8569
G01 X15.8549 Y60.8588
G01 X15.8355 Y60.8647
G01 X15.8177 Y60.8742
G01 X15.8021 Y60.8871
G01 X15.7892 Y60.9027
G01 X15.7797 Y60.9205
G01 X15.7738 Y60.9399
G01 X15.7719 Y60.9600
G01 X15.7738 Y60.9801
G01 X15.7797 Y60.9995
G01 X15.7892 Y61.0173
G01 X15.8021 Y61.0329
G01 X15.8177 Y61.0458
G01 X15.8355 Y61.0553
G01 X15.8549 Y61.0612
G01 X15.8750 Y61.0632
G01 X15.8951 Y61.0612
G01 X15.9145 Y61.0553
G01 X15.9323 Y61.0458
G01 X15.9479 Y61.0329
G01 X15.9608 Y61.0173
G01 X15.9703 Y60.9995
G01 X15.9762 Y60.9801
G01 X15.9781 Y60.9600
G00 Z2.0000
G00 X100.2391 Y5.2240
G01 F350.00
G01 Z-2.2000
G01 F400.00
G01 X100.2334 Y5.1061
G01 X100.2160 Y4.9893
G01 X100.1873 Y4.8747
G01 X100.1476 Y4.7636
G01 X100.0971 Y4.6568
G01 X100.0364 Y4.5556
G01 X99.9660 Y4.4607
G01 X99.8868 Y4.3732
G01 X99.7993 Y4.2940
G01 X99.7044 Y4.2236
G01 X99.6032 Y4.1629
G01 X99.4964 Y4.1124
G01 X99.3853 Y4.0727
G01 X99.2707 Y4.0440
G01 X99.1539 Y4.0266
G01 X99.0360 Y4.0209
G01 X98.9181 Y4.0266
G01 X98.8013 Y4.0440
G01 X98.6867 Y4.0727
G01 X98.5756 Y4.1124
G01 X98.4688 Y4.1629
G01 X98.3676 Y4.2236
G01 X98.2727 Y4.2940
G01 X98.1852 Y4.3732
G01 X98.1060 Y4.4607
G01 X98.0356 Y4.5556
G01 X97.9749 Y4.6568
G01 X97.9244 Y4.7636
G01 X97.8847 Y4.8747
G01 X97.8560 Y4.9893
G01 X97.8386 Y5.1061
G01 X97.8329 Y5.2240
G01 X97.8386 Y5.3419
G01 X97.8560 Y5.4587
G01 X97.8847 Y5.5733
G01 X97.9244 Y5.6844
G01 X97.9749 Y5.7912
G01 X98.0356 Y5.8924
G01 X98.1060 Y5.9873
G01 X98.1852 Y6.0748
G01 X98.2727 Y6.1540
G01 X98.3676 Y6.2244
G01 X98.4688 Y6.2851
G01 X98.5756 Y6.3356
G01 X98.6867 Y6.3753
G01 X98.8013 Y6.4040
G01 X98.9181 Y6.4214
G01 X99.0360 Y6.4272
G01 X99.1539 Y6.4214
G01 X99.2707 Y6.4040
G01 X99.3853 Y6.3753
G01 X99.4964 Y6.3356
G01 X99.6032 Y6.2851
G01 X99.7044 Y6.2244
G01 X99.7993 Y6.1540
G01 X99.8868 Y6.0748
G01 X99.9660 Y5.9873
G01 X100.0364 Y5.8924
G01 X100.0971 Y5.7912
G01 X100.1476 Y5.6844
G01 X100.1873 Y5.5733
G01 X100.2160 Y5.4587
G01 X100.2334 Y5.3419
G01 X100.2391 Y5.2240
G00 Z2.0000
M05
G00 Z2.0000
G00 Z20.00
G00 X0.0Y0.0

G04 P0 ( dwell for no time -- G64 should not smooth over this point )
G00 Z10.000 ( retract )

M5 ( Spindle off. )
M9 ( Coolant off. )
M2 ( Program end. )