(G-CODE GENERATED BY FLATCAM v8.904 - www.flatcam.org - Version Date: 2019/01/25)

(Name: BoardVer1-Edge.Cuts.gbr_cutout_cnc)
(Type: G-code from Geometry)
(Units: MM)

(Created on Sunday, 27 January 2019 at 21:27)

(TOOL DIAMETER: 0.17 mm)
(Feedrate: 400.0 mm/min)
(Feedrate_Z: 350.0 mm/min)
(Feedrate rapids 800.0 mm/min)

(Z_Cut: -2.2 mm)
(Z_Move: 2.0 mm)
(Z Toolchange: 50.0 mm)
(X,Y Toolchange: 0.0000, 0.0000 mm)
(Z Start: 1.0 mm)
(Z End: 20.0 mm)
(Steps per circle: 64)
(Postprocessor Geometry: default)
(Spindle Speed: 18000 RPM)
G94 ( Millimeters per minute feed rate. )
G21 ( Units == Millimeters. )
G90 ( Absolute coordinates. )
G64 P0.01000 ( set maximum deviation from commanded toolpath )
G21
G90
G94
G21
G90
G94

G01 F400.00
G00 Z2.0000
G00 Z1.0000
M03 S18000
G00 X-0.4750 Y47.3600
G01 F350.00
G01 Z-2.2000
G01 F400.00
G01 X-0.4750 Y-0.4750
G01 X56.3770 Y-0.4750
G00 Z2.0000
G00 X58.1770 Y-0.4750
G01 F350.00
G01 Z-2.2000
G01 F400.00
G01 X115.0290 Y-0.4750
G01 X115.0290 Y47.3600
G00 Z2.0000
G00 X115.0290 Y49.1600
G01 F350.00
G01 Z-2.2000
G01 F400.00
G01 X115.0290 Y96.9950
G01 X58.1770 Y96.9950
G00 Z2.0000
G00 X56.3770 Y96.9950
G01 F350.00
G01 Z-2.2000
G01 F400.00
G01 X-0.4750 Y96.9950
G01 X-0.4750 Y49.1600
G00 Z2.0000
M05
G00 Z2.0000
G00 Z20.00
G00 X0.0Y0.0

G04 P0 ( dwell for no time -- G64 should not smooth over this point )
G00 Z10.000 ( retract )

M5 ( Spindle off. )
M9 ( Coolant off. )
M2 ( Program end. )