(G-CODE GENERATED BY FLATCAM v8.904 - www.flatcam.org - Version Date: 2019/01/25)

(Name: BoardVer1-F.Cu.gbr_iso_cnc)
(Type: G-code from Geometry)
(Units: MM)

(Created on Sunday, 27 January 2019 at 21:27)

(TOOL DIAMETER: 0.17 mm)
(Feedrate: 400.0 mm/min)
(Feedrate_Z: 350.0 mm/min)
(Feedrate rapids 800.0 mm/min)

(Z_Cut: -0.1306 mm)
(Z_Move: 2.0 mm)
(Z Toolchange: 50.0 mm)
(X,Y Toolchange: 0.0000, 0.0000 mm)
(Z Start: 1.0 mm)
(Z End: 20.0 mm)
(Steps per circle: 64)
(Postprocessor Geometry: default)
(Spindle Speed: 18000 RPM)
G94 ( Millimeters per minute feed rate. )
G21 ( Units == Millimeters. )
G90 ( Absolute coordinates. )
G64 P0.01000 ( set maximum deviation from commanded toolpath )
G21
G90
G94
G21
G90
G94

G01 F400.00
G00 Z2.0000
G00 Z1.0000
M03 S18000
G00 X1.1946 Y2.7550
G01 F350.00
G01 Z-0.1306
G01 F400.00
G01 X1.1946 Y1.0550
G01 X1.1961 Y1.0284
G01 X1.2005 Y1.0021
G01 X1.2077 Y0.9765
G01 X1.2178 Y0.9518
G01 X1.2310 Y0.9275
G01 X1.2469 Y0.9049
G01 X1.2653 Y0.8843
G01 X1.2859 Y0.8659
G01 X1.3085 Y0.8500
G01 X1.3328 Y0.8368
G01 X1.3575 Y0.8267
G01 X1.3831 Y0.8195
G01 X1.4094 Y0.8151
G01 X1.4360 Y0.8136
G01 X3.1360 Y0.8136
G01 X3.1626 Y0.8151
G01 X3.1889 Y0.8195
G01 X3.2145 Y0.8267
G01 X3.2392 Y0.8368
G01 X3.2635 Y0.8500
G01 X3.2861 Y0.8659
G01 X3.3067 Y0.8843
G01 X3.3251 Y0.9049
G01 X3.3410 Y0.9275
G01 X3.3542 Y0.9518
G01 X3.3643 Y0.9765
G01 X3.3715 Y1.0021
G01 X3.3759 Y1.0284
G01 X3.3774 Y1.0550
G01 X3.3774 Y2.7550
G01 X3.3759 Y2.7816
G01 X3.3715 Y2.8079
G01 X3.3643 Y2.8335
G01 X3.3542 Y2.8582
G01 X3.3410 Y2.8825
G01 X3.3251 Y2.9051
G01 X3.3067 Y2.9257
G01 X3.2861 Y2.9441
G01 X3.2635 Y2.9600
G01 X3.2392 Y2.9732
G01 X3.2145 Y2.9833
G01 X3.1889 Y2.9905
G01 X3.1626 Y2.9949
G01 X3.1360 Y2.9964
G01 X2.7275 Y2.9964
G01 X2.7275 Y18.1081
G01 X4.6795 Y20.0601
G01 X4.7029 Y20.0519
G01 X4.7892 Y20.0271
G01 X4.8155 Y20.0211
G01 X4.9040 Y20.0060
G01 X4.9309 Y20.0030
G01 X5.0340 Y19.9976
G01 X5.1371 Y20.0030
G01 X5.1640 Y20.0060
G01 X5.2525 Y20.0211
G01 X5.2788 Y20.0271
G01 X5.3651 Y20.0519
G01 X5.3906 Y20.0609
G01 X5.4735 Y20.0952
G01 X5.4979 Y20.1069
G01 X5.5764 Y20.1503
G01 X5.5966 Y20.1628
G01 X5.6725 Y20.2167
G01 X5.6933 Y20.2340
G01 X5.6936 Y20.2335
G01 X5.7605 Y20.2933
G01 X5.7797 Y20.3125
G01 X5.8395 Y20.3794
G01 X5.8563 Y20.4005
G01 X5.9083 Y20.4737
G01 X5.9227 Y20.4966
G01 X5.9661 Y20.5751
G01 X5.9773 Y20.5982
G01 X6.0121 Y20.6824
G01 X6.0211 Y20.7079
G01 X6.0459 Y20.7942
G01 X6.0510 Y20.8152
G01 X6.0670 Y20.9090
G01 X6.0700 Y20.9359
G01 X6.0754 Y21.0390
G01 X6.0700 Y21.1421
G01 X6.0670 Y21.1690
G01 X6.0519 Y21.2575
G01 X6.0459 Y21.2838
G01 X6.0211 Y21.3701
G01 X6.0121 Y21.3956
G01 X5.9778 Y21.4785
G01 X5.9661 Y21.5029
G01 X5.9227 Y21.5814
G01 X5.9102 Y21.6016
G01 X5.8563 Y21.6775
G01 X5.8390 Y21.6983
G01 X5.8395 Y21.6986
G01 X5.7797 Y21.7655
G01 X5.7605 Y21.7847
G01 X5.6936 Y21.8445
G01 X5.6725 Y21.8613
G01 X5.5993 Y21.9133
G01 X5.5764 Y21.9277
G01 X5.4979 Y21.9711
G01 X5.4748 Y21.9823
G01 X5.3906 Y22.0171
G01 X5.3651 Y22.0261
G01 X5.2788 Y22.0509
G01 X5.2578 Y22.0560
G01 X5.1640 Y22.0720
G01 X5.1371 Y22.0750
G01 X5.0475 Y22.0800
G01 X5.0205 Y22.0800
G01 X4.9309 Y22.0750
G01 X4.9040 Y22.0720
G01 X4.8155 Y22.0569
G01 X4.7892 Y22.0509
G01 X4.7029 Y22.0261
G01 X4.6774 Y22.0171
G01 X4.5945 Y21.9828
G01 X4.5701 Y21.9711
G01 X4.4916 Y21.9277
G01 X4.4714 Y21.9152
G01 X4.3955 Y21.8613
G01 X4.3747 Y21.8440
G01 X4.3744 Y21.8445
G01 X4.3075 Y21.7847
G01 X4.2883 Y21.7655
G01 X4.2285 Y21.6986
G01 X4.2117 Y21.6775
G01 X4.1597 Y21.6043
G01 X4.1453 Y21.5814
G01 X4.1019 Y21.5029
G01 X4.0907 Y21.4798
G01 X4.0559 Y21.3956
G01 X4.0469 Y21.3701
G01 X4.0221 Y21.2838
G01 X4.0170 Y21.2628
G01 X4.0010 Y21.1690
G01 X3.9980 Y21.1421
G01 X3.9926 Y21.0390
G01 X3.9980 Y20.9359
G01 X4.0010 Y20.9090
G01 X4.0161 Y20.8205
G01 X4.0221 Y20.7942
G01 X4.0469 Y20.7079
G01 X4.0552 Y20.6846
G01 X1.9738 Y18.6032
G01 X1.9496 Y18.5766
G01 X1.9327 Y18.5555
G01 X1.9197 Y18.5372
G01 X1.9053 Y18.5142
G01 X1.8944 Y18.4946
G01 X1.8832 Y18.4715
G01 X1.8741 Y18.4495
G01 X1.8652 Y18.4239
G01 X1.8539 Y18.3813
G01 X1.8492 Y18.3538
G01 X1.8461 Y18.3269
G01 X1.8445 Y18.2910
G01 X1.8445 Y2.9964
G01 X1.4360 Y2.9964
G01 X1.4094 Y2.9949
G01 X1.3831 Y2.9905
G01 X1.3575 Y2.9833
G01 X1.3328 Y2.9732
G01 X1.3085 Y2.9600
G01 X1.2859 Y2.9441
G01 X1.2653 Y2.9257
G01 X1.2469 Y2.9051
G01 X1.2310 Y2.8825
G01 X1.2178 Y2.8582
G01 X1.2077 Y2.8335
G01 X1.2005 Y2.8079
G01 X1.1961 Y2.7816
G01 X1.1946 Y2.7550
G00 Z2.0000
G00 X1.3510 Y2.7550
G01 F350.00
G01 Z-0.1306
G01 F400.00
G01 X1.3510 Y1.0550
G01 X1.3515 Y1.0456
G01 X1.3531 Y1.0364
G01 X1.3556 Y1.0273
G01 X1.3592 Y1.0187
G01 X1.3638 Y1.0101
G01 X1.3694 Y1.0022
G01 X1.3759 Y0.9949
G01 X1.3832 Y0.9884
G01 X1.3911 Y0.9828
G01 X1.3997 Y0.9782
G01 X1.4083 Y0.9746
G01 X1.4174 Y0.9721
G01 X1.4266 Y0.9705
G01 X1.4360 Y0.9700
G01 X3.1360 Y0.9700
G01 X3.1454 Y0.9705
G01 X3.1546 Y0.9721
G01 X3.1637 Y0.9746
G01 X3.1723 Y0.9782
G01 X3.1809 Y0.9828
G01 X3.1888 Y0.9884
G01 X3.1961 Y0.9949
G01 X3.2026 Y1.0022
G01 X3.2082 Y1.0101
G01 X3.2128 Y1.0187
G01 X3.2164 Y1.0273
G01 X3.2189 Y1.0364
G01 X3.2205 Y1.0456
G01 X3.2210 Y1.0550
G01 X3.2210 Y2.7550
G01 X3.2205 Y2.7644
G01 X3.2189 Y2.7736
G01 X3.2164 Y2.7827
G01 X3.2128 Y2.7913
G01 X3.2082 Y2.7999
G01 X3.2026 Y2.8078
G01 X3.1961 Y2.8151
G01 X3.1888 Y2.8216
G01 X3.1809 Y2.8272
G01 X3.1723 Y2.8318
G01 X3.1637 Y2.8354
G01 X3.1546 Y2.8379
G01 X3.1454 Y2.8395
G01 X3.1360 Y2.8400
G01 X2.5711 Y2.8400
G01 X2.5711 Y18.1729
G01 X4.6434 Y20.2452
G01 X4.6544 Y20.2397
G01 X4.7462 Y20.2022
G01 X4.8399 Y20.1756
G01 X4.9302 Y20.1602
G01 X5.0292 Y20.1541
G01 X5.0388 Y20.1541
G01 X5.1283 Y20.1592
G01 X5.2263 Y20.1753
G01 X5.3218 Y20.2022
G01 X5.3308 Y20.2054
G01 X5.4222 Y20.2438
G01 X5.5078 Y20.2916
G01 X5.5820 Y20.3442
G01 X5.6563 Y20.4099
G01 X5.6631 Y20.4167
G01 X5.7288 Y20.4910
G01 X5.7858 Y20.5723
G01 X5.8331 Y20.6589
G01 X5.8676 Y20.7422
G01 X5.8708 Y20.7512
G01 X5.8974 Y20.8449
G01 X5.9128 Y20.9352
G01 X5.9190 Y21.0390
G01 X5.9128 Y21.1428
G01 X5.8956 Y21.2405
G01 X5.8676 Y21.3358
G01 X5.8292 Y21.4272
G01 X5.7814 Y21.5128
G01 X5.7288 Y21.5870
G01 X5.6631 Y21.6613
G01 X5.5894 Y21.7278
G01 X5.5088 Y21.7857
G01 X5.5007 Y21.7908
G01 X5.4141 Y21.8381
G01 X5.3218 Y21.8758
G01 X5.2281 Y21.9024
G01 X5.1283 Y21.9188
G01 X5.0292 Y21.9239
G01 X4.9397 Y21.9188
G01 X4.8417 Y21.9027
G01 X4.7462 Y21.8758
G01 X4.6544 Y21.8383
G01 X4.6458 Y21.8342
G01 X4.5602 Y21.7864
G01 X4.4786 Y21.7278
G01 X4.4049 Y21.6613
G01 X4.3452 Y21.5944
G01 X4.2873 Y21.5138
G01 X4.2822 Y21.5057
G01 X4.2349 Y21.4191
G01 X4.1972 Y21.3268
G01 X4.1706 Y21.2331
G01 X4.1552 Y21.1428
G01 X4.1491 Y21.0438
G01 X4.1491 Y21.0342
G01 X4.1542 Y20.9447
G01 X4.1703 Y20.8467
G01 X4.1972 Y20.7512
G01 X4.2004 Y20.7422
G01 X4.2347 Y20.6594
G01 X4.2402 Y20.6484
G01 X2.0844 Y18.4926
G01 X2.0602 Y18.4649
G01 X2.0472 Y18.4466
G01 X2.0313 Y18.4189
G01 X2.0186 Y18.3896
G01 X2.0075 Y18.3516
G01 X2.0023 Y18.3182
G01 X2.0009 Y18.2910
G01 X2.0009 Y2.8400
G01 X1.4360 Y2.8400
G01 X1.4266 Y2.8395
G01 X1.4174 Y2.8379
G01 X1.4083 Y2.8354
G01 X1.3997 Y2.8318
G01 X1.3911 Y2.8272
G01 X1.3832 Y2.8216
G01 X1.3759 Y2.8151
G01 X1.3694 Y2.8078
G01 X1.3638 Y2.7999
G01 X1.3592 Y2.7913
G01 X1.3556 Y2.7827
G01 X1.3531 Y2.7736
G01 X1.3515 Y2.7644
G01 X1.3510 Y2.7550
G00 Z2.0000
G00 X8.4745 Y5.8113
G01 F350.00
G01 Z-0.1306
G01 F400.00
G01 X8.3532 Y6.1041
G01 X7.9161 Y6.5412
G01 X7.3451 Y6.7777
G01 X6.7269 Y6.7777
G01 X6.1559 Y6.5412
G01 X5.7188 Y6.1041
G01 X5.4823 Y5.5331
G01 X5.4823 Y4.9149
G01 X5.7188 Y4.3439
G01 X6.1559 Y3.9068
G01 X6.7269 Y3.6703
G01 X7.3451 Y3.6703
G01 X7.9161 Y3.9068
G01 X8.3532 Y4.3439
G01 X8.5897 Y4.9149
G01 X8.5897 Y5.5331
G01 X8.4745 Y5.8113
G00 Z2.0000
G00 X8.6190 Y5.8711
G01 F350.00
G01 Z-0.1306
G01 F400.00
G01 X8.4858 Y6.1927
G01 X8.0047 Y6.6738
G01 X7.3762 Y6.9341
G01 X6.6958 Y6.9341
G01 X6.0673 Y6.6738
G01 X5.5862 Y6.1927
G01 X5.3259 Y5.5642
G01 X5.3259 Y4.8838
G01 X5.5862 Y4.2553
G01 X6.0673 Y3.7742
G01 X6.6958 Y3.5139
G01 X7.3762 Y3.5139
G01 X8.0047 Y3.7742
G01 X8.4858 Y4.2553
G01 X8.7461 Y4.8838
G01 X8.7461 Y5.5642
G01 X8.6190 Y5.8711
G00 Z2.0000
G00 X8.7635 Y5.9310
G01 F350.00
G01 Z-0.1306
G01 F400.00
G01 X8.6184 Y6.2813
G01 X8.0933 Y6.8064
G01 X7.4073 Y7.0905
G01 X6.6647 Y7.0905
G01 X5.9787 Y6.8064
G01 X5.4536 Y6.2813
G01 X5.1695 Y5.5953
G01 X5.1695 Y4.8527
G01 X5.4536 Y4.1667
G01 X5.9787 Y3.6416
G01 X6.6647 Y3.3575
G01 X7.4073 Y3.3575
G01 X8.0933 Y3.6416
G01 X8.6184 Y4.1667
G01 X8.9025 Y4.8527
G01 X8.9025 Y5.5953
G01 X8.7635 Y5.9310
G00 Z2.0000
G00 X8.9080 Y5.9908
G01 F350.00
G01 Z-0.1306
G01 F400.00
G01 X8.7510 Y6.3699
G01 X8.1819 Y6.9390
G01 X7.4384 Y7.2469
G01 X6.6336 Y7.2469
G01 X5.8901 Y6.9390
G01 X5.3210 Y6.3699
G01 X5.0131 Y5.6264
G01 X5.0131 Y4.8216
G01 X5.3210 Y4.0781
G01 X5.8901 Y3.5090
G01 X6.6336 Y3.2011
G01 X7.4384 Y3.2011
G01 X8.1819 Y3.5090
G01 X8.7510 Y4.0781
G01 X9.0589 Y4.8216
G01 X9.0589 Y5.6264
G01 X8.9080 Y5.9908
G00 Z2.0000
G00 X14.2117 Y2.9952
G01 F350.00
G01 Z-0.1306
G01 F400.00
G01 X14.2203 Y2.9916
G01 X14.2294 Y2.9891
G01 X14.2386 Y2.9875
G01 X14.2480 Y2.9870
G01 X17.2480 Y2.9870
G01 X17.2574 Y2.9875
G01 X17.2666 Y2.9891
G01 X17.2757 Y2.9916
G01 X17.2843 Y2.9952
G01 X17.2929 Y2.9998
G01 X17.3008 Y3.0054
G01 X17.3081 Y3.0119
G01 X17.3146 Y3.0192
G01 X17.3202 Y3.0271
G01 X17.3248 Y3.0357
G01 X17.3284 Y3.0443
G01 X17.3309 Y3.0534
G01 X17.3325 Y3.0626
G01 X17.3330 Y3.0720
G01 X17.3330 Y6.0720
G01 X17.3325 Y6.0814
G01 X17.3309 Y6.0906
G01 X17.3284 Y6.0997
G01 X17.3248 Y6.1083
G01 X17.3202 Y6.1169
G01 X17.3146 Y6.1248
G01 X17.3081 Y6.1321
G01 X17.3008 Y6.1386
G01 X17.2929 Y6.1442
G01 X17.2843 Y6.1488
G01 X17.2757 Y6.1524
G01 X17.2666 Y6.1549
G01 X17.2574 Y6.1565
G01 X17.2480 Y6.1570
G01 X14.2480 Y6.1570
G01 X14.2386 Y6.1565
G01 X14.2294 Y6.1549
G01 X14.2203 Y6.1524
G01 X14.2117 Y6.1488
G01 X14.2031 Y6.1442
G01 X14.1952 Y6.1386
G01 X14.1879 Y6.1321
G01 X14.1814 Y6.1248
G01 X14.1758 Y6.1169
G01 X14.1712 Y6.1083
G01 X14.1676 Y6.0997
G01 X14.1651 Y6.0906
G01 X14.1635 Y6.0814
G01 X14.1630 Y6.0720
G01 X14.1630 Y3.0720
G01 X14.1635 Y3.0626
G01 X14.1651 Y3.0534
G01 X14.1676 Y3.0443
G01 X14.1712 Y3.0357
G01 X14.1758 Y3.0271
G01 X14.1814 Y3.0192
G01 X14.1879 Y3.0119
G01 X14.1952 Y3.0054
G01 X14.2031 Y2.9998
G01 X14.2117 Y2.9952
G00 Z2.0000
G00 X14.1448 Y2.8538
G01 F350.00
G01 Z-0.1306
G01 F400.00
G01 X14.1695 Y2.8437
G01 X14.1951 Y2.8365
G01 X14.2214 Y2.8321
G01 X14.2480 Y2.8306
G01 X17.2480 Y2.8306
G01 X17.2746 Y2.8321
G01 X17.3009 Y2.8365
G01 X17.3265 Y2.8437
G01 X17.3512 Y2.8538
G01 X17.3755 Y2.8670
G01 X17.3981 Y2.8829
G01 X17.4187 Y2.9013
G01 X17.4371 Y2.9219
G01 X17.4530 Y2.9445
G01 X17.4662 Y2.9688
G01 X17.4763 Y2.9935
G01 X17.4835 Y3.0191
G01 X17.4879 Y3.0454
G01 X17.4894 Y3.0720
G01 X17.4894 Y6.0720
G01 X17.4879 Y6.0986
G01 X17.4835 Y6.1249
G01 X17.4763 Y6.1505
G01 X17.4662 Y6.1752
G01 X17.4530 Y6.1995
G01 X17.4371 Y6.2221
G01 X17.4187 Y6.2427
G01 X17.3981 Y6.2611
G01 X17.3755 Y6.2770
G01 X17.3512 Y6.2902
G01 X17.3265 Y6.3003
G01 X17.3009 Y6.3075
G01 X17.2746 Y6.3119
G01 X17.2480 Y6.3134
G01 X14.2480 Y6.3134
G01 X14.2214 Y6.3119
G01 X14.1951 Y6.3075
G01 X14.1695 Y6.3003
G01 X14.1448 Y6.2902
G01 X14.1205 Y6.2770
G01 X14.0979 Y6.2611
G01 X14.0773 Y6.2427
G01 X14.0589 Y6.2221
G01 X14.0430 Y6.1995
G01 X14.0298 Y6.1752
G01 X14.0197 Y6.1505
G01 X14.0125 Y6.1249
G01 X14.0081 Y6.0986
G01 X14.0066 Y6.0720
G01 X14.0066 Y3.0720
G01 X14.0081 Y3.0454
G01 X14.0125 Y3.0191
G01 X14.0197 Y2.9935
G01 X14.0298 Y2.9688
G01 X14.0430 Y2.9445
G01 X14.0589 Y2.9219
G01 X14.0773 Y2.9013
G01 X14.0979 Y2.8829
G01 X14.1205 Y2.8670
G01 X14.1448 Y2.8538
G00 Z2.0000
G00 X17.5270 Y6.0357
G01 F350.00
G01 Z-0.1306
G01 F400.00
G01 X17.4991 Y6.1760
G01 X17.4402 Y6.2642
G01 X17.3520 Y6.3231
G01 X17.2117 Y6.3510
G01 X14.2843 Y6.3510
G01 X14.1440 Y6.3231
G01 X14.0558 Y6.2642
G01 X13.9969 Y6.1760
G01 X13.9690 Y6.0357
G01 X13.9690 Y3.1083
G01 X13.9969 Y2.9680
G01 X14.0558 Y2.8798
G01 X14.1440 Y2.8209
G01 X14.2843 Y2.7930
G01 X17.2117 Y2.7930
G01 X17.3520 Y2.8209
G01 X17.4402 Y2.8798
G01 X17.4991 Y2.9680
G01 X17.5270 Y3.1083
G01 X17.5270 Y6.0357
G00 Z2.0000
G00 X17.6834 Y6.0511
G01 F350.00
G01 Z-0.1306
G01 F400.00
G01 X17.6464 Y6.2370
G01 X17.5529 Y6.3769
G01 X17.4130 Y6.4704
G01 X17.2271 Y6.5074
G01 X14.2689 Y6.5074
G01 X14.0830 Y6.4704
G01 X13.9431 Y6.3769
G01 X13.8496 Y6.2370
G01 X13.8126 Y6.0511
G01 X13.8126 Y3.0929
G01 X13.8496 Y2.9070
G01 X13.9431 Y2.7671
G01 X14.0830 Y2.6736
G01 X14.2689 Y2.6366
G01 X17.2271 Y2.6366
G01 X17.4130 Y2.6736
G01 X17.5529 Y2.7671
G01 X17.6464 Y2.9070
G01 X17.6834 Y3.0929
G01 X17.6834 Y6.0511
G00 Z2.0000
G00 X19.0969 Y4.7535
G01 F350.00
G01 Z-0.1306
G01 F400.00
G01 X19.0866 Y4.5720
G01 X19.0964 Y4.3905
G01 X19.0994 Y4.3636
G01 X19.1276 Y4.1978
G01 X19.1336 Y4.1714
G01 X19.1802 Y4.0098
G01 X19.1892 Y3.9842
G01 X19.2535 Y3.8288
G01 X19.2653 Y3.8044
G01 X19.3466 Y3.6572
G01 X19.3591 Y3.6370
G01 X19.4584 Y3.4971
G01 X19.4757 Y3.4763
G01 X19.4753 Y3.4759
G01 X19.5873 Y3.3505
G01 X19.6065 Y3.3313
G01 X19.7319 Y3.2193
G01 X19.7531 Y3.2024
G01 X19.8903 Y3.1050
G01 X19.9132 Y3.0906
G01 X20.0604 Y3.0093
G01 X20.0835 Y2.9981
G01 X20.2402 Y2.9332
G01 X20.2658 Y2.9242
G01 X20.4274 Y2.8776
G01 X20.4538 Y2.8716
G01 X20.6196 Y2.8434
G01 X20.6465 Y2.8404
G01 X20.8280 Y2.8306
G01 X21.0095 Y2.8404
G01 X21.0364 Y2.8434
G01 X21.2022 Y2.8716
G01 X21.2286 Y2.8776
G01 X21.3902 Y2.9242
G01 X21.4158 Y2.9332
G01 X21.5712 Y2.9975
G01 X21.5956 Y3.0093
G01 X21.7428 Y3.0906
G01 X21.7630 Y3.1031
G01 X21.9029 Y3.2024
G01 X21.9237 Y3.2197
G01 X21.9241 Y3.2193
G01 X22.0495 Y3.3313
G01 X22.0687 Y3.3505
G01 X22.1807 Y3.4759
G01 X22.1976 Y3.4971
G01 X22.2950 Y3.6343
G01 X22.3094 Y3.6572
G01 X22.3907 Y3.8044
G01 X22.4019 Y3.8275
G01 X22.4668 Y3.9842
G01 X22.4758 Y4.0098
G01 X22.5224 Y4.1714
G01 X22.5284 Y4.1978
G01 X22.5566 Y4.3636
G01 X22.5596 Y4.3905
G01 X22.5694 Y4.5720
G01 X22.5596 Y4.7535
G01 X22.5566 Y4.7804
G01 X22.5284 Y4.9462
G01 X22.5224 Y4.9726
G01 X22.4758 Y5.1342
G01 X22.4668 Y5.1598
G01 X22.4025 Y5.3152
G01 X22.3907 Y5.3396
G01 X22.3094 Y5.4868
G01 X22.2969 Y5.5070
G01 X22.1976 Y5.6469
G01 X22.1803 Y5.6677
G01 X22.1807 Y5.6681
G01 X22.0687 Y5.7935
G01 X22.0495 Y5.8127
G01 X21.9241 Y5.9247
G01 X21.9029 Y5.9416
G01 X21.7657 Y6.0390
G01 X21.7428 Y6.0534
G01 X21.5956 Y6.1347
G01 X21.5725 Y6.1459
G01 X21.4158 Y6.2108
G01 X21.3902 Y6.2198
G01 X21.2286 Y6.2664
G01 X21.2022 Y6.2724
G01 X21.0364 Y6.3006
G01 X21.0095 Y6.3036
G01 X20.8280 Y6.3134
G01 X20.6465 Y6.3036
G01 X20.6196 Y6.3006
G01 X20.4538 Y6.2724
G01 X20.4274 Y6.2664
G01 X20.2658 Y6.2198
G01 X20.2402 Y6.2108
G01 X20.0848 Y6.1465
G01 X20.0604 Y6.1347
G01 X19.9132 Y6.0534
G01 X19.8930 Y6.0409
G01 X19.7531 Y5.9416
G01 X19.7323 Y5.9243
G01 X19.7319 Y5.9247
G01 X19.6065 Y5.8127
G01 X19.5873 Y5.7935
G01 X19.4753 Y5.6681
G01 X19.4584 Y5.6469
G01 X19.3610 Y5.5097
G01 X19.3466 Y5.4868
G01 X19.2653 Y5.3396
G01 X19.2541 Y5.3165
G01 X19.1892 Y5.1598
G01 X19.1802 Y5.1342
G01 X19.1336 Y4.9726
G01 X19.1276 Y4.9462
G01 X19.0994 Y4.7804
G01 X19.0969 Y4.7535
G00 Z2.0000
G00 X19.2527 Y4.7447
G01 F350.00
G01 Z-0.1306
G01 F400.00
G01 X19.2430 Y4.5720
G01 X19.2526 Y4.3993
G01 X19.2536 Y4.3898
G01 X19.2818 Y4.2240
G01 X19.2839 Y4.2147
G01 X19.3305 Y4.0531
G01 X19.3336 Y4.0441
G01 X19.3980 Y3.8886
G01 X19.4022 Y3.8801
G01 X19.4879 Y3.7257
G01 X19.5859 Y3.5876
G01 X19.5919 Y3.5801
G01 X19.7040 Y3.4547
G01 X19.7107 Y3.4480
G01 X19.8361 Y3.3359
G01 X19.8436 Y3.3299
G01 X19.9808 Y3.2326
G01 X19.9888 Y3.2275
G01 X20.1361 Y3.1462
G01 X20.1442 Y3.1422
G01 X20.3001 Y3.0776
G01 X20.3091 Y3.0745
G01 X20.4707 Y3.0279
G01 X20.4800 Y3.0258
G01 X20.6458 Y2.9976
G01 X20.6553 Y2.9966
G01 X20.8280 Y2.9870
G01 X21.0007 Y2.9966
G01 X21.0102 Y2.9976
G01 X21.1760 Y3.0258
G01 X21.1853 Y3.0279
G01 X21.3469 Y3.0745
G01 X21.3559 Y3.0776
G01 X21.5114 Y3.1420
G01 X21.5199 Y3.1462
G01 X21.6743 Y3.2319
G01 X21.8124 Y3.3299
G01 X21.8199 Y3.3359
G01 X21.9453 Y3.4480
G01 X21.9520 Y3.4547
G01 X22.0641 Y3.5801
G01 X22.0701 Y3.5876
G01 X22.1674 Y3.7248
G01 X22.1725 Y3.7328
G01 X22.2538 Y3.8801
G01 X22.2578 Y3.8882
G01 X22.3224 Y4.0441
G01 X22.3255 Y4.0531
G01 X22.3721 Y4.2147
G01 X22.3742 Y4.2240
G01 X22.4024 Y4.3898
G01 X22.4034 Y4.3993
G01 X22.4130 Y4.5720
G01 X22.4034 Y4.7447
G01 X22.4024 Y4.7542
G01 X22.3742 Y4.9200
G01 X22.3721 Y4.9293
G01 X22.3255 Y5.0909
G01 X22.3224 Y5.0999
G01 X22.2580 Y5.2554
G01 X22.2538 Y5.2639
G01 X22.1681 Y5.4183
G01 X22.0701 Y5.5564
G01 X22.0641 Y5.5639
G01 X21.9520 Y5.6893
G01 X21.9453 Y5.6960
G01 X21.8199 Y5.8081
G01 X21.8124 Y5.8141
G01 X21.6752 Y5.9114
G01 X21.6672 Y5.9165
G01 X21.5199 Y5.9978
G01 X21.5118 Y6.0018
G01 X21.3559 Y6.0664
G01 X21.3469 Y6.0695
G01 X21.1853 Y6.1161
G01 X21.1760 Y6.1182
G01 X21.0102 Y6.1464
G01 X21.0007 Y6.1474
G01 X20.8280 Y6.1570
G01 X20.6553 Y6.1474
G01 X20.6458 Y6.1464
G01 X20.4800 Y6.1182
G01 X20.4707 Y6.1161
G01 X20.3091 Y6.0695
G01 X20.3001 Y6.0664
G01 X20.1446 Y6.0020
G01 X20.1361 Y5.9978
G01 X19.9817 Y5.9121
G01 X19.8436 Y5.8141
G01 X19.8361 Y5.8081
G01 X19.7107 Y5.6960
G01 X19.7040 Y5.6893
G01 X19.5919 Y5.5639
G01 X19.5859 Y5.5564
G01 X19.4886 Y5.4192
G01 X19.4835 Y5.4112
G01 X19.4022 Y5.2639
G01 X19.3982 Y5.2558
G01 X19.3336 Y5.0999
G01 X19.3305 Y5.0909
G01 X19.2839 Y4.9293
G01 X19.2818 Y4.9200
G01 X19.2536 Y4.7542
G01 X19.2527 Y4.7447
G00 Z2.0000
G00 X22.3443 Y5.5276
G01 F350.00
G01 Z-0.1306
G01 F400.00
G01 X22.3256 Y5.5727
G01 X21.8287 Y6.0696
G01 X21.1794 Y6.3385
G01 X20.4766 Y6.3385
G01 X19.8273 Y6.0696
G01 X19.3304 Y5.5727
G01 X19.0615 Y4.9234
G01 X19.0615 Y4.2206
G01 X19.3304 Y3.5713
G01 X19.8273 Y3.0744
G01 X20.4766 Y2.8055
G01 X21.1794 Y2.8055
G01 X21.8287 Y3.0744
G01 X22.3256 Y3.5713
G01 X22.5945 Y4.2206
G01 X22.5945 Y4.9234
G01 X22.3443 Y5.5276
G00 Z2.0000
G00 X22.4888 Y5.5874
G01 F350.00
G01 Z-0.1306
G01 F400.00
G01 X22.4582 Y5.6613
G01 X21.9173 Y6.2022
G01 X21.2105 Y6.4949
G01 X20.4455 Y6.4949
G01 X19.7387 Y6.2022
G01 X19.1978 Y5.6613
G01 X18.9051 Y4.9545
G01 X18.9051 Y4.1895
G01 X19.1978 Y3.4827
G01 X19.7387 Y2.9418
G01 X20.4455 Y2.6491
G01 X21.2105 Y2.6491
G01 X21.9173 Y2.9418
G01 X22.4582 Y3.4827
G01 X22.7509 Y4.1895
G01 X22.7509 Y4.9545
G01 X22.4888 Y5.5874
G00 Z2.0000
G00 X26.0532 Y8.9888
G01 F350.00
G01 Z-0.1306
G01 F400.00
G01 X26.0476 Y8.8900
G01 X26.0528 Y8.7911
G01 X26.0558 Y8.7642
G01 X26.0701 Y8.6800
G01 X26.0761 Y8.6536
G01 X26.0998 Y8.5715
G01 X26.1087 Y8.5459
G01 X26.1414 Y8.4670
G01 X26.1532 Y8.4426
G01 X26.1945 Y8.3678
G01 X26.2070 Y8.3477
G01 X26.2584 Y8.2752
G01 X26.2757 Y8.2544
G01 X26.2752 Y8.2540
G01 X26.3322 Y8.1903
G01 X26.3513 Y8.1712
G01 X26.4150 Y8.1142
G01 X26.4362 Y8.0974
G01 X26.5059 Y8.0479
G01 X26.5288 Y8.0335
G01 X26.6036 Y7.9922
G01 X26.6267 Y7.9810
G01 X26.7069 Y7.9477
G01 X26.7325 Y7.9388
G01 X26.8146 Y7.9151
G01 X26.8357 Y7.9101
G01 X26.9252 Y7.8948
G01 X26.9521 Y7.8918
G01 X27.0510 Y7.8866
G01 X27.1499 Y7.8918
G01 X27.1768 Y7.8948
G01 X27.2610 Y7.9091
G01 X27.2874 Y7.9151
G01 X27.3695 Y7.9388
G01 X27.3951 Y7.9477
G01 X27.4740 Y7.9804
G01 X27.4984 Y7.9922
G01 X27.5732 Y8.0335
G01 X27.5933 Y8.0460
G01 X27.6658 Y8.0974
G01 X27.6866 Y8.1147
G01 X27.6870 Y8.1142
G01 X27.7507 Y8.1712
G01 X27.7698 Y8.1903
G01 X27.8268 Y8.2540
G01 X27.8436 Y8.2752
G01 X27.8931 Y8.3449
G01 X27.9075 Y8.3678
G01 X27.9488 Y8.4426
G01 X27.9600 Y8.4657
G01 X27.9933 Y8.5459
G01 X28.0022 Y8.5715
G01 X28.0259 Y8.6536
G01 X28.0309 Y8.6747
G01 X28.0462 Y8.7642
G01 X28.0492 Y8.7911
G01 X28.0544 Y8.8900
G01 X28.0492 Y8.9889
G01 X28.0462 Y9.0158
G01 X28.0319 Y9.1000
G01 X28.0259 Y9.1264
G01 X28.0022 Y9.2085
G01 X27.9933 Y9.2341
G01 X27.9606 Y9.3130
G01 X27.9488 Y9.3374
G01 X27.9075 Y9.4122
G01 X27.8950 Y9.4323
G01 X27.8436 Y9.5048
G01 X27.8263 Y9.5256
G01 X27.8268 Y9.5260
G01 X27.7698 Y9.5897
G01 X27.7507 Y9.6088
G01 X27.6870 Y9.6658
G01 X27.6658 Y9.6826
G01 X27.5961 Y9.7321
G01 X27.5732 Y9.7465
G01 X27.4984 Y9.7878
G01 X27.4753 Y9.7990
G01 X27.3951 Y9.8323
G01 X27.3695 Y9.8412
G01 X27.2874 Y9.8649
G01 X27.2663 Y9.8699
G01 X27.1768 Y9.8852
G01 X27.1499 Y9.8882
G01 X27.0510 Y9.8934
G01 X26.9521 Y9.8882
G01 X26.9252 Y9.8852
G01 X26.8410 Y9.8709
G01 X26.8146 Y9.8649
G01 X26.7325 Y9.8412
G01 X26.7069 Y9.8323
G01 X26.6280 Y9.7996
G01 X26.6036 Y9.7878
G01 X26.5288 Y9.7465
G01 X26.5087 Y9.7340
G01 X26.4362 Y9.6826
G01 X26.4154 Y9.6653
G01 X26.4150 Y9.6658
G01 X26.3513 Y9.6088
G01 X26.3322 Y9.5897
G01 X26.2752 Y9.5260
G01 X26.2584 Y9.5048
G01 X26.2089 Y9.4351
G01 X26.1945 Y9.4122
G01 X26.1532 Y9.3374
G01 X26.1420 Y9.3143
G01 X26.1087 Y9.2341
G01 X26.0998 Y9.2085
G01 X26.0761 Y9.1264
G01 X26.0711 Y9.1053
G01 X26.0558 Y9.0158
G01 X26.0532 Y8.9888
G00 Z2.0000
G00 X26.2091 Y8.9801
G01 F350.00
G01 Z-0.1306
G01 F400.00
G01 X26.2040 Y8.8900
G01 X26.2089 Y8.7999
G01 X26.2243 Y8.7062
G01 X26.2501 Y8.6148
G01 X26.2859 Y8.5269
G01 X26.3314 Y8.4435
G01 X26.3859 Y8.3657
G01 X26.3919 Y8.3583
G01 X26.4555 Y8.2878
G01 X26.5267 Y8.2249
G01 X26.5964 Y8.1755
G01 X26.6793 Y8.1291
G01 X26.7668 Y8.0922
G01 X26.7758 Y8.0891
G01 X26.8653 Y8.0636
G01 X26.9609 Y8.0479
G01 X27.0510 Y8.0430
G01 X27.1411 Y8.0479
G01 X27.2348 Y8.0633
G01 X27.3262 Y8.0891
G01 X27.4141 Y8.1249
G01 X27.4975 Y8.1704
G01 X27.5753 Y8.2249
G01 X27.5827 Y8.2309
G01 X27.6532 Y8.2945
G01 X27.7161 Y8.3657
G01 X27.7655 Y8.4354
G01 X27.8119 Y8.5183
G01 X27.8488 Y8.6058
G01 X27.8519 Y8.6148
G01 X27.8774 Y8.7043
G01 X27.8931 Y8.7999
G01 X27.8980 Y8.8900
G01 X27.8931 Y8.9801
G01 X27.8777 Y9.0738
G01 X27.8519 Y9.1652
G01 X27.8161 Y9.2531
G01 X27.7706 Y9.3365
G01 X27.7161 Y9.4143
G01 X27.7101 Y9.4217
G01 X27.6465 Y9.4922
G01 X27.5753 Y9.5551
G01 X27.5056 Y9.6045
G01 X27.4227 Y9.6509
G01 X27.3352 Y9.6878
G01 X27.3262 Y9.6909
G01 X27.2367 Y9.7164
G01 X27.1411 Y9.7321
G01 X27.0510 Y9.7370
G01 X26.9609 Y9.7321
G01 X26.8672 Y9.7167
G01 X26.7758 Y9.6909
G01 X26.6879 Y9.6551
G01 X26.6045 Y9.6096
G01 X26.5267 Y9.5551
G01 X26.5193 Y9.5491
G01 X26.4488 Y9.4855
G01 X26.3859 Y9.4143
G01 X26.3365 Y9.3446
G01 X26.2901 Y9.2617
G01 X26.2532 Y9.1742
G01 X26.2264 Y9.0831
G01 X26.2100 Y8.9896
G01 X26.2091 Y8.9801
G00 Z2.0000
G00 X28.0795 Y9.0946
G01 F350.00
G01 Z-0.1306
G01 F400.00
G01 X27.9230 Y9.4726
G01 X27.6336 Y9.7620
G01 X27.2556 Y9.9185
G01 X26.8464 Y9.9185
G01 X26.4684 Y9.7620
G01 X26.1790 Y9.4726
G01 X26.0225 Y9.0946
G01 X26.0225 Y8.6854
G01 X26.1790 Y8.3074
G01 X26.4684 Y8.0180
G01 X26.8464 Y7.8615
G01 X27.2556 Y7.8615
G01 X27.6336 Y8.0180
G01 X27.9230 Y8.3074
G01 X28.0795 Y8.6854
G01 X28.0795 Y9.0946
G00 Z2.0000
G00 X28.2359 Y9.1257
G01 F350.00
G01 Z-0.1306
G01 F400.00
G01 X28.0555 Y9.5612
G01 X27.7222 Y9.8945
G01 X27.2867 Y10.0749
G01 X26.8153 Y10.0749
G01 X26.3798 Y9.8945
G01 X26.0465 Y9.5612
G01 X25.8661 Y9.1257
G01 X25.8661 Y8.6543
G01 X26.0465 Y8.2188
G01 X26.3798 Y7.8855
G01 X26.8153 Y7.7051
G01 X27.2867 Y7.7051
G01 X27.7222 Y7.8855
G01 X28.0555 Y8.2188
G01 X28.2359 Y8.6543
G01 X28.2359 Y9.1257
G00 Z2.0000
G00 X28.0795 Y14.1746
G01 F350.00
G01 Z-0.1306
G01 F400.00
G01 X27.9230 Y14.5526
G01 X27.6336 Y14.8420
G01 X27.2556 Y14.9985
G01 X26.8464 Y14.9985
G01 X26.4684 Y14.8420
G01 X26.1790 Y14.5526
G01 X26.0225 Y14.1746
G01 X26.0225 Y13.7654
G01 X26.1790 Y13.3874
G01 X26.4684 Y13.0980
G01 X26.8464 Y12.9415
G01 X27.2556 Y12.9415
G01 X27.6336 Y13.0980
G01 X27.9230 Y13.3874
G01 X28.0795 Y13.7654
G01 X28.0795 Y14.1746
G00 Z2.0000
G00 X28.2359 Y14.2057
G01 F350.00
G01 Z-0.1306
G01 F400.00
G01 X28.0555 Y14.6412
G01 X27.7222 Y14.9745
G01 X27.2867 Y15.1549
G01 X26.8153 Y15.1549
G01 X26.3798 Y14.9745
G01 X26.0465 Y14.6412
G01 X25.8661 Y14.2057
G01 X25.8661 Y13.7343
G01 X26.0465 Y13.2988
G01 X26.3798 Y12.9655
G01 X26.8153 Y12.7851
G01 X27.2867 Y12.7851
G01 X27.7222 Y12.9655
G01 X28.0555 Y13.2988
G01 X28.2359 Y13.7343
G01 X28.2359 Y14.2057
G00 Z2.0000
G00 X26.2091 Y14.0601
G01 F350.00
G01 Z-0.1306
G01 F400.00
G01 X26.2040 Y13.9700
G01 X26.2089 Y13.8799
G01 X26.2243 Y13.7862
G01 X26.2501 Y13.6948
G01 X26.2859 Y13.6069
G01 X26.3314 Y13.5235
G01 X26.3859 Y13.4457
G01 X26.3919 Y13.4383
G01 X26.4555 Y13.3678
G01 X26.5267 Y13.3049
G01 X26.5964 Y13.2555
G01 X26.6793 Y13.2091
G01 X26.7668 Y13.1722
G01 X26.7758 Y13.1691
G01 X26.8653 Y13.1436
G01 X26.9609 Y13.1279
G01 X27.0510 Y13.1230
G01 X27.1411 Y13.1279
G01 X27.2348 Y13.1433
G01 X27.3262 Y13.1691
G01 X27.4141 Y13.2049
G01 X27.4975 Y13.2504
G01 X27.5753 Y13.3049
G01 X27.5827 Y13.3109
G01 X27.6532 Y13.3745
G01 X27.7161 Y13.4457
G01 X27.7655 Y13.5154
G01 X27.8119 Y13.5983
G01 X27.8488 Y13.6858
G01 X27.8519 Y13.6948
G01 X27.8774 Y13.7843
G01 X27.8931 Y13.8799
G01 X27.8980 Y13.9700
G01 X27.8931 Y14.0601
G01 X27.8777 Y14.1538
G01 X27.8519 Y14.2452
G01 X27.8161 Y14.3331
G01 X27.7706 Y14.4165
G01 X27.7161 Y14.4943
G01 X27.7101 Y14.5017
G01 X27.6465 Y14.5722
G01 X27.5753 Y14.6351
G01 X27.5056 Y14.6845
G01 X27.4227 Y14.7309
G01 X27.3352 Y14.7678
G01 X27.3262 Y14.7709
G01 X27.2367 Y14.7964
G01 X27.1411 Y14.8121
G01 X27.0510 Y14.8170
G01 X26.9609 Y14.8121
G01 X26.8672 Y14.7967
G01 X26.7758 Y14.7709
G01 X26.6879 Y14.7351
G01 X26.6045 Y14.6896
G01 X26.5267 Y14.6351
G01 X26.5193 Y14.6291
G01 X26.4488 Y14.5655
G01 X26.3859 Y14.4943
G01 X26.3365 Y14.4246
G01 X26.2901 Y14.3417
G01 X26.2532 Y14.2542
G01 X26.2264 Y14.1631
G01 X26.2100 Y14.0696
G01 X26.2091 Y14.0601
G00 Z2.0000
G00 X26.0532 Y14.0688
G01 F350.00
G01 Z-0.1306
G01 F400.00
G01 X26.0476 Y13.9700
G01 X26.0528 Y13.8711
G01 X26.0558 Y13.8442
G01 X26.0701 Y13.7600
G01 X26.0761 Y13.7336
G01 X26.0998 Y13.6515
G01 X26.1087 Y13.6259
G01 X26.1414 Y13.5470
G01 X26.1532 Y13.5226
G01 X26.1945 Y13.4478
G01 X26.2070 Y13.4277
G01 X26.2584 Y13.3552
G01 X26.2757 Y13.3344
G01 X26.2752 Y13.3340
G01 X26.3322 Y13.2703
G01 X26.3513 Y13.2512
G01 X26.4150 Y13.1942
G01 X26.4362 Y13.1774
G01 X26.5059 Y13.1279
G01 X26.5288 Y13.1135
G01 X26.6036 Y13.0722
G01 X26.6267 Y13.0610
G01 X26.7069 Y13.0277
G01 X26.7325 Y13.0188
G01 X26.8146 Y12.9951
G01 X26.8357 Y12.9901
G01 X26.9252 Y12.9748
G01 X26.9521 Y12.9718
G01 X27.0510 Y12.9666
G01 X27.1499 Y12.9718
G01 X27.1768 Y12.9748
G01 X27.2610 Y12.9891
G01 X27.2874 Y12.9951
G01 X27.3695 Y13.0188
G01 X27.3951 Y13.0277
G01 X27.4740 Y13.0604
G01 X27.4984 Y13.0722
G01 X27.5732 Y13.1135
G01 X27.5933 Y13.1260
G01 X27.6658 Y13.1774
G01 X27.6866 Y13.1947
G01 X27.6870 Y13.1942
G01 X27.7507 Y13.2512
G01 X27.7698 Y13.2703
G01 X27.8268 Y13.3340
G01 X27.8436 Y13.3552
G01 X27.8931 Y13.4249
G01 X27.9075 Y13.4478
G01 X27.9488 Y13.5226
G01 X27.9600 Y13.5457
G01 X27.9933 Y13.6259
G01 X28.0022 Y13.6515
G01 X28.0259 Y13.7336
G01 X28.0309 Y13.7547
G01 X28.0462 Y13.8442
G01 X28.0492 Y13.8711
G01 X28.0544 Y13.9700
G01 X28.0492 Y14.0689
G01 X28.0462 Y14.0958
G01 X28.0319 Y14.1800
G01 X28.0259 Y14.2064
G01 X28.0022 Y14.2885
G01 X27.9933 Y14.3141
G01 X27.9606 Y14.3930
G01 X27.9488 Y14.4174
G01 X27.9075 Y14.4922
G01 X27.8950 Y14.5123
G01 X27.8436 Y14.5848
G01 X27.8263 Y14.6056
G01 X27.8268 Y14.6060
G01 X27.7698 Y14.6697
G01 X27.7507 Y14.6888
G01 X27.6870 Y14.7458
G01 X27.6658 Y14.7626
G01 X27.5961 Y14.8121
G01 X27.5732 Y14.8265
G01 X27.4984 Y14.8678
G01 X27.4753 Y14.8790
G01 X27.3951 Y14.9123
G01 X27.3695 Y14.9212
G01 X27.2874 Y14.9449
G01 X27.2663 Y14.9499
G01 X27.1768 Y14.9652
G01 X27.1499 Y14.9682
G01 X27.0510 Y14.9734
G01 X26.9521 Y14.9682
G01 X26.9252 Y14.9652
G01 X26.8410 Y14.9509
G01 X26.8146 Y14.9449
G01 X26.7325 Y14.9212
G01 X26.7069 Y14.9123
G01 X26.6280 Y14.8796
G01 X26.6036 Y14.8678
G01 X26.5288 Y14.8265
G01 X26.5087 Y14.8140
G01 X26.4362 Y14.7626
G01 X26.4154 Y14.7453
G01 X26.4150 Y14.7458
G01 X26.3513 Y14.6888
G01 X26.3322 Y14.6697
G01 X26.2752 Y14.6060
G01 X26.2584 Y14.5848
G01 X26.2089 Y14.5151
G01 X26.1945 Y14.4922
G01 X26.1532 Y14.4174
G01 X26.1420 Y14.3943
G01 X26.1087 Y14.3141
G01 X26.0998 Y14.2885
G01 X26.0761 Y14.2064
G01 X26.0711 Y14.1853
G01 X26.0558 Y14.0958
G01 X26.0532 Y14.0688
G00 Z2.0000
G00 X26.2091 Y19.1401
G01 F350.00
G01 Z-0.1306
G01 F400.00
G01 X26.2040 Y19.0500
G01 X26.2089 Y18.9599
G01 X26.2243 Y18.8662
G01 X26.2501 Y18.7748
G01 X26.2859 Y18.6869
G01 X26.3314 Y18.6035
G01 X26.3859 Y18.5257
G01 X26.3919 Y18.5183
G01 X26.4555 Y18.4478
G01 X26.5267 Y18.3849
G01 X26.5964 Y18.3355
G01 X26.6793 Y18.2891
G01 X26.7668 Y18.2522
G01 X26.7758 Y18.2491
G01 X26.8653 Y18.2236
G01 X26.9609 Y18.2079
G01 X27.0510 Y18.2030
G01 X27.1411 Y18.2079
G01 X27.2348 Y18.2233
G01 X27.3262 Y18.2491
G01 X27.4141 Y18.2849
G01 X27.4975 Y18.3304
G01 X27.5753 Y18.3849
G01 X27.5827 Y18.3909
G01 X27.6532 Y18.4545
G01 X27.7161 Y18.5257
G01 X27.7655 Y18.5954
G01 X27.8119 Y18.6783
G01 X27.8488 Y18.7658
G01 X27.8519 Y18.7748
G01 X27.8774 Y18.8643
G01 X27.8931 Y18.9599
G01 X27.8980 Y19.0500
G01 X27.8931 Y19.1401
G01 X27.8777 Y19.2338
G01 X27.8519 Y19.3252
G01 X27.8161 Y19.4131
G01 X27.7706 Y19.4965
G01 X27.7161 Y19.5743
G01 X27.7101 Y19.5817
G01 X27.6465 Y19.6522
G01 X27.5753 Y19.7151
G01 X27.5056 Y19.7645
G01 X27.4227 Y19.8109
G01 X27.3352 Y19.8478
G01 X27.3262 Y19.8509
G01 X27.2367 Y19.8764
G01 X27.1411 Y19.8921
G01 X27.0510 Y19.8970
G01 X26.9609 Y19.8921
G01 X26.8672 Y19.8767
G01 X26.7758 Y19.8509
G01 X26.6879 Y19.8151
G01 X26.6045 Y19.7696
G01 X26.5267 Y19.7151
G01 X26.5193 Y19.7091
G01 X26.4488 Y19.6455
G01 X26.3859 Y19.5743
G01 X26.3365 Y19.5046
G01 X26.2901 Y19.4217
G01 X26.2532 Y19.3342
G01 X26.2264 Y19.2431
G01 X26.2100 Y19.1496
G01 X26.2091 Y19.1401
G00 Z2.0000
G00 X26.0532 Y19.1488
G01 F350.00
G01 Z-0.1306
G01 F400.00
G01 X26.0476 Y19.0500
G01 X26.0528 Y18.9511
G01 X26.0558 Y18.9242
G01 X26.0701 Y18.8400
G01 X26.0761 Y18.8136
G01 X26.0998 Y18.7315
G01 X26.1087 Y18.7059
G01 X26.1414 Y18.6270
G01 X26.1532 Y18.6026
G01 X26.1945 Y18.5278
G01 X26.2070 Y18.5077
G01 X26.2584 Y18.4352
G01 X26.2757 Y18.4144
G01 X26.2752 Y18.4140
G01 X26.3322 Y18.3503
G01 X26.3513 Y18.3312
G01 X26.4150 Y18.2742
G01 X26.4362 Y18.2574
G01 X26.5059 Y18.2079
G01 X26.5288 Y18.1935
G01 X26.6036 Y18.1522
G01 X26.6267 Y18.1410
G01 X26.7069 Y18.1077
G01 X26.7325 Y18.0988
G01 X26.8146 Y18.0751
G01 X26.8357 Y18.0701
G01 X26.9252 Y18.0548
G01 X26.9521 Y18.0518
G01 X27.0510 Y18.0466
G01 X27.1499 Y18.0518
G01 X27.1768 Y18.0548
G01 X27.2610 Y18.0691
G01 X27.2874 Y18.0751
G01 X27.3695 Y18.0988
G01 X27.3951 Y18.1077
G01 X27.4740 Y18.1404
G01 X27.4984 Y18.1522
G01 X27.5732 Y18.1935
G01 X27.5933 Y18.2060
G01 X27.6658 Y18.2574
G01 X27.6866 Y18.2747
G01 X27.6870 Y18.2742
G01 X27.7507 Y18.3312
G01 X27.7698 Y18.3503
G01 X27.8268 Y18.4140
G01 X27.8436 Y18.4352
G01 X27.8931 Y18.5049
G01 X27.9075 Y18.5278
G01 X27.9488 Y18.6026
G01 X27.9600 Y18.6257
G01 X27.9933 Y18.7059
G01 X28.0022 Y18.7315
G01 X28.0259 Y18.8136
G01 X28.0309 Y18.8347
G01 X28.0462 Y18.9242
G01 X28.0492 Y18.9511
G01 X28.0544 Y19.0500
G01 X28.0492 Y19.1489
G01 X28.0462 Y19.1758
G01 X28.0319 Y19.2600
G01 X28.0259 Y19.2864
G01 X28.0022 Y19.3685
G01 X27.9933 Y19.3941
G01 X27.9606 Y19.4730
G01 X27.9488 Y19.4974
G01 X27.9075 Y19.5722
G01 X27.8950 Y19.5923
G01 X27.8436 Y19.6648
G01 X27.8263 Y19.6856
G01 X27.8268 Y19.6860
G01 X27.7698 Y19.7497
G01 X27.7507 Y19.7688
G01 X27.6870 Y19.8258
G01 X27.6658 Y19.8426
G01 X27.5961 Y19.8921
G01 X27.5732 Y19.9065
G01 X27.4984 Y19.9478
G01 X27.4753 Y19.9590
G01 X27.3951 Y19.9923
G01 X27.3695 Y20.0012
G01 X27.2874 Y20.0249
G01 X27.2663 Y20.0299
G01 X27.1768 Y20.0452
G01 X27.1499 Y20.0482
G01 X27.0510 Y20.0534
G01 X26.9521 Y20.0482
G01 X26.9252 Y20.0452
G01 X26.8410 Y20.0309
G01 X26.8146 Y20.0249
G01 X26.7325 Y20.0012
G01 X26.7069 Y19.9923
G01 X26.6280 Y19.9596
G01 X26.6036 Y19.9478
G01 X26.5288 Y19.9065
G01 X26.5087 Y19.8940
G01 X26.4362 Y19.8426
G01 X26.4154 Y19.8253
G01 X26.4150 Y19.8258
G01 X26.3513 Y19.7688
G01 X26.3322 Y19.7497
G01 X26.2752 Y19.6860
G01 X26.2584 Y19.6648
G01 X26.2089 Y19.5951
G01 X26.1945 Y19.5722
G01 X26.1532 Y19.4974
G01 X26.1420 Y19.4743
G01 X26.1087 Y19.3941
G01 X26.0998 Y19.3685
G01 X26.0761 Y19.2864
G01 X26.0711 Y19.2653
G01 X26.0558 Y19.1758
G01 X26.0532 Y19.1488
G00 Z2.0000
G00 X26.5130 Y20.2570
G01 F350.00
G01 Z-0.1306
G01 F400.00
G01 X26.5273 Y20.2274
G01 X26.5328 Y20.2142
G01 X26.5475 Y20.1721
G01 X26.5515 Y20.1584
G01 X26.5614 Y20.1149
G01 X26.5636 Y20.1019
G01 X26.6471 Y20.1368
G01 X26.6892 Y20.1515
G01 X26.7713 Y20.1751
G01 X26.8148 Y20.1851
G01 X26.8990 Y20.1994
G01 X26.9434 Y20.2044
G01 X27.0510 Y20.2098
G01 X27.1586 Y20.2044
G01 X27.1586 Y20.2036
G01 X27.2030 Y20.1994
G01 X27.2960 Y20.1835
G01 X27.3307 Y20.1751
G01 X27.4128 Y20.1515
G01 X27.4549 Y20.1368
G01 X27.5384 Y20.1020
G01 X27.5422 Y20.1237
G01 X27.5545 Y20.1721
G01 X27.5692 Y20.2142
G01 X27.5755 Y20.2295
G01 X27.5889 Y20.2570
G01 X26.5130 Y20.2570
G00 Z2.0000
G00 X26.2091 Y26.7601
G01 F350.00
G01 Z-0.1306
G01 F400.00
G01 X26.2040 Y26.6700
G01 X26.2089 Y26.5799
G01 X26.2243 Y26.4862
G01 X26.2501 Y26.3948
G01 X26.2859 Y26.3069
G01 X26.3314 Y26.2235
G01 X26.3859 Y26.1457
G01 X26.3919 Y26.1383
G01 X26.4555 Y26.0678
G01 X26.5267 Y26.0049
G01 X26.5964 Y25.9555
G01 X26.6793 Y25.9091
G01 X26.7668 Y25.8722
G01 X26.7758 Y25.8691
G01 X26.8653 Y25.8436
G01 X26.9609 Y25.8279
G01 X27.0510 Y25.8230
G01 X27.1411 Y25.8279
G01 X27.2348 Y25.8433
G01 X27.3262 Y25.8691
G01 X27.4141 Y25.9049
G01 X27.4975 Y25.9504
G01 X27.5753 Y26.0049
G01 X27.5827 Y26.0109
G01 X27.6532 Y26.0745
G01 X27.7161 Y26.1457
G01 X27.7655 Y26.2154
G01 X27.8119 Y26.2983
G01 X27.8488 Y26.3858
G01 X27.8519 Y26.3948
G01 X27.8774 Y26.4843
G01 X27.8931 Y26.5799
G01 X27.8980 Y26.6700
G01 X27.8931 Y26.7601
G01 X27.8777 Y26.8538
G01 X27.8519 Y26.9452
G01 X27.8161 Y27.0331
G01 X27.7706 Y27.1165
G01 X27.7161 Y27.1943
G01 X27.7101 Y27.2017
G01 X27.6465 Y27.2722
G01 X27.5753 Y27.3351
G01 X27.5056 Y27.3845
G01 X27.4227 Y27.4309
G01 X27.3352 Y27.4678
G01 X27.3262 Y27.4709
G01 X27.2367 Y27.4964
G01 X27.1411 Y27.5121
G01 X27.0510 Y27.5170
G01 X26.9609 Y27.5121
G01 X26.8672 Y27.4967
G01 X26.7758 Y27.4709
G01 X26.6879 Y27.4351
G01 X26.6045 Y27.3896
G01 X26.5267 Y27.3351
G01 X26.5193 Y27.3291
G01 X26.4488 Y27.2655
G01 X26.3859 Y27.1943
G01 X26.3365 Y27.1246
G01 X26.2901 Y27.0417
G01 X26.2532 Y26.9542
G01 X26.2264 Y26.8631
G01 X26.2100 Y26.7696
G01 X26.2091 Y26.7601
G00 Z2.0000
G00 X26.0532 Y26.7688
G01 F350.00
G01 Z-0.1306
G01 F400.00
G01 X26.0476 Y26.6700
G01 X26.0528 Y26.5711
G01 X26.0558 Y26.5442
G01 X26.0701 Y26.4600
G01 X26.0761 Y26.4336
G01 X26.0998 Y26.3515
G01 X26.1087 Y26.3259
G01 X26.1414 Y26.2470
G01 X26.1532 Y26.2226
G01 X26.1945 Y26.1478
G01 X26.2070 Y26.1277
G01 X26.2584 Y26.0552
G01 X26.2757 Y26.0344
G01 X26.2752 Y26.0340
G01 X26.3322 Y25.9703
G01 X26.3513 Y25.9512
G01 X26.4150 Y25.8942
G01 X26.4362 Y25.8774
G01 X26.5059 Y25.8279
G01 X26.5288 Y25.8135
G01 X26.6036 Y25.7722
G01 X26.6267 Y25.7610
G01 X26.7069 Y25.7277
G01 X26.7325 Y25.7188
G01 X26.8146 Y25.6951
G01 X26.8357 Y25.6901
G01 X26.9252 Y25.6748
G01 X26.9521 Y25.6718
G01 X27.0510 Y25.6666
G01 X27.1499 Y25.6718
G01 X27.1768 Y25.6748
G01 X27.2610 Y25.6891
G01 X27.2874 Y25.6951
G01 X27.3695 Y25.7188
G01 X27.3951 Y25.7277
G01 X27.4740 Y25.7604
G01 X27.4984 Y25.7722
G01 X27.5732 Y25.8135
G01 X27.5933 Y25.8260
G01 X27.6658 Y25.8774
G01 X27.6866 Y25.8947
G01 X27.6870 Y25.8942
G01 X27.7507 Y25.9512
G01 X27.7698 Y25.9703
G01 X27.8268 Y26.0340
G01 X27.8436 Y26.0552
G01 X27.8931 Y26.1249
G01 X27.9075 Y26.1478
G01 X27.9488 Y26.2226
G01 X27.9600 Y26.2457
G01 X27.9933 Y26.3259
G01 X28.0022 Y26.3515
G01 X28.0259 Y26.4336
G01 X28.0309 Y26.4547
G01 X28.0462 Y26.5442
G01 X28.0492 Y26.5711
G01 X28.0544 Y26.6700
G01 X28.0492 Y26.7689
G01 X28.0462 Y26.7958
G01 X28.0319 Y26.8800
G01 X28.0259 Y26.9064
G01 X28.0022 Y26.9885
G01 X27.9933 Y27.0141
G01 X27.9606 Y27.0930
G01 X27.9488 Y27.1174
G01 X27.9075 Y27.1922
G01 X27.8950 Y27.2123
G01 X27.8436 Y27.2848
G01 X27.8263 Y27.3056
G01 X27.8268 Y27.3060
G01 X27.7698 Y27.3697
G01 X27.7507 Y27.3888
G01 X27.6870 Y27.4458
G01 X27.6658 Y27.4626
G01 X27.5961 Y27.5121
G01 X27.5732 Y27.5265
G01 X27.4984 Y27.5678
G01 X27.4753 Y27.5790
G01 X27.3951 Y27.6123
G01 X27.3695 Y27.6212
G01 X27.2874 Y27.6449
G01 X27.2663 Y27.6499
G01 X27.1768 Y27.6652
G01 X27.1499 Y27.6682
G01 X27.0510 Y27.6734
G01 X26.9521 Y27.6682
G01 X26.9252 Y27.6652
G01 X26.8410 Y27.6509
G01 X26.8146 Y27.6449
G01 X26.7325 Y27.6212
G01 X26.7069 Y27.6123
G01 X26.6280 Y27.5796
G01 X26.6036 Y27.5678
G01 X26.5288 Y27.5265
G01 X26.5087 Y27.5140
G01 X26.4362 Y27.4626
G01 X26.4154 Y27.4453
G01 X26.4150 Y27.4458
G01 X26.3513 Y27.3888
G01 X26.3322 Y27.3697
G01 X26.2752 Y27.3060
G01 X26.2584 Y27.2848
G01 X26.2089 Y27.2151
G01 X26.1945 Y27.1922
G01 X26.1532 Y27.1174
G01 X26.1420 Y27.0943
G01 X26.1087 Y27.0141
G01 X26.0998 Y26.9885
G01 X26.0761 Y26.9064
G01 X26.0711 Y26.8853
G01 X26.0558 Y26.7958
G01 X26.0532 Y26.7688
G00 Z2.0000
G00 X28.0795 Y26.8746
G01 F350.00
G01 Z-0.1306
G01 F400.00
G01 X27.9230 Y27.2526
G01 X27.6336 Y27.5420
G01 X27.2556 Y27.6985
G01 X26.8464 Y27.6985
G01 X26.4684 Y27.5420
G01 X26.1790 Y27.2526
G01 X26.0225 Y26.8746
G01 X26.0225 Y26.4654
G01 X26.1790 Y26.0874
G01 X26.4684 Y25.7980
G01 X26.8464 Y25.6415
G01 X27.2556 Y25.6415
G01 X27.6336 Y25.7980
G01 X27.9230 Y26.0874
G01 X28.0795 Y26.4654
G01 X28.0795 Y26.8746
G00 Z2.0000
G00 X28.2359 Y26.9057
G01 F350.00
G01 Z-0.1306
G01 F400.00
G01 X28.0555 Y27.3412
G01 X27.7222 Y27.6745
G01 X27.2867 Y27.8549
G01 X26.8153 Y27.8549
G01 X26.3798 Y27.6745
G01 X26.0465 Y27.3412
G01 X25.8661 Y26.9057
G01 X25.8661 Y26.4343
G01 X26.0465 Y25.9988
G01 X26.3798 Y25.6655
G01 X26.8153 Y25.4851
G01 X27.2867 Y25.4851
G01 X27.7222 Y25.6655
G01 X28.0555 Y25.9988
G01 X28.2359 Y26.4343
G01 X28.2359 Y26.9057
G00 Z2.0000
G00 X26.2983 Y31.0823
G01 F350.00
G01 Z-0.1306
G01 F400.00
G01 X26.2930 Y30.9880
G01 X26.2982 Y30.8937
G01 X26.3143 Y30.7957
G01 X26.3412 Y30.7002
G01 X26.3787 Y30.6084
G01 X26.4262 Y30.5213
G01 X26.4832 Y30.4400
G01 X26.4892 Y30.4326
G01 X26.5557 Y30.3589
G01 X26.6226 Y30.2992
G01 X26.7032 Y30.2413
G01 X26.7898 Y30.1928
G01 X26.8812 Y30.1544
G01 X26.9765 Y30.1264
G01 X27.0742 Y30.1092
G01 X27.0837 Y30.1082
G01 X27.1780 Y30.1030
G01 X27.2818 Y30.1092
G01 X27.3703 Y30.1243
G01 X27.4658 Y30.1512
G01 X27.5576 Y30.1887
G01 X27.6447 Y30.2362
G01 X27.7260 Y30.2932
G01 X27.7334 Y30.2992
G01 X27.8071 Y30.3657
G01 X27.8668 Y30.4326
G01 X27.9247 Y30.5132
G01 X27.9732 Y30.5998
G01 X28.0116 Y30.6912
G01 X28.0396 Y30.7865
G01 X28.0568 Y30.8842
G01 X28.0578 Y30.8937
G01 X28.0630 Y30.9880
G01 X28.0568 Y31.0918
G01 X28.0417 Y31.1803
G01 X28.0148 Y31.2758
G01 X27.9773 Y31.3676
G01 X27.9298 Y31.4547
G01 X27.8728 Y31.5360
G01 X27.8668 Y31.5434
G01 X27.8003 Y31.6171
G01 X27.7334 Y31.6768
G01 X27.6528 Y31.7347
G01 X27.5662 Y31.7832
G01 X27.4748 Y31.8216
G01 X27.3795 Y31.8496
G01 X27.2818 Y31.8668
G01 X27.2723 Y31.8678
G01 X27.1780 Y31.8730
G01 X27.0742 Y31.8668
G01 X26.9857 Y31.8517
G01 X26.8902 Y31.8248
G01 X26.7984 Y31.7873
G01 X26.7113 Y31.7398
G01 X26.6300 Y31.6828
G01 X26.6226 Y31.6768
G01 X26.5489 Y31.6103
G01 X26.4892 Y31.5434
G01 X26.4313 Y31.4628
G01 X26.3828 Y31.3762
G01 X26.3444 Y31.2848
G01 X26.3164 Y31.1895
G01 X26.2992 Y31.0918
G01 X26.2983 Y31.0823
G00 Z2.0000
G00 X26.1425 Y31.0911
G01 F350.00
G01 Z-0.1306
G01 F400.00
G01 X26.1366 Y30.9880
G01 X26.1420 Y30.8849
G01 X26.1450 Y30.8580
G01 X26.1601 Y30.7695
G01 X26.1661 Y30.7432
G01 X26.1909 Y30.6569
G01 X26.1999 Y30.6314
G01 X26.2342 Y30.5485
G01 X26.2459 Y30.5241
G01 X26.2893 Y30.4456
G01 X26.3018 Y30.4254
G01 X26.3557 Y30.3495
G01 X26.3730 Y30.3287
G01 X26.3725 Y30.3284
G01 X26.4323 Y30.2615
G01 X26.4515 Y30.2423
G01 X26.5184 Y30.1825
G01 X26.5395 Y30.1657
G01 X26.6127 Y30.1137
G01 X26.6356 Y30.0993
G01 X26.7141 Y30.0559
G01 X26.7372 Y30.0447
G01 X26.8214 Y30.0099
G01 X26.8469 Y30.0009
G01 X26.9332 Y29.9761
G01 X26.9542 Y29.9710
G01 X27.0480 Y29.9550
G01 X27.0749 Y29.9520
G01 X27.1780 Y29.9466
G01 X27.2811 Y29.9520
G01 X27.3080 Y29.9550
G01 X27.3965 Y29.9701
G01 X27.4228 Y29.9761
G01 X27.5091 Y30.0009
G01 X27.5346 Y30.0099
G01 X27.6175 Y30.0442
G01 X27.6419 Y30.0559
G01 X27.7204 Y30.0993
G01 X27.7406 Y30.1118
G01 X27.8165 Y30.1657
G01 X27.8373 Y30.1830
G01 X27.8376 Y30.1825
G01 X27.9045 Y30.2423
G01 X27.9237 Y30.2615
G01 X27.9835 Y30.3284
G01 X28.0003 Y30.3495
G01 X28.0523 Y30.4227
G01 X28.0667 Y30.4456
G01 X28.1101 Y30.5241
G01 X28.1213 Y30.5472
G01 X28.1561 Y30.6314
G01 X28.1651 Y30.6569
G01 X28.1899 Y30.7432
G01 X28.1950 Y30.7642
G01 X28.2110 Y30.8580
G01 X28.2140 Y30.8849
G01 X28.2194 Y30.9880
G01 X28.2140 Y31.0911
G01 X28.2110 Y31.1180
G01 X28.1959 Y31.2065
G01 X28.1899 Y31.2328
G01 X28.1651 Y31.3191
G01 X28.1561 Y31.3446
G01 X28.1218 Y31.4275
G01 X28.1101 Y31.4519
G01 X28.0667 Y31.5304
G01 X28.0542 Y31.5506
G01 X28.0003 Y31.6265
G01 X27.9830 Y31.6473
G01 X27.9835 Y31.6476
G01 X27.9237 Y31.7145
G01 X27.9045 Y31.7337
G01 X27.8376 Y31.7935
G01 X27.8165 Y31.8103
G01 X27.7433 Y31.8623
G01 X27.7204 Y31.8767
G01 X27.6419 Y31.9201
G01 X27.6188 Y31.9313
G01 X27.5346 Y31.9661
G01 X27.5091 Y31.9751
G01 X27.4228 Y31.9999
G01 X27.4018 Y32.0050
G01 X27.3080 Y32.0210
G01 X27.2811 Y32.0240
G01 X27.1780 Y32.0294
G01 X27.0749 Y32.0240
G01 X27.0480 Y32.0210
G01 X26.9595 Y32.0059
G01 X26.9332 Y31.9999
G01 X26.8469 Y31.9751
G01 X26.8214 Y31.9661
G01 X26.7385 Y31.9318
G01 X26.7141 Y31.9201
G01 X26.6356 Y31.8767
G01 X26.6154 Y31.8642
G01 X26.5395 Y31.8103
G01 X26.5187 Y31.7930
G01 X26.5184 Y31.7935
G01 X26.4515 Y31.7337
G01 X26.4323 Y31.7145
G01 X26.3725 Y31.6476
G01 X26.3557 Y31.6265
G01 X26.3037 Y31.5533
G01 X26.2893 Y31.5304
G01 X26.2459 Y31.4519
G01 X26.2347 Y31.4288
G01 X26.1999 Y31.3446
G01 X26.1909 Y31.3191
G01 X26.1661 Y31.2328
G01 X26.1610 Y31.2118
G01 X26.1450 Y31.1180
G01 X26.1425 Y31.0911
G00 Z2.0000
G00 X28.0630 Y31.5833
G01 F350.00
G01 Z-0.1306
G01 F400.00
G01 X27.9469 Y31.7569
G01 X27.5941 Y31.9927
G01 X27.2830 Y32.0545
G01 X27.0730 Y32.0545
G01 X26.7619 Y31.9927
G01 X26.4091 Y31.7569
G01 X26.1733 Y31.4041
G01 X26.0906 Y30.9880
G01 X26.1733 Y30.5719
G01 X26.4091 Y30.2191
G01 X26.7619 Y29.9833
G01 X27.0730 Y29.9215
G01 X27.2830 Y29.9215
G01 X27.5941 Y29.9833
G01 X27.9469 Y30.2191
G01 X28.1827 Y30.5719
G01 X28.2654 Y30.9880
G01 X28.1827 Y31.4041
G01 X28.0630 Y31.5833
G00 Z2.0000
G00 X28.1930 Y31.6702
G01 F350.00
G01 Z-0.1306
G01 F400.00
G01 X28.0597 Y31.8697
G01 X27.6552 Y32.1400
G01 X27.2984 Y32.2109
G01 X27.0576 Y32.2109
G01 X26.7008 Y32.1400
G01 X26.2963 Y31.8697
G01 X26.0260 Y31.4652
G01 X25.9311 Y30.9880
G01 X26.0260 Y30.5108
G01 X26.2963 Y30.1063
G01 X26.7008 Y29.8360
G01 X27.0576 Y29.7651
G01 X27.2984 Y29.7651
G01 X27.6552 Y29.8360
G01 X28.0597 Y30.1063
G01 X28.3300 Y30.5108
G01 X28.4249 Y30.9880
G01 X28.3300 Y31.4652
G01 X28.1930 Y31.6702
G00 Z2.0000
G00 X33.5626 Y31.7671
G01 F350.00
G01 Z-0.1306
G01 F400.00
G01 X33.5626 Y30.2089
G01 X33.5996 Y30.0230
G01 X33.6931 Y29.8831
G01 X33.8330 Y29.7896
G01 X34.0189 Y29.7526
G01 X35.5771 Y29.7526
G01 X35.7630 Y29.7896
G01 X35.9029 Y29.8831
G01 X35.9964 Y30.0230
G01 X36.0334 Y30.2089
G01 X36.0334 Y31.7671
G01 X35.9964 Y31.9530
G01 X35.9029 Y32.0929
G01 X35.7630 Y32.1864
G01 X35.5771 Y32.2234
G01 X34.0189 Y32.2234
G01 X33.8330 Y32.1864
G01 X33.6931 Y32.0929
G01 X33.5996 Y31.9530
G01 X33.5626 Y31.7671
G00 Z2.0000
G00 X33.7190 Y31.7517
G01 F350.00
G01 Z-0.1306
G01 F400.00
G01 X33.7190 Y30.2243
G01 X33.7469 Y30.0840
G01 X33.8058 Y29.9958
G01 X33.8940 Y29.9369
G01 X34.0343 Y29.9090
G01 X35.5617 Y29.9090
G01 X35.7020 Y29.9369
G01 X35.7902 Y29.9958
G01 X35.8491 Y30.0840
G01 X35.8770 Y30.2243
G01 X35.8770 Y31.7517
G01 X35.8491 Y31.8920
G01 X35.7902 Y31.9802
G01 X35.7020 Y32.0391
G01 X35.5617 Y32.0670
G01 X34.0343 Y32.0670
G01 X33.8940 Y32.0391
G01 X33.8058 Y31.9802
G01 X33.7469 Y31.8920
G01 X33.7190 Y31.7517
G00 Z2.0000
G00 X33.9617 Y30.1112
G01 F350.00
G01 Z-0.1306
G01 F400.00
G01 X33.9703 Y30.1076
G01 X33.9794 Y30.1051
G01 X33.9886 Y30.1035
G01 X33.9980 Y30.1030
G01 X35.5980 Y30.1030
G01 X35.6074 Y30.1035
G01 X35.6166 Y30.1051
G01 X35.6257 Y30.1076
G01 X35.6343 Y30.1112
G01 X35.6429 Y30.1158
G01 X35.6508 Y30.1214
G01 X35.6581 Y30.1279
G01 X35.6646 Y30.1352
G01 X35.6702 Y30.1431
G01 X35.6748 Y30.1517
G01 X35.6784 Y30.1603
G01 X35.6809 Y30.1694
G01 X35.6825 Y30.1786
G01 X35.6830 Y30.1880
G01 X35.6830 Y31.7880
G01 X35.6825 Y31.7974
G01 X35.6809 Y31.8066
G01 X35.6784 Y31.8157
G01 X35.6748 Y31.8243
G01 X35.6702 Y31.8329
G01 X35.6646 Y31.8408
G01 X35.6581 Y31.8481
G01 X35.6508 Y31.8546
G01 X35.6429 Y31.8602
G01 X35.6343 Y31.8648
G01 X35.6257 Y31.8684
G01 X35.6166 Y31.8709
G01 X35.6074 Y31.8725
G01 X35.5980 Y31.8730
G01 X33.9980 Y31.8730
G01 X33.9886 Y31.8725
G01 X33.9794 Y31.8709
G01 X33.9703 Y31.8684
G01 X33.9617 Y31.8648
G01 X33.9531 Y31.8602
G01 X33.9452 Y31.8546
G01 X33.9379 Y31.8481
G01 X33.9314 Y31.8408
G01 X33.9258 Y31.8329
G01 X33.9212 Y31.8243
G01 X33.9176 Y31.8157
G01 X33.9151 Y31.8066
G01 X33.9135 Y31.7974
G01 X33.9130 Y31.7880
G01 X33.9130 Y30.1880
G01 X33.9135 Y30.1786
G01 X33.9151 Y30.1694
G01 X33.9176 Y30.1603
G01 X33.9212 Y30.1517
G01 X33.9258 Y30.1431
G01 X33.9314 Y30.1352
G01 X33.9379 Y30.1279
G01 X33.9452 Y30.1214
G01 X33.9531 Y30.1158
G01 X33.9617 Y30.1112
G00 Z2.0000
G00 X33.8948 Y29.9698
G01 F350.00
G01 Z-0.1306
G01 F400.00
G01 X33.9195 Y29.9597
G01 X33.9451 Y29.9525
G01 X33.9714 Y29.9481
G01 X33.9980 Y29.9466
G01 X35.5980 Y29.9466
G01 X35.6246 Y29.9481
G01 X35.6509 Y29.9525
G01 X35.6765 Y29.9597
G01 X35.7012 Y29.9698
G01 X35.7255 Y29.9830
G01 X35.7481 Y29.9989
G01 X35.7687 Y30.0173
G01 X35.7871 Y30.0379
G01 X35.8030 Y30.0605
G01 X35.8162 Y30.0848
G01 X35.8263 Y30.1095
G01 X35.8335 Y30.1351
G01 X35.8379 Y30.1614
G01 X35.8394 Y30.1880
G01 X35.8394 Y31.7880
G01 X35.8379 Y31.8146
G01 X35.8335 Y31.8409
G01 X35.8263 Y31.8665
G01 X35.8162 Y31.8912
G01 X35.8030 Y31.9155
G01 X35.7871 Y31.9381
G01 X35.7687 Y31.9587
G01 X35.7481 Y31.9771
G01 X35.7255 Y31.9930
G01 X35.7012 Y32.0062
G01 X35.6765 Y32.0163
G01 X35.6509 Y32.0235
G01 X35.6246 Y32.0279
G01 X35.5980 Y32.0294
G01 X33.9980 Y32.0294
G01 X33.9714 Y32.0279
G01 X33.9451 Y32.0235
G01 X33.9195 Y32.0163
G01 X33.8948 Y32.0062
G01 X33.8705 Y31.9930
G01 X33.8479 Y31.9771
G01 X33.8273 Y31.9587
G01 X33.8089 Y31.9381
G01 X33.7930 Y31.9155
G01 X33.7798 Y31.8912
G01 X33.7697 Y31.8665
G01 X33.7625 Y31.8409
G01 X33.7581 Y31.8146
G01 X33.7566 Y31.7880
G01 X33.7566 Y30.1880
G01 X33.7581 Y30.1614
G01 X33.7625 Y30.1351
G01 X33.7697 Y30.1095
G01 X33.7798 Y30.0848
G01 X33.7930 Y30.0605
G01 X33.8089 Y30.0379
G01 X33.8273 Y30.0173
G01 X33.8479 Y29.9989
G01 X33.8705 Y29.9830
G01 X33.8948 Y29.9698
G00 Z2.0000
G00 X33.4861 Y26.9057
G01 F350.00
G01 Z-0.1306
G01 F400.00
G01 X33.4861 Y26.4343
G01 X33.6665 Y25.9988
G01 X33.9998 Y25.6655
G01 X34.4353 Y25.4851
G01 X34.9067 Y25.4851
G01 X35.3422 Y25.6655
G01 X35.6755 Y25.9988
G01 X35.8559 Y26.4343
G01 X35.8559 Y26.9057
G01 X35.6755 Y27.3412
G01 X35.3422 Y27.6745
G01 X34.9067 Y27.8549
G01 X34.4353 Y27.8549
G01 X33.9998 Y27.6745
G01 X33.6665 Y27.3412
G01 X33.4861 Y26.9057
G00 Z2.0000
G00 X33.6425 Y26.8746
G01 F350.00
G01 Z-0.1306
G01 F400.00
G01 X33.6425 Y26.4654
G01 X33.7990 Y26.0874
G01 X34.0884 Y25.7980
G01 X34.4664 Y25.6415
G01 X34.8756 Y25.6415
G01 X35.2536 Y25.7980
G01 X35.5430 Y26.0874
G01 X35.6995 Y26.4654
G01 X35.6995 Y26.8746
G01 X35.5430 Y27.2526
G01 X35.2536 Y27.5420
G01 X34.8756 Y27.6985
G01 X34.4664 Y27.6985
G01 X34.0884 Y27.5420
G01 X33.7990 Y27.2526
G01 X33.6425 Y26.8746
G00 Z2.0000
G00 X33.6732 Y26.7688
G01 F350.00
G01 Z-0.1306
G01 F400.00
G01 X33.6676 Y26.6700
G01 X33.6728 Y26.5711
G01 X33.6758 Y26.5442
G01 X33.6901 Y26.4600
G01 X33.6961 Y26.4336
G01 X33.7198 Y26.3515
G01 X33.7287 Y26.3259
G01 X33.7614 Y26.2470
G01 X33.7732 Y26.2226
G01 X33.8145 Y26.1478
G01 X33.8270 Y26.1277
G01 X33.8784 Y26.0552
G01 X33.8957 Y26.0344
G01 X33.8952 Y26.0340
G01 X33.9522 Y25.9703
G01 X33.9713 Y25.9512
G01 X34.0350 Y25.8942
G01 X34.0562 Y25.8774
G01 X34.1259 Y25.8279
G01 X34.1488 Y25.8135
G01 X34.2236 Y25.7722
G01 X34.2467 Y25.7610
G01 X34.3269 Y25.7277
G01 X34.3525 Y25.7188
G01 X34.4346 Y25.6951
G01 X34.4557 Y25.6901
G01 X34.5452 Y25.6748
G01 X34.5721 Y25.6718
G01 X34.6710 Y25.6666
G01 X34.7699 Y25.6718
G01 X34.7968 Y25.6748
G01 X34.8810 Y25.6891
G01 X34.9074 Y25.6951
G01 X34.9895 Y25.7188
G01 X35.0151 Y25.7277
G01 X35.0940 Y25.7604
G01 X35.1184 Y25.7722
G01 X35.1932 Y25.8135
G01 X35.2133 Y25.8260
G01 X35.2858 Y25.8774
G01 X35.3066 Y25.8947
G01 X35.3070 Y25.8942
G01 X35.3707 Y25.9512
G01 X35.3898 Y25.9703
G01 X35.4468 Y26.0340
G01 X35.4636 Y26.0552
G01 X35.5131 Y26.1249
G01 X35.5275 Y26.1478
G01 X35.5688 Y26.2226
G01 X35.5800 Y26.2457
G01 X35.6133 Y26.3259
G01 X35.6222 Y26.3515
G01 X35.6459 Y26.4336
G01 X35.6509 Y26.4547
G01 X35.6662 Y26.5442
G01 X35.6692 Y26.5711
G01 X35.6744 Y26.6700
G01 X35.6692 Y26.7689
G01 X35.6662 Y26.7958
G01 X35.6519 Y26.8800
G01 X35.6459 Y26.9064
G01 X35.6222 Y26.9885
G01 X35.6133 Y27.0141
G01 X35.5806 Y27.0930
G01 X35.5688 Y27.1174
G01 X35.5275 Y27.1922
G01 X35.5150 Y27.2123
G01 X35.4636 Y27.2848
G01 X35.4463 Y27.3056
G01 X35.4468 Y27.3060
G01 X35.3898 Y27.3697
G01 X35.3707 Y27.3888
G01 X35.3070 Y27.4458
G01 X35.2858 Y27.4626
G01 X35.2161 Y27.5121
G01 X35.1932 Y27.5265
G01 X35.1184 Y27.5678
G01 X35.0953 Y27.5790
G01 X35.0151 Y27.6123
G01 X34.9895 Y27.6212
G01 X34.9074 Y27.6449
G01 X34.8863 Y27.6499
G01 X34.7968 Y27.6652
G01 X34.7699 Y27.6682
G01 X34.6710 Y27.6734
G01 X34.5721 Y27.6682
G01 X34.5452 Y27.6652
G01 X34.4610 Y27.6509
G01 X34.4346 Y27.6449
G01 X34.3525 Y27.6212
G01 X34.3269 Y27.6123
G01 X34.2480 Y27.5796
G01 X34.2236 Y27.5678
G01 X34.1488 Y27.5265
G01 X34.1287 Y27.5140
G01 X34.0562 Y27.4626
G01 X34.0354 Y27.4453
G01 X34.0350 Y27.4458
G01 X33.9713 Y27.3888
G01 X33.9522 Y27.3697
G01 X33.8952 Y27.3060
G01 X33.8784 Y27.2848
G01 X33.8289 Y27.2151
G01 X33.8145 Y27.1922
G01 X33.7732 Y27.1174
G01 X33.7620 Y27.0943
G01 X33.7287 Y27.0141
G01 X33.7198 Y26.9885
G01 X33.6961 Y26.9064
G01 X33.6911 Y26.8853
G01 X33.6758 Y26.7958
G01 X33.6732 Y26.7688
G00 Z2.0000
G00 X33.8291 Y26.7601
G01 F350.00
G01 Z-0.1306
G01 F400.00
G01 X33.8240 Y26.6700
G01 X33.8289 Y26.5799
G01 X33.8443 Y26.4862
G01 X33.8701 Y26.3948
G01 X33.9059 Y26.3069
G01 X33.9514 Y26.2235
G01 X34.0059 Y26.1457
G01 X34.0119 Y26.1383
G01 X34.0755 Y26.0678
G01 X34.1467 Y26.0049
G01 X34.2164 Y25.9555
G01 X34.2993 Y25.9091
G01 X34.3868 Y25.8722
G01 X34.3958 Y25.8691
G01 X34.4853 Y25.8436
G01 X34.5809 Y25.8279
G01 X34.6710 Y25.8230
G01 X34.7611 Y25.8279
G01 X34.8548 Y25.8433
G01 X34.9462 Y25.8691
G01 X35.0341 Y25.9049
G01 X35.1175 Y25.9504
G01 X35.1953 Y26.0049
G01 X35.2027 Y26.0109
G01 X35.2732 Y26.0745
G01 X35.3361 Y26.1457
G01 X35.3855 Y26.2154
G01 X35.4319 Y26.2983
G01 X35.4688 Y26.3858
G01 X35.4719 Y26.3948
G01 X35.4974 Y26.4843
G01 X35.5131 Y26.5799
G01 X35.5180 Y26.6700
G01 X35.5131 Y26.7601
G01 X35.4977 Y26.8538
G01 X35.4719 Y26.9452
G01 X35.4361 Y27.0331
G01 X35.3906 Y27.1165
G01 X35.3361 Y27.1943
G01 X35.3301 Y27.2017
G01 X35.2665 Y27.2722
G01 X35.1953 Y27.3351
G01 X35.1256 Y27.3845
G01 X35.0427 Y27.4309
G01 X34.9552 Y27.4678
G01 X34.9462 Y27.4709
G01 X34.8567 Y27.4964
G01 X34.7611 Y27.5121
G01 X34.6710 Y27.5170
G01 X34.5809 Y27.5121
G01 X34.4872 Y27.4967
G01 X34.3958 Y27.4709
G01 X34.3079 Y27.4351
G01 X34.2245 Y27.3896
G01 X34.1467 Y27.3351
G01 X34.1393 Y27.3291
G01 X34.0688 Y27.2655
G01 X34.0059 Y27.1943
G01 X33.9565 Y27.1246
G01 X33.9101 Y27.0417
G01 X33.8732 Y26.9542
G01 X33.8464 Y26.8631
G01 X33.8300 Y26.7696
G01 X33.8291 Y26.7601
G00 Z2.0000
G00 X34.1330 Y20.2570
G01 F350.00
G01 Z-0.1306
G01 F400.00
G01 X34.1473 Y20.2274
G01 X34.1528 Y20.2142
G01 X34.1675 Y20.1721
G01 X34.1715 Y20.1584
G01 X34.1814 Y20.1149
G01 X34.1836 Y20.1019
G01 X34.2671 Y20.1368
G01 X34.3092 Y20.1515
G01 X34.3913 Y20.1751
G01 X34.4348 Y20.1851
G01 X34.5190 Y20.1994
G01 X34.5634 Y20.2044
G01 X34.6710 Y20.2098
G01 X34.7786 Y20.2044
G01 X34.7786 Y20.2036
G01 X34.8230 Y20.1994
G01 X34.9160 Y20.1835
G01 X34.9507 Y20.1751
G01 X35.0328 Y20.1515
G01 X35.0749 Y20.1368
G01 X35.1584 Y20.1020
G01 X35.1622 Y20.1237
G01 X35.1745 Y20.1721
G01 X35.1892 Y20.2142
G01 X35.1955 Y20.2295
G01 X35.2089 Y20.2570
G01 X34.1330 Y20.2570
G00 Z2.0000
G00 X33.8291 Y19.1401
G01 F350.00
G01 Z-0.1306
G01 F400.00
G01 X33.8240 Y19.0500
G01 X33.8289 Y18.9599
G01 X33.8443 Y18.8662
G01 X33.8701 Y18.7748
G01 X33.9059 Y18.6869
G01 X33.9514 Y18.6035
G01 X34.0059 Y18.5257
G01 X34.0119 Y18.5183
G01 X34.0755 Y18.4478
G01 X34.1467 Y18.3849
G01 X34.2164 Y18.3355
G01 X34.2993 Y18.2891
G01 X34.3868 Y18.2522
G01 X34.3958 Y18.2491
G01 X34.4853 Y18.2236
G01 X34.5809 Y18.2079
G01 X34.6710 Y18.2030
G01 X34.7611 Y18.2079
G01 X34.8548 Y18.2233
G01 X34.9462 Y18.2491
G01 X35.0341 Y18.2849
G01 X35.1175 Y18.3304
G01 X35.1953 Y18.3849
G01 X35.2027 Y18.3909
G01 X35.2732 Y18.4545
G01 X35.3361 Y18.5257
G01 X35.3855 Y18.5954
G01 X35.4319 Y18.6783
G01 X35.4688 Y18.7658
G01 X35.4719 Y18.7748
G01 X35.4974 Y18.8643
G01 X35.5131 Y18.9599
G01 X35.5180 Y19.0500
G01 X35.5131 Y19.1401
G01 X35.4977 Y19.2338
G01 X35.4719 Y19.3252
G01 X35.4361 Y19.4131
G01 X35.3906 Y19.4965
G01 X35.3361 Y19.5743
G01 X35.3301 Y19.5817
G01 X35.2665 Y19.6522
G01 X35.1953 Y19.7151
G01 X35.1256 Y19.7645
G01 X35.0427 Y19.8109
G01 X34.9552 Y19.8478
G01 X34.9462 Y19.8509
G01 X34.8567 Y19.8764
G01 X34.7611 Y19.8921
G01 X34.6710 Y19.8970
G01 X34.5809 Y19.8921
G01 X34.4872 Y19.8767
G01 X34.3958 Y19.8509
G01 X34.3079 Y19.8151
G01 X34.2245 Y19.7696
G01 X34.1467 Y19.7151
G01 X34.1393 Y19.7091
G01 X34.0688 Y19.6455
G01 X34.0059 Y19.5743
G01 X33.9565 Y19.5046
G01 X33.9101 Y19.4217
G01 X33.8732 Y19.3342
G01 X33.8464 Y19.2431
G01 X33.8300 Y19.1496
G01 X33.8291 Y19.1401
G00 Z2.0000
G00 X33.6732 Y19.1488
G01 F350.00
G01 Z-0.1306
G01 F400.00
G01 X33.6676 Y19.0500
G01 X33.6728 Y18.9511
G01 X33.6758 Y18.9242
G01 X33.6901 Y18.8400
G01 X33.6961 Y18.8136
G01 X33.7198 Y18.7315
G01 X33.7287 Y18.7059
G01 X33.7614 Y18.6270
G01 X33.7732 Y18.6026
G01 X33.8145 Y18.5278
G01 X33.8270 Y18.5077
G01 X33.8784 Y18.4352
G01 X33.8957 Y18.4144
G01 X33.8952 Y18.4140
G01 X33.9522 Y18.3503
G01 X33.9713 Y18.3312
G01 X34.0350 Y18.2742
G01 X34.0562 Y18.2574
G01 X34.1259 Y18.2079
G01 X34.1488 Y18.1935
G01 X34.2236 Y18.1522
G01 X34.2467 Y18.1410
G01 X34.3269 Y18.1077
G01 X34.3525 Y18.0988
G01 X34.4346 Y18.0751
G01 X34.4557 Y18.0701
G01 X34.5452 Y18.0548
G01 X34.5721 Y18.0518
G01 X34.6710 Y18.0466
G01 X34.7699 Y18.0518
G01 X34.7968 Y18.0548
G01 X34.8810 Y18.0691
G01 X34.9074 Y18.0751
G01 X34.9895 Y18.0988
G01 X35.0151 Y18.1077
G01 X35.0940 Y18.1404
G01 X35.1184 Y18.1522
G01 X35.1932 Y18.1935
G01 X35.2133 Y18.2060
G01 X35.2858 Y18.2574
G01 X35.3066 Y18.2747
G01 X35.3070 Y18.2742
G01 X35.3707 Y18.3312
G01 X35.3898 Y18.3503
G01 X35.4468 Y18.4140
G01 X35.4636 Y18.4352
G01 X35.5131 Y18.5049
G01 X35.5275 Y18.5278
G01 X35.5688 Y18.6026
G01 X35.5800 Y18.6257
G01 X35.6133 Y18.7059
G01 X35.6222 Y18.7315
G01 X35.6459 Y18.8136
G01 X35.6509 Y18.8347
G01 X35.6662 Y18.9242
G01 X35.6692 Y18.9511
G01 X35.6744 Y19.0500
G01 X35.6692 Y19.1489
G01 X35.6662 Y19.1758
G01 X35.6519 Y19.2600
G01 X35.6459 Y19.2864
G01 X35.6222 Y19.3685
G01 X35.6133 Y19.3941
G01 X35.5806 Y19.4730
G01 X35.5688 Y19.4974
G01 X35.5275 Y19.5722
G01 X35.5150 Y19.5923
G01 X35.4636 Y19.6648
G01 X35.4463 Y19.6856
G01 X35.4468 Y19.6860
G01 X35.3898 Y19.7497
G01 X35.3707 Y19.7688
G01 X35.3070 Y19.8258
G01 X35.2858 Y19.8426
G01 X35.2161 Y19.8921
G01 X35.1932 Y19.9065
G01 X35.1184 Y19.9478
G01 X35.0953 Y19.9590
G01 X35.0151 Y19.9923
G01 X34.9895 Y20.0012
G01 X34.9074 Y20.0249
G01 X34.8863 Y20.0299
G01 X34.7968 Y20.0452
G01 X34.7699 Y20.0482
G01 X34.6710 Y20.0534
G01 X34.5721 Y20.0482
G01 X34.5452 Y20.0452
G01 X34.4610 Y20.0309
G01 X34.4346 Y20.0249
G01 X34.3525 Y20.0012
G01 X34.3269 Y19.9923
G01 X34.2480 Y19.9596
G01 X34.2236 Y19.9478
G01 X34.1488 Y19.9065
G01 X34.1287 Y19.8940
G01 X34.0562 Y19.8426
G01 X34.0354 Y19.8253
G01 X34.0350 Y19.8258
G01 X33.9713 Y19.7688
G01 X33.9522 Y19.7497
G01 X33.8952 Y19.6860
G01 X33.8784 Y19.6648
G01 X33.8289 Y19.5951
G01 X33.8145 Y19.5722
G01 X33.7732 Y19.4974
G01 X33.7620 Y19.4743
G01 X33.7287 Y19.3941
G01 X33.7198 Y19.3685
G01 X33.6961 Y19.2864
G01 X33.6911 Y19.2653
G01 X33.6758 Y19.1758
G01 X33.6732 Y19.1488
G00 Z2.0000
G00 X33.4861 Y14.2057
G01 F350.00
G01 Z-0.1306
G01 F400.00
G01 X33.4861 Y13.7343
G01 X33.6665 Y13.2988
G01 X33.9998 Y12.9655
G01 X34.4353 Y12.7851
G01 X34.9067 Y12.7851
G01 X35.3422 Y12.9655
G01 X35.6755 Y13.2988
G01 X35.8559 Y13.7343
G01 X35.8559 Y14.2057
G01 X35.6755 Y14.6412
G01 X35.3422 Y14.9745
G01 X34.9067 Y15.1549
G01 X34.4353 Y15.1549
G01 X33.9998 Y14.9745
G01 X33.6665 Y14.6412
G01 X33.4861 Y14.2057
G00 Z2.0000
G00 X33.6425 Y14.1746
G01 F350.00
G01 Z-0.1306
G01 F400.00
G01 X33.6425 Y13.7654
G01 X33.7990 Y13.3874
G01 X34.0884 Y13.0980
G01 X34.4664 Y12.9415
G01 X34.8756 Y12.9415
G01 X35.2536 Y13.0980
G01 X35.5430 Y13.3874
G01 X35.6995 Y13.7654
G01 X35.6995 Y14.1746
G01 X35.5430 Y14.5526
G01 X35.2536 Y14.8420
G01 X34.8756 Y14.9985
G01 X34.4664 Y14.9985
G01 X34.0884 Y14.8420
G01 X33.7990 Y14.5526
G01 X33.6425 Y14.1746
G00 Z2.0000
G00 X33.6732 Y14.0688
G01 F350.00
G01 Z-0.1306
G01 F400.00
G01 X33.6676 Y13.9700
G01 X33.6728 Y13.8711
G01 X33.6758 Y13.8442
G01 X33.6901 Y13.7600
G01 X33.6961 Y13.7336
G01 X33.7198 Y13.6515
G01 X33.7287 Y13.6259
G01 X33.7614 Y13.5470
G01 X33.7732 Y13.5226
G01 X33.8145 Y13.4478
G01 X33.8270 Y13.4277
G01 X33.8784 Y13.3552
G01 X33.8957 Y13.3344
G01 X33.8952 Y13.3340
G01 X33.9522 Y13.2703
G01 X33.9713 Y13.2512
G01 X34.0350 Y13.1942
G01 X34.0562 Y13.1774
G01 X34.1259 Y13.1279
G01 X34.1488 Y13.1135
G01 X34.2236 Y13.0722
G01 X34.2467 Y13.0610
G01 X34.3269 Y13.0277
G01 X34.3525 Y13.0188
G01 X34.4346 Y12.9951
G01 X34.4557 Y12.9901
G01 X34.5452 Y12.9748
G01 X34.5721 Y12.9718
G01 X34.6710 Y12.9666
G01 X34.7699 Y12.9718
G01 X34.7968 Y12.9748
G01 X34.8810 Y12.9891
G01 X34.9074 Y12.9951
G01 X34.9895 Y13.0188
G01 X35.0151 Y13.0277
G01 X35.0940 Y13.0604
G01 X35.1184 Y13.0722
G01 X35.1932 Y13.1135
G01 X35.2133 Y13.1260
G01 X35.2858 Y13.1774
G01 X35.3066 Y13.1947
G01 X35.3070 Y13.1942
G01 X35.3707 Y13.2512
G01 X35.3898 Y13.2703
G01 X35.4468 Y13.3340
G01 X35.4636 Y13.3552
G01 X35.5131 Y13.4249
G01 X35.5275 Y13.4478
G01 X35.5688 Y13.5226
G01 X35.5800 Y13.5457
G01 X35.6133 Y13.6259
G01 X35.6222 Y13.6515
G01 X35.6459 Y13.7336
G01 X35.6509 Y13.7547
G01 X35.6662 Y13.8442
G01 X35.6692 Y13.8711
G01 X35.6744 Y13.9700
G01 X35.6692 Y14.0689
G01 X35.6662 Y14.0958
G01 X35.6519 Y14.1800
G01 X35.6459 Y14.2064
G01 X35.6222 Y14.2885
G01 X35.6133 Y14.3141
G01 X35.5806 Y14.3930
G01 X35.5688 Y14.4174
G01 X35.5275 Y14.4922
G01 X35.5150 Y14.5123
G01 X35.4636 Y14.5848
G01 X35.4463 Y14.6056
G01 X35.4468 Y14.6060
G01 X35.3898 Y14.6697
G01 X35.3707 Y14.6888
G01 X35.3070 Y14.7458
G01 X35.2858 Y14.7626
G01 X35.2161 Y14.8121
G01 X35.1932 Y14.8265
G01 X35.1184 Y14.8678
G01 X35.0953 Y14.8790
G01 X35.0151 Y14.9123
G01 X34.9895 Y14.9212
G01 X34.9074 Y14.9449
G01 X34.8863 Y14.9499
G01 X34.7968 Y14.9652
G01 X34.7699 Y14.9682
G01 X34.6710 Y14.9734
G01 X34.5721 Y14.9682
G01 X34.5452 Y14.9652
G01 X34.4610 Y14.9509
G01 X34.4346 Y14.9449
G01 X34.3525 Y14.9212
G01 X34.3269 Y14.9123
G01 X34.2480 Y14.8796
G01 X34.2236 Y14.8678
G01 X34.1488 Y14.8265
G01 X34.1287 Y14.8140
G01 X34.0562 Y14.7626
G01 X34.0354 Y14.7453
G01 X34.0350 Y14.7458
G01 X33.9713 Y14.6888
G01 X33.9522 Y14.6697
G01 X33.8952 Y14.6060
G01 X33.8784 Y14.5848
G01 X33.8289 Y14.5151
G01 X33.8145 Y14.4922
G01 X33.7732 Y14.4174
G01 X33.7620 Y14.3943
G01 X33.7287 Y14.3141
G01 X33.7198 Y14.2885
G01 X33.6961 Y14.2064
G01 X33.6911 Y14.1853
G01 X33.6758 Y14.0958
G01 X33.6732 Y14.0688
G00 Z2.0000
G00 X33.8291 Y14.0601
G01 F350.00
G01 Z-0.1306
G01 F400.00
G01 X33.8240 Y13.9700
G01 X33.8289 Y13.8799
G01 X33.8443 Y13.7862
G01 X33.8701 Y13.6948
G01 X33.9059 Y13.6069
G01 X33.9514 Y13.5235
G01 X34.0059 Y13.4457
G01 X34.0119 Y13.4383
G01 X34.0755 Y13.3678
G01 X34.1467 Y13.3049
G01 X34.2164 Y13.2555
G01 X34.2993 Y13.2091
G01 X34.3868 Y13.1722
G01 X34.3958 Y13.1691
G01 X34.4853 Y13.1436
G01 X34.5809 Y13.1279
G01 X34.6710 Y13.1230
G01 X34.7611 Y13.1279
G01 X34.8548 Y13.1433
G01 X34.9462 Y13.1691
G01 X35.0341 Y13.2049
G01 X35.1175 Y13.2504
G01 X35.1953 Y13.3049
G01 X35.2027 Y13.3109
G01 X35.2732 Y13.3745
G01 X35.3361 Y13.4457
G01 X35.3855 Y13.5154
G01 X35.4319 Y13.5983
G01 X35.4688 Y13.6858
G01 X35.4719 Y13.6948
G01 X35.4974 Y13.7843
G01 X35.5131 Y13.8799
G01 X35.5180 Y13.9700
G01 X35.5131 Y14.0601
G01 X35.4977 Y14.1538
G01 X35.4719 Y14.2452
G01 X35.4361 Y14.3331
G01 X35.3906 Y14.4165
G01 X35.3361 Y14.4943
G01 X35.3301 Y14.5017
G01 X35.2665 Y14.5722
G01 X35.1953 Y14.6351
G01 X35.1256 Y14.6845
G01 X35.0427 Y14.7309
G01 X34.9552 Y14.7678
G01 X34.9462 Y14.7709
G01 X34.8567 Y14.7964
G01 X34.7611 Y14.8121
G01 X34.6710 Y14.8170
G01 X34.5809 Y14.8121
G01 X34.4872 Y14.7967
G01 X34.3958 Y14.7709
G01 X34.3079 Y14.7351
G01 X34.2245 Y14.6896
G01 X34.1467 Y14.6351
G01 X34.1393 Y14.6291
G01 X34.0688 Y14.5655
G01 X34.0059 Y14.4943
G01 X33.9565 Y14.4246
G01 X33.9101 Y14.3417
G01 X33.8732 Y14.2542
G01 X33.8464 Y14.1631
G01 X33.8300 Y14.0696
G01 X33.8291 Y14.0601
G00 Z2.0000
G00 X33.4861 Y9.1257
G01 F350.00
G01 Z-0.1306
G01 F400.00
G01 X33.4861 Y8.6543
G01 X33.6665 Y8.2188
G01 X33.9998 Y7.8855
G01 X34.4353 Y7.7051
G01 X34.9067 Y7.7051
G01 X35.3422 Y7.8855
G01 X35.6755 Y8.2188
G01 X35.8559 Y8.6543
G01 X35.8559 Y9.1257
G01 X35.6755 Y9.5612
G01 X35.3422 Y9.8945
G01 X34.9067 Y10.0749
G01 X34.4353 Y10.0749
G01 X33.9998 Y9.8945
G01 X33.6665 Y9.5612
G01 X33.4861 Y9.1257
G00 Z2.0000
G00 X33.6425 Y9.0946
G01 F350.00
G01 Z-0.1306
G01 F400.00
G01 X33.6425 Y8.6854
G01 X33.7990 Y8.3074
G01 X34.0884 Y8.0180
G01 X34.4664 Y7.8615
G01 X34.8756 Y7.8615
G01 X35.2536 Y8.0180
G01 X35.5430 Y8.3074
G01 X35.6995 Y8.6854
G01 X35.6995 Y9.0946
G01 X35.5430 Y9.4726
G01 X35.2536 Y9.7620
G01 X34.8756 Y9.9185
G01 X34.4664 Y9.9185
G01 X34.0884 Y9.7620
G01 X33.7990 Y9.4726
G01 X33.6425 Y9.0946
G00 Z2.0000
G00 X33.6732 Y8.9888
G01 F350.00
G01 Z-0.1306
G01 F400.00
G01 X33.6676 Y8.8900
G01 X33.6728 Y8.7911
G01 X33.6758 Y8.7642
G01 X33.6901 Y8.6800
G01 X33.6961 Y8.6536
G01 X33.7198 Y8.5715
G01 X33.7287 Y8.5459
G01 X33.7614 Y8.4670
G01 X33.7732 Y8.4426
G01 X33.8145 Y8.3678
G01 X33.8270 Y8.3477
G01 X33.8784 Y8.2752
G01 X33.8957 Y8.2544
G01 X33.8952 Y8.2540
G01 X33.9522 Y8.1903
G01 X33.9713 Y8.1712
G01 X34.0350 Y8.1142
G01 X34.0562 Y8.0974
G01 X34.1259 Y8.0479
G01 X34.1488 Y8.0335
G01 X34.2236 Y7.9922
G01 X34.2467 Y7.9810
G01 X34.3269 Y7.9477
G01 X34.3525 Y7.9388
G01 X34.4346 Y7.9151
G01 X34.4557 Y7.9101
G01 X34.5452 Y7.8948
G01 X34.5721 Y7.8918
G01 X34.6710 Y7.8866
G01 X34.7699 Y7.8918
G01 X34.7968 Y7.8948
G01 X34.8810 Y7.9091
G01 X34.9074 Y7.9151
G01 X34.9895 Y7.9388
G01 X35.0151 Y7.9477
G01 X35.0940 Y7.9804
G01 X35.1184 Y7.9922
G01 X35.1932 Y8.0335
G01 X35.2133 Y8.0460
G01 X35.2858 Y8.0974
G01 X35.3066 Y8.1147
G01 X35.3070 Y8.1142
G01 X35.3707 Y8.1712
G01 X35.3898 Y8.1903
G01 X35.4468 Y8.2540
G01 X35.4636 Y8.2752
G01 X35.5131 Y8.3449
G01 X35.5275 Y8.3678
G01 X35.5688 Y8.4426
G01 X35.5800 Y8.4657
G01 X35.6133 Y8.5459
G01 X35.6222 Y8.5715
G01 X35.6459 Y8.6536
G01 X35.6509 Y8.6747
G01 X35.6662 Y8.7642
G01 X35.6692 Y8.7911
G01 X35.6744 Y8.8900
G01 X35.6692 Y8.9889
G01 X35.6662 Y9.0158
G01 X35.6519 Y9.1000
G01 X35.6459 Y9.1264
G01 X35.6222 Y9.2085
G01 X35.6133 Y9.2341
G01 X35.5806 Y9.3130
G01 X35.5688 Y9.3374
G01 X35.5275 Y9.4122
G01 X35.5150 Y9.4323
G01 X35.4636 Y9.5048
G01 X35.4463 Y9.5256
G01 X35.4468 Y9.5260
G01 X35.3898 Y9.5897
G01 X35.3707 Y9.6088
G01 X35.3070 Y9.6658
G01 X35.2858 Y9.6826
G01 X35.2161 Y9.7321
G01 X35.1932 Y9.7465
G01 X35.1184 Y9.7878
G01 X35.0953 Y9.7990
G01 X35.0151 Y9.8323
G01 X34.9895 Y9.8412
G01 X34.9074 Y9.8649
G01 X34.8863 Y9.8699
G01 X34.7968 Y9.8852
G01 X34.7699 Y9.8882
G01 X34.6710 Y9.8934
G01 X34.5721 Y9.8882
G01 X34.5452 Y9.8852
G01 X34.4610 Y9.8709
G01 X34.4346 Y9.8649
G01 X34.3525 Y9.8412
G01 X34.3269 Y9.8323
G01 X34.2480 Y9.7996
G01 X34.2236 Y9.7878
G01 X34.1488 Y9.7465
G01 X34.1287 Y9.7340
G01 X34.0562 Y9.6826
G01 X34.0354 Y9.6653
G01 X34.0350 Y9.6658
G01 X33.9713 Y9.6088
G01 X33.9522 Y9.5897
G01 X33.8952 Y9.5260
G01 X33.8784 Y9.5048
G01 X33.8289 Y9.4351
G01 X33.8145 Y9.4122
G01 X33.7732 Y9.3374
G01 X33.7620 Y9.3143
G01 X33.7287 Y9.2341
G01 X33.7198 Y9.2085
G01 X33.6961 Y9.1264
G01 X33.6911 Y9.1053
G01 X33.6758 Y9.0158
G01 X33.6732 Y8.9888
G00 Z2.0000
G00 X33.8291 Y8.9801
G01 F350.00
G01 Z-0.1306
G01 F400.00
G01 X33.8240 Y8.8900
G01 X33.8289 Y8.7999
G01 X33.8443 Y8.7062
G01 X33.8701 Y8.6148
G01 X33.9059 Y8.5269
G01 X33.9514 Y8.4435
G01 X34.0059 Y8.3657
G01 X34.0119 Y8.3583
G01 X34.0755 Y8.2878
G01 X34.1467 Y8.2249
G01 X34.2164 Y8.1755
G01 X34.2993 Y8.1291
G01 X34.3868 Y8.0922
G01 X34.3958 Y8.0891
G01 X34.4853 Y8.0636
G01 X34.5809 Y8.0479
G01 X34.6710 Y8.0430
G01 X34.7611 Y8.0479
G01 X34.8548 Y8.0633
G01 X34.9462 Y8.0891
G01 X35.0341 Y8.1249
G01 X35.1175 Y8.1704
G01 X35.1953 Y8.2249
G01 X35.2027 Y8.2309
G01 X35.2732 Y8.2945
G01 X35.3361 Y8.3657
G01 X35.3855 Y8.4354
G01 X35.4319 Y8.5183
G01 X35.4688 Y8.6058
G01 X35.4719 Y8.6148
G01 X35.4974 Y8.7043
G01 X35.5131 Y8.7999
G01 X35.5180 Y8.8900
G01 X35.5131 Y8.9801
G01 X35.4977 Y9.0738
G01 X35.4719 Y9.1652
G01 X35.4361 Y9.2531
G01 X35.3906 Y9.3365
G01 X35.3361 Y9.4143
G01 X35.3301 Y9.4217
G01 X35.2665 Y9.4922
G01 X35.1953 Y9.5551
G01 X35.1256 Y9.6045
G01 X35.0427 Y9.6509
G01 X34.9552 Y9.6878
G01 X34.9462 Y9.6909
G01 X34.8567 Y9.7164
G01 X34.7611 Y9.7321
G01 X34.6710 Y9.7370
G01 X34.5809 Y9.7321
G01 X34.4872 Y9.7167
G01 X34.3958 Y9.6909
G01 X34.3079 Y9.6551
G01 X34.2245 Y9.6096
G01 X34.1467 Y9.5551
G01 X34.1393 Y9.5491
G01 X34.0688 Y9.4855
G01 X34.0059 Y9.4143
G01 X33.9565 Y9.3446
G01 X33.9101 Y9.2617
G01 X33.8732 Y9.1742
G01 X33.8464 Y9.0831
G01 X33.8300 Y8.9896
G01 X33.8291 Y8.9801
G00 Z2.0000
G00 X40.3665 Y22.9201
G01 F350.00
G01 Z-0.1306
G01 F400.00
G01 X40.3859 Y22.9154
G01 X40.4102 Y22.9066
G01 X40.4317 Y22.8957
G01 X40.4525 Y22.8819
G01 X40.4715 Y22.8657
G01 X40.4885 Y22.8475
G01 X40.4947 Y22.8396
G01 X40.5085 Y22.8188
G01 X40.5197 Y22.7965
G01 X40.5283 Y22.7731
G01 X40.5321 Y22.7586
G01 X40.5940 Y22.4479
G01 X40.7538 Y22.2088
G01 X40.8002 Y22.1777
G01 X40.8167 Y22.1649
G01 X40.8289 Y22.1537
G01 X42.3467 Y20.6359
G01 X42.3579 Y20.6237
G01 X42.3707 Y20.6072
G01 X42.4018 Y20.5608
G01 X42.6409 Y20.4010
G01 X42.9230 Y20.3449
G01 X42.9778 Y20.3557
G01 X42.9985 Y20.3583
G01 X43.0151 Y20.3591
G01 X82.3309 Y20.3591
G01 X82.3475 Y20.3583
G01 X82.3682 Y20.3557
G01 X82.4230 Y20.3449
G01 X82.7051 Y20.4010
G01 X82.9442 Y20.5608
G01 X82.9753 Y20.6072
G01 X82.9881 Y20.6237
G01 X82.9993 Y20.6359
G01 X91.5882 Y29.2248
G01 X91.6004 Y29.2361
G01 X91.6169 Y29.2488
G01 X91.6633 Y29.2799
G01 X91.7041 Y29.3408
G01 X91.7187 Y29.3592
G01 X91.7301 Y29.3713
G01 X91.7459 Y29.3851
G01 X91.7658 Y29.3991
G01 X91.7943 Y29.4140
G01 X91.8164 Y29.4220
G01 X91.8300 Y29.4256
G01 X91.8532 Y29.4297
G01 X91.8626 Y29.4305
G01 X91.8799 Y29.4311
G01 X91.9001 Y29.4299
G01 X91.9250 Y29.4258
G01 X91.9460 Y29.4198
G01 X91.9548 Y29.4166
G01 X91.9762 Y29.4068
G01 X91.9964 Y29.3947
G01 X92.0078 Y29.3865
G01 X92.0256 Y29.3710
G01 X92.0415 Y29.3537
G01 X92.0560 Y29.3339
G01 X92.0671 Y29.3144
G01 X92.0765 Y29.2928
G01 X92.0834 Y29.2703
G01 X92.0878 Y29.2473
G01 X92.0897 Y29.2238
G01 X92.0898 Y28.9380
G01 X92.0878 Y28.9096
G01 X92.0851 Y28.8936
G01 X92.0793 Y28.8725
G01 X92.0762 Y28.8635
G01 X92.0666 Y28.8418
G01 X92.0546 Y28.8212
G01 X92.0464 Y28.8096
G01 X92.0277 Y28.7881
G01 X77.7859 Y14.5463
G01 X77.7737 Y14.5351
G01 X77.7572 Y14.5223
G01 X77.7108 Y14.4912
G01 X77.5510 Y14.2521
G01 X77.4949 Y13.9700
G01 X77.5057 Y13.9152
G01 X77.5083 Y13.8945
G01 X77.5091 Y13.8779
G01 X77.5091 Y12.0713
G01 X77.5081 Y12.0523
G01 X77.5043 Y12.0269
G01 X77.4986 Y12.0058
G01 X77.4898 Y11.9832
G01 X77.4790 Y11.9626
G01 X77.4739 Y11.9545
G01 X77.4597 Y11.9354
G01 X77.4470 Y11.9213
G01 X76.0897 Y10.5640
G01 X76.0681 Y10.5453
G01 X76.0555 Y10.5364
G01 X76.0360 Y10.5251
G01 X76.0142 Y10.5155
G01 X75.9915 Y10.5084
G01 X75.9682 Y10.5039
G01 X75.9397 Y10.5019
G01 X73.5393 Y10.5019
G01 X73.5203 Y10.5029
G01 X73.4949 Y10.5067
G01 X73.4648 Y10.5155
G01 X73.4512 Y10.5212
G01 X73.4306 Y10.5320
G01 X73.4109 Y10.5453
G01 X73.3928 Y10.5608
G01 X72.0320 Y11.9213
G01 X72.0193 Y11.9354
G01 X72.0044 Y11.9555
G01 X71.9931 Y11.9750
G01 X71.9835 Y11.9968
G01 X71.9764 Y12.0195
G01 X71.9743 Y12.0288
G01 X71.9709 Y12.0523
G01 X71.9699 Y12.0713
G01 X71.9699 Y13.8779
G01 X71.9707 Y13.8945
G01 X71.9733 Y13.9152
G01 X71.9841 Y13.9700
G01 X71.9280 Y14.2521
G01 X71.7682 Y14.4912
G01 X71.7218 Y14.5223
G01 X71.7053 Y14.5351
G01 X71.6931 Y14.5463
G01 X70.8073 Y15.4321
G01 X70.7961 Y15.4443
G01 X70.7833 Y15.4608
G01 X70.7522 Y15.5072
G01 X70.5131 Y15.6670
G01 X70.2310 Y15.7231
G01 X70.1762 Y15.7123
G01 X70.1555 Y15.7097
G01 X70.1389 Y15.7089
G01 X67.6491 Y15.7089
G01 X67.6214 Y15.7108
G01 X67.5987 Y15.7151
G01 X67.5766 Y15.7218
G01 X67.5637 Y15.7270
G01 X67.5431 Y15.7374
G01 X67.5238 Y15.7500
G01 X67.5059 Y15.7647
G01 X67.4992 Y15.7711
G01 X67.4838 Y15.7883
G01 X67.4728 Y15.8032
G01 X67.4297 Y15.8677
G01 X67.0252 Y16.1380
G01 X66.6684 Y16.2089
G01 X66.4276 Y16.2089
G01 X66.0708 Y16.1380
G01 X65.6663 Y15.8677
G01 X65.3960 Y15.4632
G01 X65.3011 Y14.9860
G01 X65.3960 Y14.5088
G01 X65.6663 Y14.1043
G01 X66.0149 Y13.8714
G01 X66.0373 Y13.8541
G01 X66.0540 Y13.8376
G01 X66.0689 Y13.8193
G01 X66.0816 Y13.7995
G01 X66.0920 Y13.7784
G01 X66.1001 Y13.7563
G01 X66.1056 Y13.7334
G01 X66.1086 Y13.7101
G01 X66.1092 Y13.6928
G01 X66.1079 Y13.6725
G01 X66.1041 Y13.6492
G01 X66.1018 Y13.6401
G01 X66.0945 Y13.6177
G01 X66.0888 Y13.6044
G01 X66.0777 Y13.5841
G01 X66.0643 Y13.5647
G01 X66.0488 Y13.5470
G01 X66.0421 Y13.5404
G01 X66.0240 Y13.5253
G01 X66.0116 Y13.5166
G01 X65.9920 Y13.5055
G01 X65.8217 Y13.4248
G01 X65.4988 Y13.0683
G01 X65.3910 Y12.8079
G01 X65.4035 Y12.7851
G01 X65.7319 Y12.7851
G01 X65.7528 Y12.8342
G01 X65.7962 Y12.9127
G01 X65.8013 Y12.9208
G01 X65.8592 Y13.0014
G01 X65.9189 Y13.0683
G01 X65.9926 Y13.1348
G01 X66.0742 Y13.1934
G01 X66.1598 Y13.2412
G01 X66.1684 Y13.2453
G01 X66.2602 Y13.2828
G01 X66.3557 Y13.3097
G01 X66.4442 Y13.3248
G01 X66.5480 Y13.3310
G01 X66.6518 Y13.3248
G01 X66.7421 Y13.3094
G01 X66.8358 Y13.2828
G01 X66.9281 Y13.2451
G01 X67.0147 Y13.1978
G01 X67.0228 Y13.1927
G01 X67.1034 Y13.1348
G01 X67.1703 Y13.0751
G01 X67.2368 Y13.0014
G01 X67.2428 Y12.9940
G01 X67.2998 Y12.9127
G01 X67.3432 Y12.8342
G01 X67.3641 Y12.7851
G01 X67.6925 Y12.7851
G01 X67.7050 Y12.8079
G01 X67.5972 Y13.0683
G01 X67.2743 Y13.4248
G01 X67.1040 Y13.5055
G01 X67.0835 Y13.5172
G01 X67.0720 Y13.5253
G01 X67.0539 Y13.5404
G01 X67.0472 Y13.5470
G01 X67.0317 Y13.5647
G01 X67.0227 Y13.5771
G01 X67.0071 Y13.6048
G01 X66.9983 Y13.6266
G01 X66.9919 Y13.6492
G01 X66.9881 Y13.6725
G01 X66.9871 Y13.6865
G01 X66.9874 Y13.7101
G01 X66.9904 Y13.7334
G01 X66.9923 Y13.7426
G01 X66.9989 Y13.7653
G01 X67.0079 Y13.7870
G01 X67.0193 Y13.8076
G01 X67.0328 Y13.8268
G01 X67.0485 Y13.8444
G01 X67.0659 Y13.8602
G01 X67.0811 Y13.8714
G01 X67.4297 Y14.1043
G01 X67.4755 Y14.1726
G01 X67.4897 Y14.1908
G01 X67.5059 Y14.2073
G01 X67.5238 Y14.2220
G01 X67.5431 Y14.2346
G01 X67.5637 Y14.2450
G01 X67.5854 Y14.2532
G01 X67.6078 Y14.2589
G01 X67.6214 Y14.2612
G01 X67.6491 Y14.2631
G01 X69.8437 Y14.2631
G01 X69.8722 Y14.2611
G01 X69.8881 Y14.2583
G01 X69.9092 Y14.2526
G01 X69.9318 Y14.2438
G01 X69.9524 Y14.2330
G01 X69.9721 Y14.2197
G01 X69.9902 Y14.2042
G01 X70.4620 Y13.7327
G01 X70.4807 Y13.7111
G01 X70.4940 Y13.6914
G01 X70.5050 Y13.6704
G01 X70.5136 Y13.6482
G01 X70.5176 Y13.6345
G01 X70.5221 Y13.6112
G01 X70.5241 Y13.5827
G01 X70.5241 Y11.7761
G01 X70.5233 Y11.7595
G01 X70.5207 Y11.7388
G01 X70.5099 Y11.6840
G01 X70.5660 Y11.4019
G01 X70.7258 Y11.1628
G01 X70.7722 Y11.1317
G01 X70.7887 Y11.1189
G01 X70.8009 Y11.1077
G01 X72.5757 Y9.3329
G01 X72.5869 Y9.3207
G01 X72.5997 Y9.3042
G01 X72.6308 Y9.2578
G01 X72.8699 Y9.0980
G01 X73.1520 Y9.0419
G01 X73.2068 Y9.0527
G01 X73.2275 Y9.0553
G01 X73.2441 Y9.0561
G01 X76.2349 Y9.0561
G01 X76.2515 Y9.0553
G01 X76.2722 Y9.0527
G01 X76.3270 Y9.0419
G01 X76.6091 Y9.0980
G01 X76.8482 Y9.2578
G01 X76.8793 Y9.3042
G01 X76.8921 Y9.3207
G01 X76.9033 Y9.3329
G01 X78.6781 Y11.1077
G01 X78.6903 Y11.1189
G01 X78.7068 Y11.1317
G01 X78.7532 Y11.1628
G01 X78.9130 Y11.4019
G01 X78.9691 Y11.6840
G01 X78.9583 Y11.7388
G01 X78.9557 Y11.7595
G01 X78.9549 Y11.7761
G01 X78.9549 Y13.5827
G01 X78.9559 Y13.6017
G01 X78.9597 Y13.6271
G01 X78.9685 Y13.6572
G01 X78.9742 Y13.6708
G01 X78.9850 Y13.6914
G01 X78.9901 Y13.6995
G01 X79.0043 Y13.7186
G01 X79.0170 Y13.7327
G01 X93.2588 Y27.9744
G01 X93.2711 Y27.9857
G01 X93.2875 Y27.9984
G01 X93.3339 Y28.0295
G01 X93.4937 Y28.2687
G01 X93.5498 Y28.5507
G01 X93.5390 Y28.6056
G01 X93.5364 Y28.6262
G01 X93.5357 Y28.6428
G01 X93.5357 Y36.7773
G01 X93.4937 Y36.9882
G01 X93.4688 Y37.0258
G01 X93.4566 Y37.0476
G01 X93.4506 Y37.0613
G01 X93.4472 Y37.0707
G01 X93.4405 Y37.0948
G01 X93.4379 Y37.1095
G01 X93.4358 Y37.1344
G01 X93.4358 Y39.9541
G01 X93.4377 Y39.9778
G01 X93.4404 Y39.9938
G01 X93.4493 Y40.0239
G01 X93.4549 Y40.0375
G01 X93.4658 Y40.0581
G01 X93.4708 Y40.0662
G01 X93.4850 Y40.0852
G01 X93.4978 Y40.0993
G01 X93.8071 Y40.4086
G01 X93.9857 Y40.8397
G01 X93.9857 Y41.3064
G01 X93.8071 Y41.7375
G01 X93.4771 Y42.0674
G01 X93.0460 Y42.2460
G01 X92.5794 Y42.2460
G01 X92.1483 Y42.0674
G01 X91.8184 Y41.7375
G01 X91.6398 Y41.3064
G01 X91.6398 Y40.8397
G01 X91.8184 Y40.4086
G01 X92.1310 Y40.0959
G01 X92.1464 Y40.0778
G01 X92.1553 Y40.0652
G01 X92.1666 Y40.0456
G01 X92.1762 Y40.0239
G01 X92.1793 Y40.0149
G01 X92.1854 Y39.9919
G01 X92.1889 Y39.9684
G01 X92.1897 Y39.9541
G01 X92.1897 Y39.6015
G01 X92.1878 Y39.5778
G01 X92.1854 Y39.5637
G01 X92.1793 Y39.5407
G01 X92.1706 Y39.5181
G01 X92.1597 Y39.4975
G01 X92.1546 Y39.4895
G01 X92.1405 Y39.4704
G01 X92.1310 Y39.4598
G01 X92.1136 Y39.4435
G01 X92.0936 Y39.4287
G01 X92.0654 Y39.4132
G01 X92.0432 Y39.4046
G01 X92.0202 Y39.3986
G01 X92.0062 Y39.3962
G01 X91.9777 Y39.3942
G01 X91.9493 Y39.3962
G01 X91.9333 Y39.3989
G01 X91.9122 Y39.4046
G01 X91.8896 Y39.4134
G01 X91.8690 Y39.4243
G01 X91.8609 Y39.4293
G01 X91.8419 Y39.4435
G01 X91.8278 Y39.4563
G01 X91.8065 Y39.4775
G01 X91.3754 Y39.6561
G01 X90.9088 Y39.6561
G01 X90.4777 Y39.4775
G01 X90.1477 Y39.1476
G01 X89.9692 Y38.7165
G01 X89.9692 Y38.2499
G01 X90.1477 Y37.8188
G01 X90.3571 Y37.6094
G01 X90.3758 Y37.5879
G01 X90.3847 Y37.5753
G01 X90.3960 Y37.5557
G01 X90.4001 Y37.5472
G01 X90.4087 Y37.5250
G01 X90.4148 Y37.5020
G01 X90.4182 Y37.4785
G01 X90.4190 Y37.4643
G01 X90.4192 Y30.1884
G01 X90.4172 Y30.1599
G01 X90.4127 Y30.1366
G01 X90.4056 Y30.1139
G01 X90.3999 Y30.1003
G01 X90.3891 Y30.0797
G01 X90.3758 Y30.0600
G01 X90.3571 Y30.0384
G01 X82.1857 Y21.8670
G01 X82.1641 Y21.8483
G01 X82.1444 Y21.8350
G01 X82.1234 Y21.8240
G01 X82.1012 Y21.8154
G01 X82.0782 Y21.8093
G01 X82.0642 Y21.8069
G01 X82.0357 Y21.8049
G01 X43.3103 Y21.8049
G01 X43.2913 Y21.8059
G01 X43.2659 Y21.8097
G01 X43.2358 Y21.8185
G01 X43.2140 Y21.8281
G01 X43.1935 Y21.8401
G01 X43.1819 Y21.8483
G01 X43.1603 Y21.8670
G01 X42.3363 Y22.6911
G01 X42.3237 Y22.7050
G01 X42.3090 Y22.7246
G01 X42.2937 Y22.7523
G01 X42.2851 Y22.7741
G01 X42.2789 Y22.7967
G01 X42.2753 Y22.8198
G01 X42.2742 Y22.8395
G01 X42.2749 Y22.8572
G01 X42.2782 Y22.8823
G01 X42.2835 Y22.9031
G01 X42.2918 Y22.9255
G01 X42.3020 Y22.9460
G01 X42.3069 Y22.9540
G01 X42.3147 Y22.9657
G01 X42.3295 Y22.9838
G01 X42.3360 Y22.9906
G01 X42.3534 Y23.0062
G01 X42.3799 Y23.0251
G01 X42.4734 Y23.1650
G01 X42.4918 Y23.2575
G01 X42.4993 Y23.2850
G01 X42.5046 Y23.2989
G01 X42.5148 Y23.3197
G01 X42.5197 Y23.3279
G01 X42.5333 Y23.3474
G01 X42.5473 Y23.3635
G01 X42.5594 Y23.3750
G01 X42.5781 Y23.3897
G01 X42.5860 Y23.3950
G01 X42.6067 Y23.4066
G01 X42.6198 Y23.4124
G01 X42.6287 Y23.4158
G01 X42.6515 Y23.4225
G01 X42.6749 Y23.4266
G01 X42.6891 Y23.4278
G01 X42.7128 Y23.4277
G01 X42.7223 Y23.4269
G01 X42.7382 Y23.4246
G01 X42.7596 Y23.4195
G01 X42.7687 Y23.4166
G01 X42.7907 Y23.4076
G01 X42.8116 Y23.3962
G01 X42.8310 Y23.3826
G01 X42.8472 Y23.3685
G01 X42.8586 Y23.3565
G01 X42.8761 Y23.3339
G01 X42.9333 Y23.2483
G01 X43.3378 Y22.9780
G01 X43.6946 Y22.9071
G01 X43.9354 Y22.9071
G01 X44.2922 Y22.9780
G01 X44.6967 Y23.2483
G01 X44.9670 Y23.6528
G01 X45.0619 Y24.1300
G01 X44.9670 Y24.6072
G01 X44.6967 Y25.0117
G01 X44.2922 Y25.2820
G01 X43.9354 Y25.3529
G01 X43.6946 Y25.3529
G01 X43.3378 Y25.2820
G01 X42.9333 Y25.0117
G01 X42.8761 Y24.9261
G01 X42.8648 Y24.9108
G01 X42.8472 Y24.8915
G01 X42.8234 Y24.8717
G01 X42.8109 Y24.8633
G01 X42.7907 Y24.8524
G01 X42.7673 Y24.8429
G01 X42.7365 Y24.8351
G01 X42.7128 Y24.8323
G01 X42.6891 Y24.8322
G01 X42.6654 Y24.8347
G01 X42.6422 Y24.8399
G01 X42.6198 Y24.8476
G01 X42.5983 Y24.8578
G01 X42.5781 Y24.8703
G01 X42.5667 Y24.8789
G01 X42.5491 Y24.8948
G01 X42.5333 Y24.9126
G01 X42.5276 Y24.9203
G01 X42.5148 Y24.9403
G01 X42.5044 Y24.9617
G01 X42.4988 Y24.9764
G01 X42.4918 Y25.0025
G01 X42.4734 Y25.0950
G01 X42.3799 Y25.2349
G01 X42.2400 Y25.3284
G01 X42.0541 Y25.3654
G01 X40.4959 Y25.3654
G01 X40.3100 Y25.3284
G01 X40.1701 Y25.2349
G01 X40.0766 Y25.0950
G01 X40.0396 Y24.9091
G01 X40.0396 Y23.3509
G01 X40.0766 Y23.1650
G01 X40.1701 Y23.0251
G01 X40.3100 Y22.9316
G01 X40.3665 Y22.9201
G00 Z2.0000
G00 X40.3970 Y23.0731
G01 F350.00
G01 Z-0.1306
G01 F400.00
G01 X40.4109 Y23.0706
G01 X40.4254 Y23.0668
G01 X40.4524 Y23.0580
G01 X40.4688 Y23.0516
G01 X40.4922 Y23.0406
G01 X40.5054 Y23.0336
G01 X40.5296 Y23.0187
G01 X40.5419 Y23.0102
G01 X40.5642 Y22.9926
G01 X40.5754 Y22.9827
G01 X40.5955 Y22.9626
G01 X40.6054 Y22.9514
G01 X40.6050 Y22.9510
G01 X40.6230 Y22.9291
G01 X40.6337 Y22.9136
G01 X40.6535 Y22.8793
G01 X40.6654 Y22.8535
G01 X40.6708 Y22.8396
G01 X40.6796 Y22.8126
G01 X40.6866 Y22.7842
G01 X40.7413 Y22.5089
G01 X40.8666 Y22.3216
G01 X40.9034 Y22.2959
G01 X40.9217 Y22.2808
G01 X40.9395 Y22.2643
G01 X42.4573 Y20.7465
G01 X42.4738 Y20.7287
G01 X42.4889 Y20.7104
G01 X42.5146 Y20.6736
G01 X42.7019 Y20.5483
G01 X42.9230 Y20.5044
G01 X42.9672 Y20.5122
G01 X42.9908 Y20.5146
G01 X43.0151 Y20.5155
G01 X82.3309 Y20.5155
G01 X82.3552 Y20.5146
G01 X82.3788 Y20.5122
G01 X82.4230 Y20.5044
G01 X82.6441 Y20.5483
G01 X82.8314 Y20.6736
G01 X82.8571 Y20.7104
G01 X82.8722 Y20.7287
G01 X82.8887 Y20.7465
G01 X91.4776 Y29.3354
G01 X91.4954 Y29.3519
G01 X91.5137 Y29.3670
G01 X91.5506 Y29.3927
G01 X91.5714 Y29.4238
G01 X91.5876 Y29.4460
G01 X91.6048 Y29.4665
G01 X91.6195 Y29.4819
G01 X91.6447 Y29.5043
G01 X91.6660 Y29.5205
G01 X91.6795 Y29.5296
G01 X91.7132 Y29.5486
G01 X91.7375 Y29.5597
G01 X91.7507 Y29.5648
G01 X91.7761 Y29.5731
G01 X91.7897 Y29.5768
G01 X91.8160 Y29.5822
G01 X91.8299 Y29.5843
G01 X91.8565 Y29.5868
G01 X91.8799 Y29.5875
G01 X91.9115 Y29.5859
G01 X91.9114 Y29.5854
G01 X91.9380 Y29.5825
G01 X91.9566 Y29.5790
G01 X91.9914 Y29.5695
G01 X92.0165 Y29.5603
G01 X92.0304 Y29.5543
G01 X92.0535 Y29.5428
G01 X92.0657 Y29.5358
G01 X92.0882 Y29.5214
G01 X92.0996 Y29.5131
G01 X92.1204 Y29.4962
G01 X92.1308 Y29.4867
G01 X92.1496 Y29.4676
G01 X92.1589 Y29.4570
G01 X92.1755 Y29.4360
G01 X92.1835 Y29.4244
G01 X92.1976 Y29.4016
G01 X92.2044 Y29.3893
G01 X92.2159 Y29.3651
G01 X92.2212 Y29.3520
G01 X92.2300 Y29.3267
G01 X92.2338 Y29.3132
G01 X92.2397 Y29.2871
G01 X92.2421 Y29.2732
G01 X92.2450 Y29.2466
G01 X92.2462 Y29.2191
G01 X92.2462 Y28.9380
G01 X92.2450 Y28.9103
G01 X92.2420 Y28.8834
G01 X92.2396 Y28.8693
G01 X92.2336 Y28.8429
G01 X92.2296 Y28.8292
G01 X92.2207 Y28.8037
G01 X92.2147 Y28.7892
G01 X92.2035 Y28.7661
G01 X92.1966 Y28.7537
G01 X92.1822 Y28.7307
G01 X92.1740 Y28.7191
G01 X92.1571 Y28.6979
G01 X92.1476 Y28.6873
G01 X77.8965 Y14.4357
G01 X77.8787 Y14.4192
G01 X77.8604 Y14.4041
G01 X77.8236 Y14.3784
G01 X77.6983 Y14.1911
G01 X77.6544 Y13.9700
G01 X77.6622 Y13.9258
G01 X77.6646 Y13.9022
G01 X77.6655 Y13.8779
G01 X77.6655 Y12.0713
G01 X77.6643 Y12.0435
G01 X77.6613 Y12.0166
G01 X77.6579 Y11.9972
G01 X77.6489 Y11.9625
G01 X77.6400 Y11.9369
G01 X77.6340 Y11.9225
G01 X77.6159 Y11.8869
G01 X77.6015 Y11.8640
G01 X77.5932 Y11.8524
G01 X77.5763 Y11.8312
G01 X77.5575 Y11.8107
G01 X76.2003 Y10.4535
G01 X76.1798 Y10.4347
G01 X76.1794 Y10.4351
G01 X76.1586 Y10.4178
G01 X76.1442 Y10.4076
G01 X76.1116 Y10.3882
G01 X76.0872 Y10.3765
G01 X76.0741 Y10.3710
G01 X76.0485 Y10.3621
G01 X76.0348 Y10.3582
G01 X76.0084 Y10.3521
G01 X75.9944 Y10.3497
G01 X75.9675 Y10.3467
G01 X75.9397 Y10.3455
G01 X73.5393 Y10.3455
G01 X73.5115 Y10.3467
G01 X73.4846 Y10.3497
G01 X73.4652 Y10.3531
G01 X73.4305 Y10.3621
G01 X73.4049 Y10.3710
G01 X73.3905 Y10.3770
G01 X73.3549 Y10.3951
G01 X73.3320 Y10.4095
G01 X73.3204 Y10.4178
G01 X73.2992 Y10.4347
G01 X73.2886 Y10.4442
G01 X71.9215 Y11.8107
G01 X71.9027 Y11.8312
G01 X71.9031 Y11.8316
G01 X71.8858 Y11.8524
G01 X71.8756 Y11.8668
G01 X71.8631 Y11.8869
G01 X71.8562 Y11.8994
G01 X71.8445 Y11.9238
G01 X71.8390 Y11.9369
G01 X71.8301 Y11.9625
G01 X71.8262 Y11.9762
G01 X71.8201 Y12.0026
G01 X71.8177 Y12.0166
G01 X71.8147 Y12.0435
G01 X71.8139 Y12.0578
G01 X71.8135 Y13.8779
G01 X71.8144 Y13.9022
G01 X71.8168 Y13.9258
G01 X71.8246 Y13.9700
G01 X71.7807 Y14.1911
G01 X71.6554 Y14.3784
G01 X71.6186 Y14.4041
G01 X71.6003 Y14.4192
G01 X71.5825 Y14.4357
G01 X70.6967 Y15.3215
G01 X70.6802 Y15.3393
G01 X70.6651 Y15.3576
G01 X70.6394 Y15.3944
G01 X70.4521 Y15.5197
G01 X70.2310 Y15.5636
G01 X70.1868 Y15.5558
G01 X70.1632 Y15.5534
G01 X70.1389 Y15.5525
G01 X67.6491 Y15.5525
G01 X67.6221 Y15.5537
G01 X67.5960 Y15.5565
G01 X67.5773 Y15.5597
G01 X67.5566 Y15.5645
G01 X67.5183 Y15.5767
G01 X67.5055 Y15.5818
G01 X67.4694 Y15.5995
G01 X67.4355 Y15.6210
G01 X67.4041 Y15.6460
G01 X67.3756 Y15.6743
G01 X67.3504 Y15.7056
G01 X67.3169 Y15.7549
G01 X66.9641 Y15.9907
G01 X66.6530 Y16.0525
G01 X66.4430 Y16.0525
G01 X66.1319 Y15.9907
G01 X65.7791 Y15.7549
G01 X65.5433 Y15.4021
G01 X65.4606 Y14.9860
G01 X65.5433 Y14.5699
G01 X65.7791 Y14.2171
G01 X66.1018 Y14.0014
G01 X66.1240 Y13.9852
G01 X66.1445 Y13.9679
G01 X66.1599 Y13.9532
G01 X66.1824 Y13.9281
G01 X66.1986 Y13.9067
G01 X66.2077 Y13.8931
G01 X66.2267 Y13.8595
G01 X66.2378 Y13.8351
G01 X66.2429 Y13.8219
G01 X66.2512 Y13.7965
G01 X66.2548 Y13.7828
G01 X66.2603 Y13.7566
G01 X66.2624 Y13.7426
G01 X66.2649 Y13.7159
G01 X66.2654 Y13.7018
G01 X66.2649 Y13.6750
G01 X66.2639 Y13.6610
G01 X66.2633 Y13.6610
G01 X66.2604 Y13.6344
G01 X66.2569 Y13.6158
G01 X66.2473 Y13.5810
G01 X66.2381 Y13.5558
G01 X66.2321 Y13.5419
G01 X66.2136 Y13.5066
G01 X66.1991 Y13.4841
G01 X66.1908 Y13.4727
G01 X66.1738 Y13.4520
G01 X66.1643 Y13.4415
G01 X66.1452 Y13.4228
G01 X66.1346 Y13.4135
G01 X66.1135 Y13.3970
G01 X66.0995 Y13.3873
G01 X66.0855 Y13.3787
G01 X66.1085 Y13.3898
G01 X66.1914 Y13.4241
G01 X66.2169 Y13.4331
G01 X66.3032 Y13.4579
G01 X66.3295 Y13.4639
G01 X66.4180 Y13.4790
G01 X66.4449 Y13.4820
G01 X66.5480 Y13.4874
G01 X66.6511 Y13.4820
G01 X66.6780 Y13.4790
G01 X66.7718 Y13.4630
G01 X66.7928 Y13.4579
G01 X66.8791 Y13.4331
G01 X66.9046 Y13.4241
G01 X66.9888 Y13.3893
G01 X67.0109 Y13.3785
G01 X66.9825 Y13.3970
G01 X66.9614 Y13.4135
G01 X66.9508 Y13.4228
G01 X66.9317 Y13.4415
G01 X66.9222 Y13.4520
G01 X66.9052 Y13.4727
G01 X66.8949 Y13.4870
G01 X66.8754 Y13.5189
G01 X66.8635 Y13.5429
G01 X66.8579 Y13.5558
G01 X66.8487 Y13.5810
G01 X66.8445 Y13.5945
G01 X66.8382 Y13.6205
G01 X66.8356 Y13.6344
G01 X66.8321 Y13.6610
G01 X66.8304 Y13.6928
G01 X66.8311 Y13.7159
G01 X66.8336 Y13.7426
G01 X66.8360 Y13.7581
G01 X66.8448 Y13.7965
G01 X66.8531 Y13.8219
G01 X66.8588 Y13.8365
G01 X66.8758 Y13.8720
G01 X66.8896 Y13.8950
G01 X66.8974 Y13.9067
G01 X66.9136 Y13.9281
G01 X66.9361 Y13.9532
G01 X66.9515 Y13.9679
G01 X66.9720 Y13.9852
G01 X66.9942 Y14.0014
G01 X67.3169 Y14.2171
G01 X67.3427 Y14.2557
G01 X67.3587 Y14.2775
G01 X67.3851 Y14.3078
G01 X67.4146 Y14.3350
G01 X67.4355 Y14.3510
G01 X67.4487 Y14.3601
G01 X67.4816 Y14.3791
G01 X67.5183 Y14.3953
G01 X67.5566 Y14.4075
G01 X67.5960 Y14.4155
G01 X67.6221 Y14.4183
G01 X67.6491 Y14.4195
G01 X69.8572 Y14.4191
G01 X69.8715 Y14.4183
G01 X69.8984 Y14.4153
G01 X69.9178 Y14.4119
G01 X69.9525 Y14.4029
G01 X69.9781 Y14.3940
G01 X69.9925 Y14.3880
G01 X70.0281 Y14.3699
G01 X70.0510 Y14.3555
G01 X70.0626 Y14.3472
G01 X70.0838 Y14.3303
G01 X70.1043 Y14.3115
G01 X70.5725 Y13.8433
G01 X70.5913 Y13.8228
G01 X70.5909 Y13.8224
G01 X70.6082 Y13.8016
G01 X70.6184 Y13.7872
G01 X70.6378 Y13.7546
G01 X70.6495 Y13.7302
G01 X70.6550 Y13.7171
G01 X70.6639 Y13.6915
G01 X70.6678 Y13.6778
G01 X70.6739 Y13.6514
G01 X70.6763 Y13.6374
G01 X70.6793 Y13.6105
G01 X70.6805 Y13.5827
G01 X70.6805 Y11.7761
G01 X70.6796 Y11.7518
G01 X70.6772 Y11.7282
G01 X70.6694 Y11.6840
G01 X70.7133 Y11.4629
G01 X70.8386 Y11.2756
G01 X70.8754 Y11.2499
G01 X70.8937 Y11.2348
G01 X70.9115 Y11.2183
G01 X72.6863 Y9.4435
G01 X72.7028 Y9.4257
G01 X72.7179 Y9.4074
G01 X72.7436 Y9.3706
G01 X72.9309 Y9.2453
G01 X73.1520 Y9.2014
G01 X73.1962 Y9.2092
G01 X73.2198 Y9.2116
G01 X73.2441 Y9.2125
G01 X76.2349 Y9.2125
G01 X76.2592 Y9.2116
G01 X76.2828 Y9.2092
G01 X76.3270 Y9.2014
G01 X76.5481 Y9.2453
G01 X76.7354 Y9.3706
G01 X76.7611 Y9.4074
G01 X76.7762 Y9.4257
G01 X76.7927 Y9.4435
G01 X78.5675 Y11.2183
G01 X78.5853 Y11.2348
G01 X78.6036 Y11.2499
G01 X78.6404 Y11.2756
G01 X78.7657 Y11.4629
G01 X78.8096 Y11.6840
G01 X78.8018 Y11.7282
G01 X78.7994 Y11.7518
G01 X78.7985 Y11.7761
G01 X78.7989 Y13.5962
G01 X78.7997 Y13.6105
G01 X78.8027 Y13.6374
G01 X78.8061 Y13.6568
G01 X78.8151 Y13.6915
G01 X78.8240 Y13.7171
G01 X78.8300 Y13.7315
G01 X78.8481 Y13.7671
G01 X78.8625 Y13.7900
G01 X78.8708 Y13.8016
G01 X78.8877 Y13.8228
G01 X78.9065 Y13.8433
G01 X93.1482 Y28.0850
G01 X93.1660 Y28.1016
G01 X93.1844 Y28.1166
G01 X93.2212 Y28.1423
G01 X93.3464 Y28.3297
G01 X93.3904 Y28.5507
G01 X93.3825 Y28.5949
G01 X93.3802 Y28.6185
G01 X93.3793 Y28.6428
G01 X93.3793 Y36.7619
G01 X93.3464 Y36.9271
G01 X93.3263 Y36.9596
G01 X93.3134 Y36.9850
G01 X93.3074 Y36.9987
G01 X93.2975 Y37.0253
G01 X93.2932 Y37.0396
G01 X93.2865 Y37.0673
G01 X93.2839 Y37.0820
G01 X93.2806 Y37.1102
G01 X93.2797 Y37.1252
G01 X93.2796 Y39.9629
G01 X93.2804 Y39.9771
G01 X93.2835 Y40.0040
G01 X93.2859 Y40.0181
G01 X93.2919 Y40.0445
G01 X93.2958 Y40.0582
G01 X93.3048 Y40.0837
G01 X93.3108 Y40.0982
G01 X93.3220 Y40.1213
G01 X93.3289 Y40.1337
G01 X93.3433 Y40.1567
G01 X93.3515 Y40.1683
G01 X93.3684 Y40.1894
G01 X93.3872 Y40.2099
G01 X93.6745 Y40.4972
G01 X93.8293 Y40.8709
G01 X93.8293 Y41.2753
G01 X93.6745 Y41.6489
G01 X93.3886 Y41.9348
G01 X93.0149 Y42.0896
G01 X92.6105 Y42.0896
G01 X92.2369 Y41.9348
G01 X91.9510 Y41.6489
G01 X91.7962 Y41.2753
G01 X91.7962 Y40.8709
G01 X91.9510 Y40.4972
G01 X92.2383 Y40.2099
G01 X92.2571 Y40.1894
G01 X92.2566 Y40.1891
G01 X92.2740 Y40.1683
G01 X92.2822 Y40.1567
G01 X92.2966 Y40.1337
G01 X92.3035 Y40.1213
G01 X92.3152 Y40.0969
G01 X92.3207 Y40.0837
G01 X92.3296 Y40.0582
G01 X92.3336 Y40.0445
G01 X92.3396 Y40.0181
G01 X92.3420 Y40.0040
G01 X92.3450 Y39.9771
G01 X92.3458 Y39.9629
G01 X92.3462 Y39.6062
G01 X92.3450 Y39.5785
G01 X92.3420 Y39.5516
G01 X92.3386 Y39.5322
G01 X92.3296 Y39.4974
G01 X92.3207 Y39.4719
G01 X92.3147 Y39.4574
G01 X92.2966 Y39.4219
G01 X92.2822 Y39.3989
G01 X92.2740 Y39.3873
G01 X92.2571 Y39.3662
G01 X92.2476 Y39.3555
G01 X92.2284 Y39.3364
G01 X92.2178 Y39.3269
G01 X92.2174 Y39.3273
G01 X92.1966 Y39.3100
G01 X92.1823 Y39.2998
G01 X92.1496 Y39.2805
G01 X92.1252 Y39.2687
G01 X92.1121 Y39.2633
G01 X92.0865 Y39.2543
G01 X92.0728 Y39.2504
G01 X92.0464 Y39.2444
G01 X92.0324 Y39.2420
G01 X92.0055 Y39.2390
G01 X91.9913 Y39.2382
G01 X91.9777 Y39.2378
G01 X91.9500 Y39.2390
G01 X91.9231 Y39.2420
G01 X91.9090 Y39.2444
G01 X91.8826 Y39.2504
G01 X91.8689 Y39.2543
G01 X91.8434 Y39.2633
G01 X91.8289 Y39.2693
G01 X91.7934 Y39.2874
G01 X91.7704 Y39.3018
G01 X91.7588 Y39.3100
G01 X91.7377 Y39.3269
G01 X91.7180 Y39.3449
G01 X91.3443 Y39.4997
G01 X90.9399 Y39.4997
G01 X90.5663 Y39.3450
G01 X90.2803 Y39.0590
G01 X90.1256 Y38.6854
G01 X90.1256 Y38.2810
G01 X90.2803 Y37.9074
G01 X90.4677 Y37.7200
G01 X90.4864 Y37.6996
G01 X90.4860 Y37.6992
G01 X90.5033 Y37.6784
G01 X90.5135 Y37.6640
G01 X90.5329 Y37.6314
G01 X90.5446 Y37.6070
G01 X90.5501 Y37.5938
G01 X90.5590 Y37.5683
G01 X90.5630 Y37.5546
G01 X90.5690 Y37.5282
G01 X90.5714 Y37.5142
G01 X90.5744 Y37.4873
G01 X90.5752 Y37.4730
G01 X90.5756 Y30.1884
G01 X90.5744 Y30.1606
G01 X90.5714 Y30.1337
G01 X90.5680 Y30.1143
G01 X90.5630 Y30.0933
G01 X90.5590 Y30.0796
G01 X90.5501 Y30.0541
G01 X90.5441 Y30.0396
G01 X90.5260 Y30.0040
G01 X90.5116 Y29.9811
G01 X90.5033 Y29.9695
G01 X90.4864 Y29.9483
G01 X90.4677 Y29.9279
G01 X82.2963 Y21.7565
G01 X82.2758 Y21.7377
G01 X82.2754 Y21.7381
G01 X82.2546 Y21.7208
G01 X82.2402 Y21.7106
G01 X82.2201 Y21.6981
G01 X82.2076 Y21.6912
G01 X82.1832 Y21.6795
G01 X82.1701 Y21.6740
G01 X82.1445 Y21.6651
G01 X82.1308 Y21.6612
G01 X82.1044 Y21.6551
G01 X82.0904 Y21.6527
G01 X82.0635 Y21.6497
G01 X82.0357 Y21.6485
G01 X43.3103 Y21.6485
G01 X43.2825 Y21.6497
G01 X43.2556 Y21.6527
G01 X43.2362 Y21.6561
G01 X43.2015 Y21.6651
G01 X43.1759 Y21.6740
G01 X43.1615 Y21.6800
G01 X43.1384 Y21.6912
G01 X43.1259 Y21.6981
G01 X43.1030 Y21.7125
G01 X43.0914 Y21.7208
G01 X43.0702 Y21.7377
G01 X43.0596 Y21.7472
G01 X42.2257 Y22.5805
G01 X42.2072 Y22.6007
G01 X42.2076 Y22.6010
G01 X42.1905 Y22.6215
G01 X42.1805 Y22.6355
G01 X42.1613 Y22.6676
G01 X42.1496 Y22.6916
G01 X42.1441 Y22.7045
G01 X42.1352 Y22.7296
G01 X42.1312 Y22.7430
G01 X42.1250 Y22.7690
G01 X42.1225 Y22.7828
G01 X42.1193 Y22.8092
G01 X42.1183 Y22.8232
G01 X42.1178 Y22.8395
G01 X42.1186 Y22.8639
G01 X42.1212 Y22.8904
G01 X42.1243 Y22.9098
G01 X42.1325 Y22.9439
G01 X42.1409 Y22.9692
G01 X42.1465 Y22.9835
G01 X42.1636 Y23.0189
G01 X42.1773 Y23.0417
G01 X42.1852 Y23.0533
G01 X42.2013 Y23.0746
G01 X42.2235 Y23.0994
G01 X42.2390 Y23.1141
G01 X42.2662 Y23.1364
G01 X42.3261 Y23.2260
G01 X42.3414 Y23.3012
G01 X42.3450 Y23.3150
G01 X42.3532 Y23.3408
G01 X42.3589 Y23.3558
G01 X42.3759 Y23.3915
G01 X42.3896 Y23.4148
G01 X42.3975 Y23.4266
G01 X42.4138 Y23.4483
G01 X42.4368 Y23.4741
G01 X42.4520 Y23.4886
G01 X42.4726 Y23.5061
G01 X42.4840 Y23.5146
G01 X42.5065 Y23.5297
G01 X42.5188 Y23.5369
G01 X42.5429 Y23.5493
G01 X42.5559 Y23.5552
G01 X42.5812 Y23.5648
G01 X42.5947 Y23.5691
G01 X42.6210 Y23.5759
G01 X42.6349 Y23.5787
G01 X42.6617 Y23.5825
G01 X42.6962 Y23.5845
G01 X42.7172 Y23.5840
G01 X42.7442 Y23.5817
G01 X42.7633 Y23.5790
G01 X42.7987 Y23.5709
G01 X42.8245 Y23.5627
G01 X42.8395 Y23.5570
G01 X42.8751 Y23.5400
G01 X42.8985 Y23.5263
G01 X42.9103 Y23.5183
G01 X42.9319 Y23.5021
G01 X42.9578 Y23.4791
G01 X42.9723 Y23.4639
G01 X42.9897 Y23.4432
G01 X42.9983 Y23.4319
G01 X43.0461 Y23.3611
G01 X43.3989 Y23.1253
G01 X43.7100 Y23.0635
G01 X43.9200 Y23.0635
G01 X44.2311 Y23.1253
G01 X44.5839 Y23.3611
G01 X44.8197 Y23.7139
G01 X44.9024 Y24.1300
G01 X44.8197 Y24.5461
G01 X44.5839 Y24.8989
G01 X44.2311 Y25.1347
G01 X43.9200 Y25.1965
G01 X43.7100 Y25.1965
G01 X43.3989 Y25.1347
G01 X43.0461 Y24.8989
G01 X42.9983 Y24.8281
G01 X42.9897 Y24.8168
G01 X42.9723 Y24.7961
G01 X42.9578 Y24.7809
G01 X42.9319 Y24.7579
G01 X42.9103 Y24.7417
G01 X42.8966 Y24.7325
G01 X42.8625 Y24.7134
G01 X42.8378 Y24.7024
G01 X42.8204 Y24.6958
G01 X42.7987 Y24.6891
G01 X42.7849 Y24.6855
G01 X42.7583 Y24.6802
G01 X42.7442 Y24.6783
G01 X42.7172 Y24.6760
G01 X42.6962 Y24.6755
G01 X42.6617 Y24.6775
G01 X42.6618 Y24.6781
G01 X42.6349 Y24.6813
G01 X42.6164 Y24.6851
G01 X42.5812 Y24.6952
G01 X42.5559 Y24.7048
G01 X42.5420 Y24.7110
G01 X42.5188 Y24.7231
G01 X42.5065 Y24.7303
G01 X42.4840 Y24.7454
G01 X42.4726 Y24.7539
G01 X42.4520 Y24.7714
G01 X42.4368 Y24.7859
G01 X42.4138 Y24.8117
G01 X42.3975 Y24.8334
G01 X42.3884 Y24.8471
G01 X42.3693 Y24.8812
G01 X42.3583 Y24.9059
G01 X42.3517 Y24.9233
G01 X42.3414 Y24.9588
G01 X42.3261 Y25.0340
G01 X42.2672 Y25.1222
G01 X42.1790 Y25.1811
G01 X42.0387 Y25.2090
G01 X40.5113 Y25.2090
G01 X40.3710 Y25.1811
G01 X40.2828 Y25.1222
G01 X40.2239 Y25.0340
G01 X40.1960 Y24.8937
G01 X40.1960 Y23.3663
G01 X40.2239 Y23.2260
G01 X40.2828 Y23.1378
G01 X40.3710 Y23.0789
G01 X40.3971 Y23.0737
G01 X40.3970 Y23.0731
G00 Z2.0000
G00 X40.3718 Y23.1118
G01 F350.00
G01 Z-0.1306
G01 F400.00
G01 X40.3965 Y23.1017
G01 X40.4221 Y23.0945
G01 X40.4484 Y23.0901
G01 X40.4750 Y23.0886
G01 X40.7334 Y23.0886
G01 X40.7334 Y22.7300
G01 X40.7357 Y22.6829
G01 X40.7387 Y22.6560
G01 X40.7444 Y22.6228
G01 X40.7504 Y22.5964
G01 X40.7597 Y22.5640
G01 X40.7687 Y22.5385
G01 X40.7815 Y22.5074
G01 X40.7933 Y22.4830
G01 X40.8096 Y22.4535
G01 X40.8220 Y22.4334
G01 X40.8435 Y22.4032
G01 X40.8608 Y22.3824
G01 X40.8603 Y22.3820
G01 X40.8921 Y22.3471
G01 X42.5499 Y20.6898
G01 X42.5750 Y20.6673
G01 X42.5962 Y20.6505
G01 X42.6236 Y20.6310
G01 X42.6465 Y20.6166
G01 X42.6760 Y20.6003
G01 X42.6991 Y20.5891
G01 X42.7315 Y20.5757
G01 X42.7570 Y20.5667
G01 X42.7894 Y20.5574
G01 X42.8158 Y20.5514
G01 X42.8490 Y20.5457
G01 X42.8759 Y20.5427
G01 X42.9230 Y20.5404
G01 X82.4230 Y20.5404
G01 X82.4701 Y20.5427
G01 X82.4970 Y20.5457
G01 X82.5302 Y20.5514
G01 X82.5566 Y20.5574
G01 X82.5890 Y20.5667
G01 X82.6145 Y20.5757
G01 X82.6456 Y20.5885
G01 X82.6700 Y20.6003
G01 X82.6995 Y20.6166
G01 X82.7196 Y20.6290
G01 X82.7498 Y20.6505
G01 X82.7706 Y20.6678
G01 X82.7710 Y20.6673
G01 X82.8059 Y20.6991
G01 X91.5250 Y29.4182
G01 X91.5568 Y29.4531
G01 X91.5737 Y29.4743
G01 X91.5931 Y29.5017
G01 X91.6075 Y29.5246
G01 X91.6238 Y29.5541
G01 X91.6350 Y29.5772
G01 X91.6484 Y29.6096
G01 X91.6574 Y29.6351
G01 X91.6667 Y29.6675
G01 X91.6718 Y29.6885
G01 X91.6784 Y29.7271
G01 X91.6814 Y29.7540
G01 X91.6837 Y29.8011
G01 X91.6837 Y37.6533
G01 X91.7494 Y37.6999
G01 X91.7702 Y37.7172
G01 X91.7706 Y37.7168
G01 X91.8333 Y37.7729
G01 X91.8524 Y37.7920
G01 X91.9085 Y37.8547
G01 X91.9254 Y37.8759
G01 X91.9740 Y37.9445
G01 X91.9884 Y37.9674
G01 X92.0291 Y38.0410
G01 X92.0403 Y38.0641
G01 X92.0730 Y38.1431
G01 X92.0820 Y38.1686
G01 X92.1053 Y38.2495
G01 X92.1103 Y38.2705
G01 X92.1254 Y38.3588
G01 X92.1284 Y38.3857
G01 X92.1335 Y38.4832
G01 X92.1284 Y38.5807
G01 X92.1254 Y38.6076
G01 X92.1113 Y38.6905
G01 X92.1053 Y38.7169
G01 X92.0820 Y38.7977
G01 X92.0730 Y38.8233
G01 X92.0409 Y38.9010
G01 X92.0291 Y38.9254
G01 X91.9884 Y38.9990
G01 X91.9760 Y39.0191
G01 X91.9254 Y39.0905
G01 X91.9081 Y39.1113
G01 X91.9085 Y39.1117
G01 X91.8524 Y39.1744
G01 X91.8333 Y39.1935
G01 X91.7706 Y39.2496
G01 X91.7494 Y39.2664
G01 X91.6808 Y39.3151
G01 X91.6579 Y39.3295
G01 X91.5843 Y39.3702
G01 X91.5612 Y39.3814
G01 X91.4822 Y39.4141
G01 X91.4566 Y39.4231
G01 X91.3758 Y39.4463
G01 X91.3548 Y39.4514
G01 X91.2665 Y39.4665
G01 X91.2396 Y39.4695
G01 X91.1421 Y39.4746
G01 X91.0446 Y39.4695
G01 X91.0177 Y39.4665
G01 X90.9348 Y39.4524
G01 X90.9084 Y39.4463
G01 X90.8276 Y39.4231
G01 X90.8020 Y39.4141
G01 X90.7243 Y39.3819
G01 X90.6999 Y39.3702
G01 X90.6263 Y39.3295
G01 X90.6062 Y39.3170
G01 X90.5348 Y39.2664
G01 X90.5140 Y39.2491
G01 X90.5136 Y39.2496
G01 X90.4509 Y39.1935
G01 X90.4318 Y39.1744
G01 X90.3757 Y39.1117
G01 X90.3589 Y39.0905
G01 X90.3102 Y39.0219
G01 X90.2958 Y38.9990
G01 X90.2551 Y38.9254
G01 X90.2439 Y38.9023
G01 X90.2112 Y38.8233
G01 X90.2022 Y38.7977
G01 X90.1789 Y38.7169
G01 X90.1739 Y38.6958
G01 X90.1588 Y38.6076
G01 X90.1558 Y38.5807
G01 X90.1507 Y38.4832
G01 X90.1558 Y38.3857
G01 X90.1588 Y38.3588
G01 X90.1729 Y38.2759
G01 X90.1789 Y38.2495
G01 X90.2022 Y38.1686
G01 X90.2112 Y38.1431
G01 X90.2434 Y38.0654
G01 X90.2551 Y38.0410
G01 X90.2958 Y37.9674
G01 X90.3083 Y37.9472
G01 X90.3589 Y37.8759
G01 X90.3762 Y37.8551
G01 X90.3757 Y37.8547
G01 X90.4318 Y37.7920
G01 X90.4509 Y37.7729
G01 X90.5136 Y37.7168
G01 X90.5348 Y37.6999
G01 X90.6006 Y37.6533
G01 X90.6006 Y30.0254
G01 X82.1987 Y21.6236
G01 X43.1473 Y21.6236
G01 X41.8166 Y22.9543
G01 X41.8166 Y23.0886
G01 X42.0750 Y23.0886
G01 X42.1016 Y23.0901
G01 X42.1279 Y23.0945
G01 X42.1535 Y23.1017
G01 X42.1782 Y23.1118
G01 X42.2025 Y23.1250
G01 X42.2251 Y23.1409
G01 X42.2457 Y23.1593
G01 X42.2641 Y23.1799
G01 X42.2800 Y23.2025
G01 X42.2932 Y23.2268
G01 X42.3033 Y23.2515
G01 X42.3105 Y23.2771
G01 X42.3149 Y23.3034
G01 X42.3164 Y23.3300
G01 X42.3164 Y24.9300
G01 X42.3149 Y24.9566
G01 X42.3105 Y24.9829
G01 X42.3033 Y25.0085
G01 X42.2932 Y25.0332
G01 X42.2800 Y25.0575
G01 X42.2641 Y25.0801
G01 X42.2457 Y25.1007
G01 X42.2251 Y25.1191
G01 X42.2025 Y25.1350
G01 X42.1782 Y25.1482
G01 X42.1535 Y25.1583
G01 X42.1279 Y25.1655
G01 X42.1016 Y25.1699
G01 X42.0750 Y25.1714
G01 X40.4750 Y25.1714
G01 X40.4484 Y25.1699
G01 X40.4221 Y25.1655
G01 X40.3965 Y25.1583
G01 X40.3718 Y25.1482
G01 X40.3475 Y25.1350
G01 X40.3249 Y25.1191
G01 X40.3043 Y25.1007
G01 X40.2859 Y25.0801
G01 X40.2700 Y25.0575
G01 X40.2568 Y25.0332
G01 X40.2467 Y25.0085
G01 X40.2395 Y24.9829
G01 X40.2351 Y24.9566
G01 X40.2336 Y24.9300
G01 X40.2336 Y23.3300
G01 X40.2351 Y23.3034
G01 X40.2395 Y23.2771
G01 X40.2467 Y23.2515
G01 X40.2568 Y23.2268
G01 X40.2700 Y23.2025
G01 X40.2859 Y23.1799
G01 X40.3043 Y23.1593
G01 X40.3249 Y23.1409
G01 X40.3475 Y23.1250
G01 X40.3718 Y23.1118
G00 Z2.0000
G00 X40.4387 Y23.2532
G01 F350.00
G01 Z-0.1306
G01 F400.00
G01 X40.4473 Y23.2496
G01 X40.4564 Y23.2471
G01 X40.4656 Y23.2455
G01 X40.4750 Y23.2450
G01 X40.8898 Y23.2450
G01 X40.8898 Y22.7300
G01 X40.8919 Y22.6916
G01 X40.8986 Y22.6490
G01 X40.9007 Y22.6397
G01 X40.9132 Y22.5983
G01 X40.9260 Y22.5672
G01 X40.9465 Y22.5292
G01 X40.9710 Y22.4937
G01 X41.0027 Y22.4577
G01 X42.6541 Y20.8064
G01 X42.6867 Y20.7780
G01 X42.7141 Y20.7585
G01 X42.7222 Y20.7535
G01 X42.7598 Y20.7332
G01 X42.7913 Y20.7202
G01 X42.8327 Y20.7077
G01 X42.8420 Y20.7056
G01 X42.8846 Y20.6989
G01 X42.9230 Y20.6968
G01 X82.4230 Y20.6968
G01 X82.4708 Y20.6999
G01 X82.5040 Y20.7056
G01 X82.5457 Y20.7170
G01 X82.5858 Y20.7330
G01 X82.5943 Y20.7372
G01 X82.6309 Y20.7579
G01 X82.6668 Y20.7840
G01 X82.6953 Y20.8097
G01 X91.4145 Y29.5288
G01 X91.4461 Y29.5648
G01 X91.4656 Y29.5922
G01 X91.4869 Y29.6298
G01 X91.5039 Y29.6694
G01 X91.5182 Y29.7182
G01 X91.5252 Y29.7627
G01 X91.5273 Y29.8011
G01 X91.5273 Y37.7434
G01 X91.5893 Y37.7781
G01 X91.6664 Y37.8334
G01 X91.7358 Y37.8962
G01 X91.7919 Y37.9589
G01 X91.7978 Y37.9664
G01 X91.8515 Y38.0430
G01 X91.8962 Y38.1248
G01 X91.9286 Y38.2029
G01 X91.9550 Y38.2928
G01 X91.9571 Y38.3021
G01 X91.9723 Y38.3944
G01 X91.9771 Y38.4832
G01 X91.9712 Y38.5814
G01 X91.9571 Y38.6643
G01 X91.9317 Y38.7544
G01 X91.8964 Y38.8411
G01 X91.8922 Y38.8497
G01 X91.8472 Y38.9304
G01 X91.7978 Y39.0000
G01 X91.7358 Y39.0701
G01 X91.7291 Y39.0769
G01 X91.6664 Y39.1329
G01 X91.5903 Y39.1875
G01 X91.5086 Y39.2333
G01 X91.5000 Y39.2374
G01 X91.4133 Y39.2728
G01 X91.3251 Y39.2978
G01 X91.2308 Y39.3133
G01 X91.1421 Y39.3182
G01 X91.0534 Y39.3133
G01 X90.9610 Y39.2982
G01 X90.9517 Y39.2961
G01 X90.8709 Y39.2728
G01 X90.7842 Y39.2374
G01 X90.7020 Y39.1926
G01 X90.6939 Y39.1875
G01 X90.6253 Y39.1389
G01 X90.5551 Y39.0769
G01 X90.5484 Y39.0701
G01 X90.4864 Y39.0000
G01 X90.4377 Y38.9314
G01 X90.3920 Y38.8497
G01 X90.3557 Y38.7634
G01 X90.3525 Y38.7544
G01 X90.3275 Y38.6662
G01 X90.3130 Y38.5814
G01 X90.3072 Y38.4879
G01 X90.3072 Y38.4784
G01 X90.3120 Y38.3944
G01 X90.3271 Y38.3021
G01 X90.3525 Y38.2119
G01 X90.3879 Y38.1252
G01 X90.3920 Y38.1167
G01 X90.4371 Y38.0359
G01 X90.4864 Y37.9664
G01 X90.5484 Y37.8962
G01 X90.5551 Y37.8895
G01 X90.6253 Y37.8275
G01 X90.6939 Y37.7788
G01 X90.7570 Y37.7434
G01 X90.7570 Y29.9606
G01 X82.2635 Y21.4672
G01 X43.0825 Y21.4672
G01 X41.6602 Y22.8895
G01 X41.6602 Y23.2450
G01 X42.0750 Y23.2450
G01 X42.0844 Y23.2455
G01 X42.0936 Y23.2471
G01 X42.1027 Y23.2496
G01 X42.1113 Y23.2532
G01 X42.1199 Y23.2578
G01 X42.1278 Y23.2634
G01 X42.1351 Y23.2699
G01 X42.1416 Y23.2772
G01 X42.1472 Y23.2851
G01 X42.1518 Y23.2937
G01 X42.1554 Y23.3023
G01 X42.1579 Y23.3114
G01 X42.1595 Y23.3206
G01 X42.1600 Y23.3300
G01 X42.1600 Y24.9300
G01 X42.1595 Y24.9394
G01 X42.1579 Y24.9486
G01 X42.1554 Y24.9577
G01 X42.1518 Y24.9663
G01 X42.1472 Y24.9749
G01 X42.1416 Y24.9828
G01 X42.1351 Y24.9901
G01 X42.1278 Y24.9966
G01 X42.1199 Y25.0022
G01 X42.1113 Y25.0068
G01 X42.1027 Y25.0104
G01 X42.0936 Y25.0129
G01 X42.0844 Y25.0145
G01 X42.0750 Y25.0150
G01 X40.4750 Y25.0150
G01 X40.4656 Y25.0145
G01 X40.4564 Y25.0129
G01 X40.4473 Y25.0104
G01 X40.4387 Y25.0068
G01 X40.4301 Y25.0022
G01 X40.4222 Y24.9966
G01 X40.4149 Y24.9901
G01 X40.4084 Y24.9828
G01 X40.4028 Y24.9749
G01 X40.3982 Y24.9663
G01 X40.3946 Y24.9577
G01 X40.3921 Y24.9486
G01 X40.3905 Y24.9394
G01 X40.3900 Y24.9300
G01 X40.3900 Y23.3300
G01 X40.3905 Y23.3206
G01 X40.3921 Y23.3114
G01 X40.3946 Y23.3023
G01 X40.3982 Y23.2937
G01 X40.4028 Y23.2851
G01 X40.4084 Y23.2772
G01 X40.4149 Y23.2699
G01 X40.4222 Y23.2634
G01 X40.4301 Y23.2578
G01 X40.4387 Y23.2532
G00 Z2.0000
G00 X42.4728 Y24.5710
G01 F350.00
G01 Z-0.1306
G01 F400.00
G01 X42.4728 Y23.6889
G01 X42.4920 Y23.6979
G01 X42.5337 Y23.7138
G01 X42.5472 Y23.7182
G01 X42.5904 Y23.7293
G01 X42.6044 Y23.7321
G01 X42.6486 Y23.7383
G01 X42.6831 Y23.7404
G01 X42.6776 Y23.7557
G01 X42.6528 Y23.8419
G01 X42.6429 Y23.8853
G01 X42.6279 Y23.9738
G01 X42.6229 Y24.0181
G01 X42.6178 Y24.1077
G01 X42.6172 Y24.1300
G01 X42.6178 Y24.1523
